/* XPM */
static char * spritesheet_xpm[] = {
"1000 750 15 1",
" 	c #FF00FF",
".	c #8000FF",
"+	c #000000",
"@	c #FF0000",
"#	c #FFB7FF",
"$	c #00FFFF",
"%	c #FFB751",
"&	c #FFB7AE",
"*	c #2121FF",
"=	c #DEDEFF",
"-	c #00FF00",
";	c #FFFF00",
">	c #DE9751",
",	c #47B7FF",
"'	c #47B7AE",
"                                                                                          .......................................................                                                                                                                                                 .......................................................                                                                                                                                                 .......................................................                                                                                                                                                 .......................................................                                                                                                                                                 .......................................................                                                       ",
" ++++++++ ++++++++ ++++++++ ++++++++ ++++++++ ++++++++ ++++++++ ++++++++ ++++++++ ++++++++.++++++++.++++++++.++++++++.++++++++.++++++++.++++++++.++++++++ ++++++++ ++++++++ ++++++++ ++++++++ ++++++++   ++++++++ ++++++++ ++++++++ ++++++++ ++++++++ ++++++++ ++++++++ ++++++++ ++++++++ ++++++++.++++++++.++++++++.++++++++.++++++++.++++++++.++++++++.++++++++ ++++++++ ++++++++ ++++++++ ++++++++ ++++++++   ++++++++ ++++++++ ++++++++ ++++++++ ++++++++ ++++++++ ++++++++ ++++++++ ++++++++ ++++++++.++++++++.++++++++.++++++++.++++++++.++++++++.++++++++.++++++++ ++++++++ ++++++++ ++++++++ ++++++++ ++++++++   ++++++++ ++++++++ ++++++++ ++++++++ ++++++++ ++++++++ ++++++++ ++++++++ ++++++++ ++++++++.++++++++.++++++++.++++++++.++++++++.++++++++.++++++++.++++++++ ++++++++ ++++++++ ++++++++ ++++++++ ++++++++   ++++++++ ++++++++ ++++++++ ++++++++ ++++++++ ++++++++ ++++++++ ++++++++ ++++++++ ++++++++.++++++++.++++++++.++++++++.++++++++.++++++++.++++++++.++++++++ ++++++++ ++++++++ ++++++++ ++++++++ ++++++++  ",
" +++@@@++ ++++@@++ ++@@@@@+ ++@@@@@@ ++++@@@+ +@@@@@@+ +++@@@@+ +@@@@@@@ ++@@@@++ ++@@@@@+.+++@@@++.+@@@@@@+.+++@@@@+.+@@@@@++.++@@@@@@.+@@@@@@@.++++++++ ++++++++ ++++++++ ++++++++ ++++++++ ++++++++   +++###++ ++++##++ ++#####+ ++###### ++++###+ +######+ +++####+ +####### ++####++ ++#####+.+++###++.+######+.+++####+.+#####++.++######.+#######.++++++++ ++++++++ ++++++++ ++++++++ ++++++++ ++++++++   +++$$$++ ++++$$++ ++$$$$$+ ++$$$$$$ ++++$$$+ +$$$$$$+ +++$$$$+ +$$$$$$$ ++$$$$++ ++$$$$$+.+++$$$++.+$$$$$$+.+++$$$$+.+$$$$$++.++$$$$$$.+$$$$$$$.++++++++ ++++++++ ++++++++ ++++++++ ++++++++ ++++++++   +++%%%++ ++++%%++ ++%%%%%+ ++%%%%%% ++++%%%+ +%%%%%%+ +++%%%%+ +%%%%%%% ++%%%%++ ++%%%%%+.+++%%%++.+%%%%%%+.+++%%%%+.+%%%%%++.++%%%%%%.+%%%%%%%.++++++++ ++++++++ ++++++++ ++++++++ ++++++++ ++++++++   +++&&&++ ++++&&++ ++&&&&&+ ++&&&&&& ++++&&&+ +&&&&&&+ +++&&&&+ +&&&&&&& ++&&&&++ ++&&&&&+.+++&&&++.+&&&&&&+.+++&&&&+.+&&&&&++.++&&&&&&.+&&&&&&&.++++++++ ++++++++ ++++++++ ++++++++ ++++++++ ++++++++  ",
" ++@++@@+ +++@@@++ +@@+++@@ +++++@@+ +++@@@@+ +@@+++++ ++@@++++ +@@+++@@ +@@+++@+ +@@+++@@.++@@+@@+.+@@+++@@.++@@++@@.+@@++@@+.++@@++++.+@@+++++.++++++++ ++++++++ ++++++++ ++++++++ ++++++++ ++++++++   ++#++##+ +++###++ +##+++## +++++##+ +++####+ +##+++++ ++##++++ +##+++## +##+++#+ +##+++##.++##+##+.+##+++##.++##++##.+##++##+.++##++++.+##+++++.++++++++ ++++++++ ++++++++ ++++++++ ++++++++ ++++++++   ++$++$$+ +++$$$++ +$$+++$$ +++++$$+ +++$$$$+ +$$+++++ ++$$++++ +$$+++$$ +$$+++$+ +$$+++$$.++$$+$$+.+$$+++$$.++$$++$$.+$$++$$+.++$$++++.+$$+++++.++++++++ ++++++++ ++++++++ ++++++++ ++++++++ ++++++++   ++%++%%+ +++%%%++ +%%+++%% +++++%%+ +++%%%%+ +%%+++++ ++%%++++ +%%+++%% +%%+++%+ +%%+++%%.++%%+%%+.+%%+++%%.++%%++%%.+%%++%%+.++%%++++.+%%+++++.++++++++ ++++++++ ++++++++ ++++++++ ++++++++ ++++++++   ++&++&&+ +++&&&++ +&&+++&& +++++&&+ +++&&&&+ +&&+++++ ++&&++++ +&&+++&& +&&+++&+ +&&+++&&.++&&+&&+.+&&+++&&.++&&++&&.+&&++&&+.++&&++++.+&&+++++.++++++++ ++++++++ ++++++++ ++++++++ ++++++++ ++++++++  ",
" +@@+++@@ ++++@@++ +++++@@@ ++++@@++ ++@@+@@+ +@@@@@@+ +@@+++++ +++++@@+ +@@@++@+ +@@+++@@.+@@+++@@.+@@+++@@.+@@+++++.+@@+++@@.++@@++++.+@@+++++.++++++++ ++++++++ ++++++++ ++++++++ ++++++++ ++++++++   +##+++## ++++##++ +++++### ++++##++ ++##+##+ +######+ +##+++++ +++++##+ +###++#+ +##+++##.+##+++##.+##+++##.+##+++++.+##+++##.++##++++.+##+++++.++++++++ ++++++++ ++++++++ ++++++++ ++++++++ ++++++++   +$$+++$$ ++++$$++ +++++$$$ ++++$$++ ++$$+$$+ +$$$$$$+ +$$+++++ +++++$$+ +$$$++$+ +$$+++$$.+$$+++$$.+$$+++$$.+$$+++++.+$$+++$$.++$$++++.+$$+++++.++++++++ ++++++++ ++++++++ ++++++++ ++++++++ ++++++++   +%%+++%% ++++%%++ +++++%%% ++++%%++ ++%%+%%+ +%%%%%%+ +%%+++++ +++++%%+ +%%%++%+ +%%+++%%.+%%+++%%.+%%+++%%.+%%+++++.+%%+++%%.++%%++++.+%%+++++.++++++++ ++++++++ ++++++++ ++++++++ ++++++++ ++++++++   +&&+++&& ++++&&++ +++++&&& ++++&&++ ++&&+&&+ +&&&&&&+ +&&+++++ +++++&&+ +&&&++&+ +&&+++&&.+&&+++&&.+&&+++&&.+&&+++++.+&&+++&&.++&&++++.+&&+++++.++++++++ ++++++++ ++++++++ ++++++++ ++++++++ ++++++++  ",
" +@@+++@@ ++++@@++ +++@@@@+ +++@@@@+ +@@++@@+ ++++++@@ +@@@@@@+ ++++@@++ ++@@@@++ ++@@@@@@.+@@+++@@.+@@@@@@+.+@@+++++.+@@+++@@.++@@@@@+.+@@@@@@+.++++++@@ @@@@@@@@ @@++++++ ++++@@@@ @@@@@@@@ @@@@++++   +##+++## ++++##++ +++####+ +++####+ +##++##+ ++++++## +######+ ++++##++ ++####++ ++######.+##+++##.+######+.+##+++++.+##+++##.++#####+.+######+.++++++## ######## ##++++++ ++++#### ######## ####++++   +$$+++$$ ++++$$++ +++$$$$+ +++$$$$+ +$$++$$+ ++++++$$ +$$$$$$+ ++++$$++ ++$$$$++ ++$$$$$$.+$$+++$$.+$$$$$$+.+$$+++++.+$$+++$$.++$$$$$+.+$$$$$$+.++++++$$ $$$$$$$$ $$++++++ ++++$$$$ $$$$$$$$ $$$$++++   +%%+++%% ++++%%++ +++%%%%+ +++%%%%+ +%%++%%+ ++++++%% +%%%%%%+ ++++%%++ ++%%%%++ ++%%%%%%.+%%+++%%.+%%%%%%+.+%%+++++.+%%+++%%.++%%%%%+.+%%%%%%+.++++++%% %%%%%%%% %%++++++ ++++%%%% %%%%%%%% %%%%++++   +&&+++&& ++++&&++ +++&&&&+ +++&&&&+ +&&++&&+ ++++++&& +&&&&&&+ ++++&&++ ++&&&&++ ++&&&&&&.+&&+++&&.+&&&&&&+.+&&+++++.+&&+++&&.++&&&&&+.+&&&&&&+.++++++&& &&&&&&&& &&++++++ ++++&&&& &&&&&&&& &&&&++++  ",
" +@@+++@@ ++++@@++ ++@@@@++ ++++++@@ +@@@@@@@ ++++++@@ +@@+++@@ +++@@+++ +@++@@@@ ++++++@@.+@@@@@@@.+@@+++@@.+@@+++++.+@@+++@@.++@@++++.+@@+++++.+++++@** ******** **@+++++ ++++@*** ******** ***@++++   +##+++## ++++##++ ++####++ ++++++## +####### ++++++## +##+++## +++##+++ +#++#### ++++++##.+#######.+##+++##.+##+++++.+##+++##.++##++++.+##+++++.+++++#** ******** **#+++++ ++++#*** ******** ***#++++   +$$+++$$ ++++$$++ ++$$$$++ ++++++$$ +$$$$$$$ ++++++$$ +$$+++$$ +++$$+++ +$++$$$$ ++++++$$.+$$$$$$$.+$$+++$$.+$$+++++.+$$+++$$.++$$++++.+$$+++++.+++++$** ******** **$+++++ ++++$*** ******** ***$++++   +%%+++%% ++++%%++ ++%%%%++ ++++++%% +%%%%%%% ++++++%% +%%+++%% +++%%+++ +%++%%%% ++++++%%.+%%%%%%%.+%%+++%%.+%%+++++.+%%+++%%.++%%++++.+%%+++++.+++++%** ******** **%+++++ ++++%*** ******** ***%++++   +&&+++&& ++++&&++ ++&&&&++ ++++++&& +&&&&&&& ++++++&& +&&+++&& +++&&+++ +&++&&&& ++++++&&.+&&&&&&&.+&&+++&&.+&&+++++.+&&+++&&.++&&++++.+&&+++++.+++++&** ******** **&+++++ ++++&*** ******** ***&++++  ",
" ++@@++@+ ++++@@++ +@@@++++ +@@+++@@ +++++@@+ +@@+++@@ +@@+++@@ +++@@+++ +@++++@@ +++++@@+.+@@+++@@.+@@+++@@.++@@++@@.+@@++@@+.++@@++++.+@@+++++.++++@*** ******** ***@++++ ++++@*** ******** ***@++++   ++##++#+ ++++##++ +###++++ +##+++## +++++##+ +##+++## +##+++## +++##+++ +#++++## +++++##+.+##+++##.+##+++##.++##++##.+##++##+.++##++++.+##+++++.++++#*** ******** ***#++++ ++++#*** ******** ***#++++   ++$$++$+ ++++$$++ +$$$++++ +$$+++$$ +++++$$+ +$$+++$$ +$$+++$$ +++$$+++ +$++++$$ +++++$$+.+$$+++$$.+$$+++$$.++$$++$$.+$$++$$+.++$$++++.+$$+++++.++++$*** ******** ***$++++ ++++$*** ******** ***$++++   ++%%++%+ ++++%%++ +%%%++++ +%%+++%% +++++%%+ +%%+++%% +%%+++%% +++%%+++ +%++++%% +++++%%+.+%%+++%%.+%%+++%%.++%%++%%.+%%++%%+.++%%++++.+%%+++++.++++%*** ******** ***%++++ ++++%*** ******** ***%++++   ++&&++&+ ++++&&++ +&&&++++ +&&+++&& +++++&&+ +&&+++&& +&&+++&& +++&&+++ +&++++&& +++++&&+.+&&+++&&.+&&+++&&.++&&++&&.+&&++&&+.++&&++++.+&&+++++.++++&*** ******** ***&++++ ++++&*** ******** ***&++++  ",
" +++@@@++ ++@@@@@@ +@@@@@@@ ++@@@@@+ +++++@@+ ++@@@@@+ ++@@@@@+ +++@@+++ ++@@@@@+ ++@@@@++.+@@+++@@.+@@@@@@+.+++@@@@+.+@@@@@++.++@@@@@@.+@@+++++.++++@*** ******** ***@++++ ++++@**@ @@@@@@@@ @**@++++   +++###++ ++###### +####### ++#####+ +++++##+ ++#####+ ++#####+ +++##+++ ++#####+ ++####++.+##+++##.+######+.+++####+.+#####++.++######.+##+++++.++++#*** ******** ***#++++ ++++#**# ######## #**#++++   +++$$$++ ++$$$$$$ +$$$$$$$ ++$$$$$+ +++++$$+ ++$$$$$+ ++$$$$$+ +++$$+++ ++$$$$$+ ++$$$$++.+$$+++$$.+$$$$$$+.+++$$$$+.+$$$$$++.++$$$$$$.+$$+++++.++++$*** ******** ***$++++ ++++$**$ $$$$$$$$ $**$++++   +++%%%++ ++%%%%%% +%%%%%%% ++%%%%%+ +++++%%+ ++%%%%%+ ++%%%%%+ +++%%+++ ++%%%%%+ ++%%%%++.+%%+++%%.+%%%%%%+.+++%%%%+.+%%%%%++.++%%%%%%.+%%+++++.++++%*** ******** ***%++++ ++++%**% %%%%%%%% %**%++++   +++&&&++ ++&&&&&& +&&&&&&& ++&&&&&+ +++++&&+ ++&&&&&+ ++&&&&&+ +++&&+++ ++&&&&&+ ++&&&&++.+&&+++&&.+&&&&&&+.+++&&&&+.+&&&&&++.++&&&&&&.+&&+++++.++++&*** ******** ***&++++ ++++&**& &&&&&&&& &**&++++  ",
"                                                                                          .......................................................                                                                                                                                                 .......................................................                                                                                                                                                 .......................................................                                                                                                                                                 .......................................................                                                                                                                                                 .......................................................                                                       ",
" @@@@@@@+ +++@@@@@ @+++@@@@ @@@@@+++ +@@@@@@@ +++@@@@@ @+++++++ ++++++++ ++++++++ ++++++++ +++++++@ ++++++++ ++++++++ ++++++++ ++++++++ ++++++++ ++++@*** ******** ***@++++ ++++@**@ ++++++++ @**@++++   #######+ +++##### #+++#### #####+++ +####### +++##### #+++++++ ++++++++ ++++++++ ++++++++ +++++++# ++++++++ ++++++++ ++++++++ ++++++++ ++++++++ ++++#*** ******** ***#++++ ++++#**# ++++++++ #**#++++   $$$$$$$+ +++$$$$$ $+++$$$$ $$$$$+++ +$$$$$$$ +++$$$$$ $+++++++ ++++++++ ++++++++ ++++++++ +++++++$ ++++++++ ++++++++ ++++++++ ++++++++ ++++++++ ++++$*** ******** ***$++++ ++++$**$ ++++++++ $**$++++   %%%%%%%+ +++%%%%% %+++%%%% %%%%%+++ +%%%%%%% +++%%%%% %+++++++ ++++++++ ++++++++ ++++++++ +++++++% ++++++++ ++++++++ ++++++++ ++++++++ ++++++++ ++++%*** ******** ***%++++ ++++%**% ++++++++ %**%++++   &&&&&&&+ +++&&&&& &+++&&&& &&&&&+++ +&&&&&&& +++&&&&& &+++++++ ++++++++ ++++++++ ++++++++ +++++++& ++++++++ ++++++++ ++++++++ ++++++++ ++++++++ ++++&*** ******** ***&++++ ++++&**& ++++++++ &**&++++  ",
" @@@@@@@@ +++@@@@@ @@++@@@@ @@@@@@++ @@@@@@@@ ++@@@@@@ @@++++++ ++++++++ ++++++++ ++++++++ ++++++@+ ++++++++ ++++++++ ++++++++ ++++++++ ++++++++ ++++@*** ******** ***@++++ ++++@**@ ++++++++ @**@++++   ######## +++##### ##++#### ######++ ######## ++###### ##++++++ ++++++++ ++++++++ ++++++++ ++++++#+ ++++++++ ++++++++ ++++++++ ++++++++ ++++++++ ++++#*** ******** ***#++++ ++++#**# ++++++++ #**#++++   $$$$$$$$ +++$$$$$ $$++$$$$ $$$$$$++ $$$$$$$$ ++$$$$$$ $$++++++ ++++++++ ++++++++ ++++++++ ++++++$+ ++++++++ ++++++++ ++++++++ ++++++++ ++++++++ ++++$*** ******** ***$++++ ++++$**$ ++++++++ $**$++++   %%%%%%%% +++%%%%% %%++%%%% %%%%%%++ %%%%%%%% ++%%%%%% %%++++++ ++++++++ ++++++++ ++++++++ ++++++%+ ++++++++ ++++++++ ++++++++ ++++++++ ++++++++ ++++%*** ******** ***%++++ ++++%**% ++++++++ %**%++++   &&&&&&&& +++&&&&& &&++&&&& &&&&&&++ &&&&&&&& ++&&&&&& &&++++++ ++++++++ ++++++++ ++++++++ ++++++&+ ++++++++ ++++++++ ++++++++ ++++++++ ++++++++ ++++&*** ******** ***&++++ ++++&**& ++++++++ &**&++++  ",
" @@++++@@ ++++++++ @@++@@++ @@++@@++ @@++++++ ++@@++++ @@++++++ @@@@++@@ @@@++@@@ @+++++++ +++++@++ ++++++++ ++++++++ ++++++++ ++++++++ ++++++++ ++++@*** ******** ***@++++ ++++@**@ ++++++++ @**@++++   ##++++## ++++++++ ##++##++ ##++##++ ##++++++ ++##++++ ##++++++ ####++## ###++### #+++++++ +++++#++ ++++++++ ++++++++ ++++++++ ++++++++ ++++++++ ++++#*** ******** ***#++++ ++++#**# ++++++++ #**#++++   $$++++$$ ++++++++ $$++$$++ $$++$$++ $$++++++ ++$$++++ $$++++++ $$$$++$$ $$$++$$$ $+++++++ +++++$++ ++++++++ ++++++++ ++++++++ ++++++++ ++++++++ ++++$*** ******** ***$++++ ++++$**$ ++++++++ $**$++++   %%++++%% ++++++++ %%++%%++ %%++%%++ %%++++++ ++%%++++ %%++++++ %%%%++%% %%%++%%% %+++++++ +++++%++ ++++++++ ++++++++ ++++++++ ++++++++ ++++++++ ++++%*** ******** ***%++++ ++++%**% ++++++++ %**%++++   &&++++&& ++++++++ &&++&&++ &&++&&++ &&++++++ ++&&++++ &&++++++ &&&&++&& &&&++&&& &+++++++ +++++&++ ++++++++ ++++++++ ++++++++ ++++++++ ++++++++ ++++&*** ******** ***&++++ ++++&**& ++++++++ &**&++++  ",
" @@++++@@ ++@@@@@@ @@++@@++ @@++@@++ @@++++++ ++@@++++ @@++++++ @+++@+++ @+++@+++ ++++++++ ++++@+++ +++@@@++ ++++++++ ++++++++ ++++++++ +++==+++ ++++@*** ******** ***@++++ ++++@**@ ++++++++ @**@++++   ##++++## ++###### ##++##++ ##++##++ ##++++++ ++##++++ ##++++++ #+++#+++ #+++#+++ ++++++++ ++++#+++ +++###++ ++++++++ ++++++++ ++++++++ +++==+++ ++++#*** ******** ***#++++ ++++#**# ++++++++ #**#++++   $$++++$$ ++$$$$$$ $$++$$++ $$++$$++ $$++++++ ++$$++++ $$++++++ $+++$+++ $+++$+++ ++++++++ ++++$+++ +++$$$++ ++++++++ ++++++++ ++++++++ +++==+++ ++++$*** ******** ***$++++ ++++$**$ ++++++++ $**$++++   %%++++%% ++%%%%%% %%++%%++ %%++%%++ %%++++++ ++%%++++ %%++++++ %+++%+++ %+++%+++ ++++++++ ++++%+++ +++%%%++ ++++++++ ++++++++ ++++++++ +++==+++ ++++%*** ******** ***%++++ ++++%**% ++++++++ %**%++++   &&++++&& ++&&&&&& &&++&&++ &&++&&++ &&++++++ ++&&++++ &&++++++ &+++&+++ &+++&+++ ++++++++ ++++&+++ +++&&&++ ++++++++ ++++++++ ++++++++ +++--+++ ++++&*** ******** ***&++++ ++++&**& ++++++++ &**&++++  ",
" @@++++@@ ++@@@@@@ @@++@@++ @@++@@++ @@++++++ ++@@++++ @@++++++ @@@@++++ @++++@@@ ++++++++ +++@++++ ++++++++ ++++++++ ++++++@@ @@++++++ +++==+++ ++++@*** ******** ***@++++ ++++@**@ ++++++++ @**@++++   ##++++## ++###### ##++##++ ##++##++ ##++++++ ++##++++ ##++++++ ####++++ #++++### ++++++++ +++#++++ ++++++++ ++++++++ ++++++## ##++++++ +++==+++ ++++#*** ******** ***#++++ ++++#**# ++++++++ #**#++++   $$++++$$ ++$$$$$$ $$++$$++ $$++$$++ $$++++++ ++$$++++ $$++++++ $$$$++++ $++++$$$ ++++++++ +++$++++ ++++++++ ++++++++ ++++++$$ $$++++++ +++==+++ ++++$*** ******** ***$++++ ++++$**$ ++++++++ $**$++++   %%++++%% ++%%%%%% %%++%%++ %%++%%++ %%++++++ ++%%++++ %%++++++ %%%%++++ %++++%%% ++++++++ +++%++++ ++++++++ ++++++++ ++++++%% %%++++++ +++==+++ ++++%*** ******** ***%++++ ++++%**% ++++++++ %**%++++   &&++++&& ++&&&&&& &&++&&++ &&++&&++ &&++++++ ++&&++++ &&++++++ &&&&++++ &++++&&& ++++++++ +++&++++ ++++++++ ++++++++ ++++++&& &&++++++ +++--+++ ++++&*** ******** ***&++++ ++++&**& ++++++++ &**&++++  ",
" @@++++@@ ++@@++++ @@++@@++ @@++@@++ @@++++++ ++@@++++ @@++++++ @+++++++ @+++++++ @+++++++ ++@+++++ ++++++++ +@@+++++ ++++@@@@ @@@@++++ ++++++++ ++++@*** ******** ***@++++ ++++@**@ ++++++++ @**@++++   ##++++## ++##++++ ##++##++ ##++##++ ##++++++ ++##++++ ##++++++ #+++++++ #+++++++ #+++++++ ++#+++++ ++++++++ +##+++++ ++++#### ####++++ ++++++++ ++++#*** ******** ***#++++ ++++#**# ++++++++ #**#++++   $$++++$$ ++$$++++ $$++$$++ $$++$$++ $$++++++ ++$$++++ $$++++++ $+++++++ $+++++++ $+++++++ ++$+++++ ++++++++ +$$+++++ ++++$$$$ $$$$++++ ++++++++ ++++$*** ******** ***$++++ ++++$**$ ++++++++ $**$++++   %%++++%% ++%%++++ %%++%%++ %%++%%++ %%++++++ ++%%++++ %%++++++ %+++++++ %+++++++ %+++++++ ++%+++++ ++++++++ +%%+++++ ++++%%%% %%%%++++ ++++++++ ++++%*** ******** ***%++++ ++++%**% ++++++++ %**%++++   &&++++&& ++&&++++ &&++&&++ &&++&&++ &&++++++ ++&&++++ &&++++++ &+++++++ &+++++++ &+++++++ ++&+++++ ++++++++ +&&+++++ ++++&&&& &&&&++++ ++++++++ ++++&*** ******** ***&++++ ++++&**& ++++++++ &**&++++  ",
" @@++++@@ ++@@@@@@ @@++@@++ @@++@@++ @@@@@@@@ ++@@@@@@ @@++++++ @+++++++ @+++@@@@ ++++++++ +@++++++ ++++++++ +@@+++++ +++@@@@@ @@@@@+++ ++++++++ ++++@*** ******** ***@++++ ++++@**@ ++++++++ @**@++++   ##++++## ++###### ##++##++ ##++##++ ######## ++###### ##++++++ #+++++++ #+++#### ++++++++ +#++++++ ++++++++ +##+++++ +++##### #####+++ ++++++++ ++++#*** ******** ***#++++ ++++#**# ++++++++ #**#++++   $$++++$$ ++$$$$$$ $$++$$++ $$++$$++ $$$$$$$$ ++$$$$$$ $$++++++ $+++++++ $+++$$$$ ++++++++ +$++++++ ++++++++ +$$+++++ +++$$$$$ $$$$$+++ ++++++++ ++++$*** ******** ***$++++ ++++$**$ ++++++++ $**$++++   %%++++%% ++%%%%%% %%++%%++ %%++%%++ %%%%%%%% ++%%%%%% %%++++++ %+++++++ %+++%%%% ++++++++ +%++++++ ++++++++ +%%+++++ +++%%%%% %%%%%+++ ++++++++ ++++%*** ******** ***%++++ ++++%**% ++++++++ %**%++++   &&++++&& ++&&&&&& &&++&&++ &&++&&++ &&&&&&&& ++&&&&&& &&++++++ &+++++++ &+++&&&& ++++++++ +&++++++ ++++++++ +&&+++++ +++&&&&& &&&&&+++ ++++++++ ++++&*** ******** ***&++++ ++++&**& ++++++++ &**&++++  ",
" @@++++@@ ++@@@@@@ @@++@@++ @@++@@++ +@@@@@@@ +++@@@@@ @+++++++ ++++++++ ++++++++ ++++++++ ++++++++ ++++++++ ++++++++ ++@@@==@ @@@==@++ ++++++++ ++++@*** ******** ***@++++ ++++@**@ ++++++++ @**@++++   ##++++## ++###### ##++##++ ##++##++ +####### +++##### #+++++++ ++++++++ ++++++++ ++++++++ ++++++++ ++++++++ ++++++++ ++###==# ###==#++ ++++++++ ++++#*** ******** ***#++++ ++++#**# ++++++++ #**#++++   $$++++$$ ++$$$$$$ $$++$$++ $$++$$++ +$$$$$$$ +++$$$$$ $+++++++ ++++++++ ++++++++ ++++++++ ++++++++ ++++++++ ++++++++ ++$$$==$ $$$==$++ ++++++++ ++++$*** ******** ***$++++ ++++$**$ ++++++++ $**$++++   %%++++%% ++%%%%%% %%++%%++ %%++%%++ +%%%%%%% +++%%%%% %+++++++ ++++++++ ++++++++ ++++++++ ++++++++ ++++++++ ++++++++ ++%%%==% %%%==%++ ++++++++ ++++%*** ******** ***%++++ ++++%**% ++++++++ %**%++++   &&++++&& ++&&&&&& &&++&&++ &&++&&++ +&&&&&&& +++&&&&& &+++++++ ++++++++ ++++++++ ++++++++ ++++++++ ++++++++ ++++++++ ++&&&--& &&&--&++ ++++++++ ++++&*** ******** ***&++++ ++++&**& ++++++++ &**&++++  ",
"                                                                                                                                       ..........                                                                                                                                                                                              ..........                                                                                                                                                                                              ..........                                                                                                                                                                                              ..........                                                                                                                                                                                              ..........                                                       ",
" +++@@@++ ++++@@++ ++@@@@@+ ++@@@@@@ ++++@@@+ +@@@@@@+ +++@@@@+ +@@@@@@@ ++@@@@++ ++@@@@@+ ++@@+@@+ ++@@@@++ ++++@@@+ ++@@==== @@====++.++++++++.++++@*** ******** ***@++++ ++++@**@ @@@@@@@@ @**@++++   +++###++ ++++##++ ++#####+ ++###### ++++###+ +######+ +++####+ +####### ++####++ ++#####+ ++##+##+ ++####++ ++++###+ ++##==== ##====++.++++++++.++++#*** ******** ***#++++ ++++#**# ######## #**#++++   +++$$$++ ++++$$++ ++$$$$$+ ++$$$$$$ ++++$$$+ +$$$$$$+ +++$$$$+ +$$$$$$$ ++$$$$++ ++$$$$$+ ++$$+$$+ ++$$$$++ ++++$$$+ ++$$==== $$====++.++++++++.++++$*** ******** ***$++++ ++++$**$ $$$$$$$$ $**$++++   +++%%%++ ++++%%++ ++%%%%%+ ++%%%%%% ++++%%%+ +%%%%%%+ +++%%%%+ +%%%%%%% ++%%%%++ ++%%%%%+ ++%%+%%+ ++%%%%++ ++++%%%+ ++%%==== %%====++.++++++++.++++%*** ******** ***%++++ ++++%**% %%%%%%%% %**%++++   +++&&&++ ++++&&++ ++&&&&&+ ++&&&&&& ++++&&&+ +&&&&&&+ +++&&&&+ +&&&&&&& ++&&&&++ ++&&&&&+ ++&&+&&+ ++&&&&++ ++++&&&+ ++&&---- &&----++.++++++++.++++&*** ******** ***&++++ ++++&**& &&&&&&&& &**&++++  ",
" ++@++@@+ +++@@@++ +@@+++@@ +++++@@+ +++@@@@+ +@@+++++ ++@@++++ +@@+++@@ +@@+++@+ +@@+++@@ ++@@+@@+ +@++++@+ ++++@@@+ ++@@==** @@==**++.++++++++.++++@*** ******** ***@++++ ++++@*** ******** ***@++++   ++#++##+ +++###++ +##+++## +++++##+ +++####+ +##+++++ ++##++++ +##+++## +##+++#+ +##+++## ++##+##+ +#++++#+ ++++###+ ++##==** ##==**++.++++++++.++++#*** ******** ***#++++ ++++#*** ******** ***#++++   ++$++$$+ +++$$$++ +$$+++$$ +++++$$+ +++$$$$+ +$$+++++ ++$$++++ +$$+++$$ +$$+++$+ +$$+++$$ ++$$+$$+ +$++++$+ ++++$$$+ ++$$==** $$==**++.++++++++.++++$*** ******** ***$++++ ++++$*** ******** ***$++++   ++%++%%+ +++%%%++ +%%+++%% +++++%%+ +++%%%%+ +%%+++++ ++%%++++ +%%+++%% +%%+++%+ +%%+++%% ++%%+%%+ +%++++%+ ++++%%%+ ++%%==** %%==**++.++++++++.++++%*** ******** ***%++++ ++++%*** ******** ***%++++   ++&++&&+ +++&&&++ +&&+++&& +++++&&+ +++&&&&+ +&&+++++ ++&&++++ +&&+++&& +&&+++&+ +&&+++&& ++&&+&&+ +&++++&+ ++++&&&+ ++&&--** &&--**++.++++++++.++++&*** ******** ***&++++ ++++&*** ******** ***&++++  ",
" +@@+++@@ ++++@@++ +++++@@@ ++++@@++ ++@@+@@+ +@@@@@@+ +@@+++++ +++++@@+ +@@@++@+ +@@+++@@ +++@++@+ @++@@++@ +++@@@++ +@@@==** @@==**@+.+++==+++.+++++@** ******** **@+++++ ++++@*** ******** ***@++++   +##+++## ++++##++ +++++### ++++##++ ++##+##+ +######+ +##+++++ +++++##+ +###++#+ +##+++## +++#++#+ #++##++# +++###++ +###==** ##==**#+.+++==+++.+++++#** ******** **#+++++ ++++#*** ******** ***#++++   +$$+++$$ ++++$$++ +++++$$$ ++++$$++ ++$$+$$+ +$$$$$$+ +$$+++++ +++++$$+ +$$$++$+ +$$+++$$ +++$++$+ $++$$++$ +++$$$++ +$$$==** $$==**$+.+++==+++.+++++$** ******** **$+++++ ++++$*** ******** ***$++++   +%%+++%% ++++%%++ +++++%%% ++++%%++ ++%%+%%+ +%%%%%%+ +%%+++++ +++++%%+ +%%%++%+ +%%+++%% +++%++%+ %++%%++% +++%%%++ +%%%==** %%==**%+.+++==+++.+++++%** ******** **%+++++ ++++%*** ******** ***%++++   +&&+++&& ++++&&++ +++++&&& ++++&&++ ++&&+&&+ +&&&&&&+ +&&+++++ +++++&&+ +&&&++&+ +&&+++&& +++&++&+ &++&&++& +++&&&++ +&&&--** &&--**&+.+++--+++.+++++&** ******** **&+++++ ++++&*** ******** ***&++++  ",
" +@@+++@@ ++++@@++ +++@@@@+ +++@@@@+ +@@++@@+ ++++++@@ +@@@@@@+ ++++@@++ ++@@@@++ ++@@@@@@ ++@++@++ @+@++++@ +++@@+++ +@@@@==@ @@@==@@+.++====++.++++++@@ @@@@@@@@ @@++++++ ++++@@@@ @@@@@@@@ @@@@++++   +##+++## ++++##++ +++####+ +++####+ +##++##+ ++++++## +######+ ++++##++ ++####++ ++###### ++#++#++ #+#++++# +++##+++ +####==# ###==##+.++====++.++++++## ######## ##++++++ ++++#### ######## ####++++   +$$+++$$ ++++$$++ +++$$$$+ +++$$$$+ +$$++$$+ ++++++$$ +$$$$$$+ ++++$$++ ++$$$$++ ++$$$$$$ ++$++$++ $+$++++$ +++$$+++ +$$$$==$ $$$==$$+.++====++.++++++$$ $$$$$$$$ $$++++++ ++++$$$$ $$$$$$$$ $$$$++++   +%%+++%% ++++%%++ +++%%%%+ +++%%%%+ +%%++%%+ ++++++%% +%%%%%%+ ++++%%++ ++%%%%++ ++%%%%%% ++%++%++ %+%++++% +++%%+++ +%%%%==% %%%==%%+.++====++.++++++%% %%%%%%%% %%++++++ ++++%%%% %%%%%%%% %%%%++++   +&&+++&& ++++&&++ +++&&&&+ +++&&&&+ +&&++&&+ ++++++&& +&&&&&&+ ++++&&++ ++&&&&++ ++&&&&&& ++&++&++ &+&++++& +++&&+++ +&&&&--& &&&--&&+.++----++.++++++&& &&&&&&&& &&++++++ ++++&&&& &&&&&&&& &&&&++++  ",
" +@@+++@@ ++++@@++ ++@@@@++ ++++++@@ +@@@@@@@ ++++++@@ +@@+++@@ +++@@+++ +@++@@@@ ++++++@@ ++++++++ @+@++++@ +++@++++ +@@@@@@@ @@@@@@@+.++====++.++++++++ ++++++++ ++++++++ ++++++++ ++++++++ ++++++++   +##+++## ++++##++ ++####++ ++++++## +####### ++++++## +##+++## +++##+++ +#++#### ++++++## ++++++++ #+#++++# +++#++++ +####### #######+.++====++.++++++++ ++++++++ ++++++++ ++++++++ ++++++++ ++++++++   +$$+++$$ ++++$$++ ++$$$$++ ++++++$$ +$$$$$$$ ++++++$$ +$$+++$$ +++$$+++ +$++$$$$ ++++++$$ ++++++++ $+$++++$ +++$++++ +$$$$$$$ $$$$$$$+.++====++.++++++++ ++++++++ ++++++++ ++++++++ ++++++++ ++++++++   +%%+++%% ++++%%++ ++%%%%++ ++++++%% +%%%%%%% ++++++%% +%%+++%% +++%%+++ +%++%%%% ++++++%% ++++++++ %+%++++% +++%++++ +%%%%%%% %%%%%%%+.++====++.++++++++ ++++++++ ++++++++ ++++++++ ++++++++ ++++++++   +&&+++&& ++++&&++ ++&&&&++ ++++++&& +&&&&&&& ++++++&& +&&+++&& +++&&+++ +&++&&&& ++++++&& ++++++++ &+&++++& +++&++++ +&&&&&&& &&&&&&&+.++----++.++++++++ ++++++++ ++++++++ ++++++++ ++++++++ ++++++++  ",
" ++@@++@+ ++++@@++ +@@@++++ +@@+++@@ +++++@@+ +@@+++@@ +@@+++@@ +++@@+++ +@++++@@ +++++@@+ ++++++++ @++@@++@ ++++++++ +@@@@@@@ @@@@@@@+.+++==+++.++++++++ ++++++++ ++++++++ ++++++++ ++++++++ ++++++++   ++##++#+ ++++##++ +###++++ +##+++## +++++##+ +##+++## +##+++## +++##+++ +#++++## +++++##+ ++++++++ #++##++# ++++++++ +####### #######+.+++==+++.++++++++ ++++++++ ++++++++ ++++++++ ++++++++ ++++++++   ++$$++$+ ++++$$++ +$$$++++ +$$+++$$ +++++$$+ +$$+++$$ +$$+++$$ +++$$+++ +$++++$$ +++++$$+ ++++++++ $++$$++$ ++++++++ +$$$$$$$ $$$$$$$+.+++==+++.++++++++ ++++++++ ++++++++ ++++++++ ++++++++ ++++++++   ++%%++%+ ++++%%++ +%%%++++ +%%+++%% +++++%%+ +%%+++%% +%%+++%% +++%%+++ +%++++%% +++++%%+ ++++++++ %++%%++% ++++++++ +%%%%%%% %%%%%%%+.+++==+++.++++++++ ++++++++ ++++++++ ++++++++ ++++++++ ++++++++   ++&&++&+ ++++&&++ +&&&++++ +&&+++&& +++++&&+ +&&+++&& +&&+++&& +++&&+++ +&++++&& +++++&&+ ++++++++ &++&&++& ++++++++ +&&&&&&& &&&&&&&+.+++--+++.++++++++ ++++++++ ++++++++ ++++++++ ++++++++ ++++++++  ",
" +++@@@++ ++@@@@@@ +@@@@@@@ ++@@@@@+ +++++@@+ ++@@@@@+ ++@@@@@+ +++@@+++ ++@@@@@+ ++@@@@++ ++++++++ +@++++@+ ++@+++++ +@@@@@@@ @@@@@@@+.++++++++.++++++++ ++++++++ ++++++++ ++++++++ ++++++++ ++++++++   +++###++ ++###### +####### ++#####+ +++++##+ ++#####+ ++#####+ +++##+++ ++#####+ ++####++ ++++++++ +#++++#+ ++#+++++ +####### #######+.++++++++.++++++++ ++++++++ ++++++++ ++++++++ ++++++++ ++++++++   +++$$$++ ++$$$$$$ +$$$$$$$ ++$$$$$+ +++++$$+ ++$$$$$+ ++$$$$$+ +++$$+++ ++$$$$$+ ++$$$$++ ++++++++ +$++++$+ ++$+++++ +$$$$$$$ $$$$$$$+.++++++++.++++++++ ++++++++ ++++++++ ++++++++ ++++++++ ++++++++   +++%%%++ ++%%%%%% +%%%%%%% ++%%%%%+ +++++%%+ ++%%%%%+ ++%%%%%+ +++%%+++ ++%%%%%+ ++%%%%++ ++++++++ +%++++%+ ++%+++++ +%%%%%%% %%%%%%%+.++++++++.++++++++ ++++++++ ++++++++ ++++++++ ++++++++ ++++++++   +++&&&++ ++&&&&&& +&&&&&&& ++&&&&&+ +++++&&+ ++&&&&&+ ++&&&&&+ +++&&+++ ++&&&&&+ ++&&&&++ ++++++++ +&++++&+ ++&+++++ +&&&&&&& &&&&&&&+.++++++++.++++++++ ++++++++ ++++++++ ++++++++ ++++++++ ++++++++  ",
" ++++++++ ++++++++ ++++++++ ++++++++ ++++++++ ++++++++ ++++++++ ++++++++ ++++++++ ++++++++ ++++++++ ++@@@@++ ++++++++ +@@@@@@@ @@@@@@@+.++++++++.++++++++ ++++++++ ++++++++ ++++++++ ++++++++ ++++++++   ++++++++ ++++++++ ++++++++ ++++++++ ++++++++ ++++++++ ++++++++ ++++++++ ++++++++ ++++++++ ++++++++ ++####++ ++++++++ +####### #######+.++++++++.++++++++ ++++++++ ++++++++ ++++++++ ++++++++ ++++++++   ++++++++ ++++++++ ++++++++ ++++++++ ++++++++ ++++++++ ++++++++ ++++++++ ++++++++ ++++++++ ++++++++ ++$$$$++ ++++++++ +$$$$$$$ $$$$$$$+.++++++++.++++++++ ++++++++ ++++++++ ++++++++ ++++++++ ++++++++   ++++++++ ++++++++ ++++++++ ++++++++ ++++++++ ++++++++ ++++++++ ++++++++ ++++++++ ++++++++ ++++++++ ++%%%%++ ++++++++ +%%%%%%% %%%%%%%+.++++++++.++++++++ ++++++++ ++++++++ ++++++++ ++++++++ ++++++++   ++++++++ ++++++++ ++++++++ ++++++++ ++++++++ ++++++++ ++++++++ ++++++++ ++++++++ ++++++++ ++++++++ ++&&&&++ ++++++++ +&&&&&&& &&&&&&&+.++++++++.++++++++ ++++++++ ++++++++ ++++++++ ++++++++ ++++++++  ",
"                                                                                                                                       ..........                                   ...................                                                                                                                                        ..........                                   ...................                                                                                                                                        ..........                                   ...................                                                                                                                                        ..........                                   ...................                                                                                                                                        ..........                                   ................... ",
" +++@@@++ +@@@@@@+ +++@@@@+ +@@@@@++ ++@@@@@@ +@@@@@@@ +++@@@@@ +@@+++@@ ++@@@@@@ ++++++@@ +@@+++@@ ++@@++++ +@@+++@@ +@@+@@@+ +@@@+@@+ ++====++ ++++@@@@ @@@@@@@@ @@@@@@@@ @@@@++++.++++++++.++++++++.  +++###++ +######+ +++####+ +#####++ ++###### +####### +++##### +##+++## ++###### ++++++## +##+++## ++##++++ +##+++## +##+###+ +###+##+ ++====++ ++++#### ######## ######## ####++++.++++++++.++++++++.  +++$$$++ +$$$$$$+ +++$$$$+ +$$$$$++ ++$$$$$$ +$$$$$$$ +++$$$$$ +$$+++$$ ++$$$$$$ ++++++$$ +$$+++$$ ++$$++++ +$$+++$$ +$$+$$$+ +$$$+$$+ ++====++ ++++$$$$ $$$$$$$$ $$$$$$$$ $$$$++++.++++++++.++++++++.  +++%%%++ +%%%%%%+ +++%%%%+ +%%%%%++ ++%%%%%% +%%%%%%% +++%%%%% +%%+++%% ++%%%%%% ++++++%% +%%+++%% ++%%++++ +%%+++%% +%%+%%%+ +%%%+%%+ ++====++ ++++%%%% %%%%%%%% %%%%%%%% %%%%++++.++++++++.++++++++.  +++&&&++ +&&&&&&+ +++&&&&+ +&&&&&++ ++&&&&&& +&&&&&&& +++&&&&& +&&+++&& ++&&&&&& ++++++&& +&&+++&& ++&&++++ +&&+++&& +&&+&&&+ +&&&+&&+ ++----++ ++++&&&& &&&&&&&& &&&&&&&& &&&&++++.++++++++.++++++++. ",
" ++@@+@@+ +@@+++@@ ++@@++@@ +@@++@@+ ++@@++++ +@@+++++ ++@@++++ +@@+++@@ ++++@@++ ++++++@@ +@@++@@+ ++@@++++ +@@@+@@@ +@+++@@+ +@@+++@+ +======+ ++@@**** ******** ******** ****@@++.++++++++.++++++++.  ++##+##+ +##+++## ++##++## +##++##+ ++##++++ +##+++++ ++##++++ +##+++## ++++##++ ++++++## +##++##+ ++##++++ +###+### +#+++##+ +##+++#+ +======+ ++##**** ******** ******** ****##++.++++++++.++++++++.  ++$$+$$+ +$$+++$$ ++$$++$$ +$$++$$+ ++$$++++ +$$+++++ ++$$++++ +$$+++$$ ++++$$++ ++++++$$ +$$++$$+ ++$$++++ +$$$+$$$ +$+++$$+ +$$+++$+ +======+ ++$$**** ******** ******** ****$$++.++++++++.++++++++.  ++%%+%%+ +%%+++%% ++%%++%% +%%++%%+ ++%%++++ +%%+++++ ++%%++++ +%%+++%% ++++%%++ ++++++%% +%%++%%+ ++%%++++ +%%%+%%% +%+++%%+ +%%+++%+ +======+ ++%%**** ******** ******** ****%%++.++++++++.++++++++.  ++&&+&&+ +&&+++&& ++&&++&& +&&++&&+ ++&&++++ +&&+++++ ++&&++++ +&&+++&& ++++&&++ ++++++&& +&&++&&+ ++&&++++ +&&&+&&& +&+++&&+ +&&+++&+ +------+ ++&&**** ******** ******** ****&&++.++++++++.++++++++. ",
" +@@+++@@ +@@+++@@ +@@+++++ +@@+++@@ ++@@++++ +@@+++++ +@@+++++ +@@+++@@ ++++@@++ ++++++@@ +@@+@@++ ++@@++++ +@@@@@@@ ++++++++ ++++++++ ======== +@****** ******** ******** ******@+.++++++++.++++++++.  +##+++## +##+++## +##+++++ +##+++## ++##++++ +##+++++ +##+++++ +##+++## ++++##++ ++++++## +##+##++ ++##++++ +####### ++++++++ ++++++++ ======== +#****** ******** ******** ******#+.++++++++.++++++++.  +$$+++$$ +$$+++$$ +$$+++++ +$$+++$$ ++$$++++ +$$+++++ +$$+++++ +$$+++$$ ++++$$++ ++++++$$ +$$+$$++ ++$$++++ +$$$$$$$ ++++++++ ++++++++ ======== +$****** ******** ******** ******$+.++++++++.++++++++.  +%%+++%% +%%+++%% +%%+++++ +%%+++%% ++%%++++ +%%+++++ +%%+++++ +%%+++%% ++++%%++ ++++++%% +%%+%%++ ++%%++++ +%%%%%%% ++++++++ ++++++++ ======== +%****** ******** ******** ******%+.++++++++.++++++++.  +&&+++&& +&&+++&& +&&+++++ +&&+++&& ++&&++++ +&&+++++ +&&+++++ +&&+++&& ++++&&++ ++++++&& +&&+&&++ ++&&++++ +&&&&&&& ++++++++ ++++++++ -------- +&****** ******** ******** ******&+.++++++++.++++++++. ",
" +@@+++@@ +@@@@@@+ +@@+++++ +@@+++@@ ++@@@@@+ +@@@@@@+ +@@++@@@ +@@@@@@@ ++++@@++ ++++++@@ +@@@@+++ ++@@++++ +@@@@@@@ ++++++++ ++++++++ ======== +@***@@@ @@@***** *****@@@ @@@***@+.++++++++.++++++++.  +##+++## +######+ +##+++++ +##+++## ++#####+ +######+ +##++### +####### ++++##++ ++++++## +####+++ ++##++++ +####### ++++++++ ++++++++ ======== +#***### ###***** *****### ###***#+.++++++++.++++++++.  +$$+++$$ +$$$$$$+ +$$+++++ +$$+++$$ ++$$$$$+ +$$$$$$+ +$$++$$$ +$$$$$$$ ++++$$++ ++++++$$ +$$$$+++ ++$$++++ +$$$$$$$ ++++++++ ++++++++ ======== +$***$$$ $$$***** *****$$$ $$$***$+.++++++++.++++++++.  +%%+++%% +%%%%%%+ +%%+++++ +%%+++%% ++%%%%%+ +%%%%%%+ +%%++%%% +%%%%%%% ++++%%++ ++++++%% +%%%%+++ ++%%++++ +%%%%%%% ++++++++ ++++++++ ======== +%***%%% %%%***** *****%%% %%%***%+.++++++++.++++++++.  +&&+++&& +&&&&&&+ +&&+++++ +&&+++&& ++&&&&&+ +&&&&&&+ +&&++&&& +&&&&&&& ++++&&++ ++++++&& +&&&&+++ ++&&++++ +&&&&&&& ++++++++ ++++++++ -------- +&***&&& &&&***** *****&&& &&&***&+.++++++++.++++++++. ",
" +@@@@@@@ +@@+++@@ +@@+++++ +@@+++@@ ++@@++++ +@@+++++ +@@+++@@ +@@+++@@ ++++@@++ ++++++@@ +@@@@@++ ++@@++++ +@@+@+@@ ++++++++ ++++++++ ======== @***@+++ +++@**** ****@+++ +++@***@.++++@@@@.@@@@++++.  +####### +##+++## +##+++++ +##+++## ++##++++ +##+++++ +##+++## +##+++## ++++##++ ++++++## +#####++ ++##++++ +##+#+## ++++++++ ++++++++ ======== #***#+++ +++#**** ****#+++ +++#***#.++++####.####++++.  +$$$$$$$ +$$+++$$ +$$+++++ +$$+++$$ ++$$++++ +$$+++++ +$$+++$$ +$$+++$$ ++++$$++ ++++++$$ +$$$$$++ ++$$++++ +$$+$+$$ ++++++++ ++++++++ ======== $***$+++ +++$**** ****$+++ +++$***$.++++$$$$.$$$$++++.  +%%%%%%% +%%+++%% +%%+++++ +%%+++%% ++%%++++ +%%+++++ +%%+++%% +%%+++%% ++++%%++ ++++++%% +%%%%%++ ++%%++++ +%%+%+%% ++++++++ ++++++++ ======== %***%+++ +++%**** ****%+++ +++%***%.++++%%%%.%%%%++++.  +&&&&&&& +&&+++&& +&&+++++ +&&+++&& ++&&++++ +&&+++++ +&&+++&& +&&+++&& ++++&&++ ++++++&& +&&&&&++ ++&&++++ +&&+&+&& ++++++++ ++++++++ -------- &***&+++ +++&**** ****&+++ +++&***&.++++&&&&.&&&&++++. ",
" +@@+++@@ +@@+++@@ ++@@++@@ +@@++@@+ ++@@++++ +@@+++++ ++@@++@@ +@@+++@@ ++++@@++ +@@+++@@ +@@+@@@+ ++@@++++ +@@+++@@ ++++++++ ++++++++ ======== @**@++++ ++++@*** ***@++++ ++++@**@.++@@****.****@@++.  +##+++## +##+++## ++##++## +##++##+ ++##++++ +##+++++ ++##++## +##+++## ++++##++ +##+++## +##+###+ ++##++++ +##+++## ++++++++ ++++++++ ======== #**#++++ ++++#*** ***#++++ ++++#**#.++##****.****##++.  +$$+++$$ +$$+++$$ ++$$++$$ +$$++$$+ ++$$++++ +$$+++++ ++$$++$$ +$$+++$$ ++++$$++ +$$+++$$ +$$+$$$+ ++$$++++ +$$+++$$ ++++++++ ++++++++ ======== $**$++++ ++++$*** ***$++++ ++++$**$.++$$****.****$$++.  +%%+++%% +%%+++%% ++%%++%% +%%++%%+ ++%%++++ +%%+++++ ++%%++%% +%%+++%% ++++%%++ +%%+++%% +%%+%%%+ ++%%++++ +%%+++%% ++++++++ ++++++++ ======== %**%++++ ++++%*** ***%++++ ++++%**%.++%%****.****%%++.  +&&+++&& +&&+++&& ++&&++&& +&&++&&+ ++&&++++ +&&+++++ ++&&++&& +&&+++&& ++++&&++ +&&+++&& +&&+&&&+ ++&&++++ +&&+++&& ++++++++ ++++++++ -------- &**&++++ ++++&*** ***&++++ ++++&**&.++&&****.****&&++. ",
" +@@+++@@ +@@@@@@+ +++@@@@+ +@@@@@++ ++@@@@@@ +@@+++++ +++@@@@@ +@@+++@@ ++@@@@@@ ++@@@@@+ +@@++@@@ ++@@@@@@ +@@+++@@ ++++++++ ++++++++ +======+ @**@++++ ++++@*** ***@++++ ++++@**@.+@******.******@+.  +##+++## +######+ +++####+ +#####++ ++###### +##+++++ +++##### +##+++## ++###### ++#####+ +##++### ++###### +##+++## ++++++++ ++++++++ +======+ #**#++++ ++++#*** ***#++++ ++++#**#.+#******.******#+.  +$$+++$$ +$$$$$$+ +++$$$$+ +$$$$$++ ++$$$$$$ +$$+++++ +++$$$$$ +$$+++$$ ++$$$$$$ ++$$$$$+ +$$++$$$ ++$$$$$$ +$$+++$$ ++++++++ ++++++++ +======+ $**$++++ ++++$*** ***$++++ ++++$**$.+$******.******$+.  +%%+++%% +%%%%%%+ +++%%%%+ +%%%%%++ ++%%%%%% +%%+++++ +++%%%%% +%%+++%% ++%%%%%% ++%%%%%+ +%%++%%% ++%%%%%% +%%+++%% ++++++++ ++++++++ +======+ %**%++++ ++++%*** ***%++++ ++++%**%.+%******.******%+.  +&&+++&& +&&&&&&+ +++&&&&+ +&&&&&++ ++&&&&&& +&&+++++ +++&&&&& +&&+++&& ++&&&&&& ++&&&&&+ +&&++&&& ++&&&&&& +&&+++&& ++++++++ ++++++++ +------+ &**&++++ ++++&*** ***&++++ ++++&**&.+&******.******&+. ",
" ++++++++ ++++++++ ++++++++ ++++++++ ++++++++ ++++++++ ++++++++ ++++++++ ++++++++ ++++++++ ++++++++ ++++++++ ++++++++ ++++++++ ++++++++ ++====++ @**@++++ ++++@*** ***@++++ ++++@**@.+@******.******@+.  ++++++++ ++++++++ ++++++++ ++++++++ ++++++++ ++++++++ ++++++++ ++++++++ ++++++++ ++++++++ ++++++++ ++++++++ ++++++++ ++++++++ ++++++++ ++====++ #**#++++ ++++#*** ***#++++ ++++#**#.+#******.******#+.  ++++++++ ++++++++ ++++++++ ++++++++ ++++++++ ++++++++ ++++++++ ++++++++ ++++++++ ++++++++ ++++++++ ++++++++ ++++++++ ++++++++ ++++++++ ++====++ $**$++++ ++++$*** ***$++++ ++++$**$.+$******.******$+.  ++++++++ ++++++++ ++++++++ ++++++++ ++++++++ ++++++++ ++++++++ ++++++++ ++++++++ ++++++++ ++++++++ ++++++++ ++++++++ ++++++++ ++++++++ ++====++ %**%++++ ++++%*** ***%++++ ++++%**%.+%******.******%+.  ++++++++ ++++++++ ++++++++ ++++++++ ++++++++ ++++++++ ++++++++ ++++++++ ++++++++ ++++++++ ++++++++ ++++++++ ++++++++ ++++++++ ++++++++ ++----++ &**&++++ ++++&*** ***&++++ ++++&**&.+&******.******&+. ",
"                                                                                                                                                                                    ...................                                                                                                                                                                                     ...................                                                                                                                                                                                     ...................                                                                                                                                                                                     ...................                                                                                                                                                                                     ................... ",
" +@@+++@@ ++@@@@@+ +@@@@@@+ ++@@@@@+ +@@@@@@+ ++@@@@++ ++@@@@@@ +@@+++@@ +@@+++@@ +@@+++@@ +@@+++@@ ++@@++@@ +@@@@@@@ ++++++++ ++++++++ ++++++++ @**@++++ ++++@*** ***@++++ ++++@**@.+@******.******@+.  +##+++## ++#####+ +######+ ++#####+ +######+ ++####++ ++###### +##+++## +##+++## +##+++## +##+++## ++##++## +####### ++++++++ ++++++++ ++++++++ #**#++++ ++++#*** ***#++++ ++++#**#.+#******.******#+.  +$$+++$$ ++$$$$$+ +$$$$$$+ ++$$$$$+ +$$$$$$+ ++$$$$++ ++$$$$$$ +$$+++$$ +$$+++$$ +$$+++$$ +$$+++$$ ++$$++$$ +$$$$$$$ ++++++++ ++++++++ ++++++++ $**$++++ ++++$*** ***$++++ ++++$**$.+$******.******$+.  +%%+++%% ++%%%%%+ +%%%%%%+ ++%%%%%+ +%%%%%%+ ++%%%%++ ++%%%%%% +%%+++%% +%%+++%% +%%+++%% +%%+++%% ++%%++%% +%%%%%%% ++++++++ ++++++++ ++++++++ %**%++++ ++++%*** ***%++++ ++++%**%.+%******.******%+.  +&&+++&& ++&&&&&+ +&&&&&&+ ++&&&&&+ +&&&&&&+ ++&&&&++ ++&&&&&& +&&+++&& +&&+++&& +&&+++&& +&&+++&& ++&&++&& +&&&&&&& ++++++++ ++++++++ ++++++++ &**&++++ ++++&*** ***&++++ ++++&**&.+&******.******&+. ",
" +@@@++@@ +@@+++@@ +@@+++@@ +@@+++@@ +@@+++@@ +@@++@@+ ++++@@++ +@@+++@@ +@@+++@@ +@@+++@@ +@@@+@@@ ++@@++@@ +++++@@@ ++++++++ ++++++++ ++++++++ @**@++++ ++++@*** ***@++++ ++++@**@.+@******.******@+.  +###++## +##+++## +##+++## +##+++## +##+++## +##++##+ ++++##++ +##+++## +##+++## +##+++## +###+### ++##++## +++++### ++++++++ ++++++++ ++++++++ #**#++++ ++++#*** ***#++++ ++++#**#.+#******.******#+.  +$$$++$$ +$$+++$$ +$$+++$$ +$$+++$$ +$$+++$$ +$$++$$+ ++++$$++ +$$+++$$ +$$+++$$ +$$+++$$ +$$$+$$$ ++$$++$$ +++++$$$ ++++++++ ++++++++ ++++++++ $**$++++ ++++$*** ***$++++ ++++$**$.+$******.******$+.  +%%%++%% +%%+++%% +%%+++%% +%%+++%% +%%+++%% +%%++%%+ ++++%%++ +%%+++%% +%%+++%% +%%+++%% +%%%+%%% ++%%++%% +++++%%% ++++++++ ++++++++ ++++++++ %**%++++ ++++%*** ***%++++ ++++%**%.+%******.******%+.  +&&&++&& +&&+++&& +&&+++&& +&&+++&& +&&+++&& +&&++&&+ ++++&&++ +&&+++&& +&&+++&& +&&+++&& +&&&+&&& ++&&++&& +++++&&& ++++++++ ++++++++ ++++++++ &**&++++ ++++&*** ***&++++ ++++&**&.+&******.******&+. ",
" +@@@@+@@ +@@+++@@ +@@+++@@ +@@+++@@ +@@+++@@ +@@+++++ ++++@@++ +@@+++@@ +@@+++@@ +@@+@+@@ ++@@@@@+ ++@@++@@ ++++@@@+ ++++++++ ++++++++ ++++++++ @**@++++ ++++@*** ***@++++ ++++@**@.++@@****.****@@++.  +####+## +##+++## +##+++## +##+++## +##+++## +##+++++ ++++##++ +##+++## +##+++## +##+#+## ++#####+ ++##++## ++++###+ ++++++++ ++++++++ ++++++++ #**#++++ ++++#*** ***#++++ ++++#**#.++##****.****##++.  +$$$$+$$ +$$+++$$ +$$+++$$ +$$+++$$ +$$+++$$ +$$+++++ ++++$$++ +$$+++$$ +$$+++$$ +$$+$+$$ ++$$$$$+ ++$$++$$ ++++$$$+ ++++++++ ++++++++ ++++++++ $**$++++ ++++$*** ***$++++ ++++$**$.++$$****.****$$++.  +%%%%+%% +%%+++%% +%%+++%% +%%+++%% +%%+++%% +%%+++++ ++++%%++ +%%+++%% +%%+++%% +%%+%+%% ++%%%%%+ ++%%++%% ++++%%%+ ++++++++ ++++++++ ++++++++ %**%++++ ++++%*** ***%++++ ++++%**%.++%%****.****%%++.  +&&&&+&& +&&+++&& +&&+++&& +&&+++&& +&&+++&& +&&+++++ ++++&&++ +&&+++&& +&&+++&& +&&+&+&& ++&&&&&+ ++&&++&& ++++&&&+ ++++++++ ++++++++ ++++++++ &**&++++ ++++&*** ***&++++ ++++&**&.++&&****.****&&++. ",
" +@@@@@@@ +@@+++@@ +@@+++@@ +@@+++@@ +@@++@@@ ++@@@@@+ ++++@@++ +@@+++@@ +@@@+@@@ +@@@@@@@ +++@@@++ +++@@@@+ +++@@@++ ++++++++ ++++++++ ++++++++ @***@+++ +++@**** ****@+++ +++@***@.++++@@@@.@@@@++++.  +####### +##+++## +##+++## +##+++## +##++### ++#####+ ++++##++ +##+++## +###+### +####### +++###++ +++####+ +++###++ ++++++++ ++++++++ ++++++++ #***#+++ +++#**** ****#+++ +++#***#.++++####.####++++.  +$$$$$$$ +$$+++$$ +$$+++$$ +$$+++$$ +$$++$$$ ++$$$$$+ ++++$$++ +$$+++$$ +$$$+$$$ +$$$$$$$ +++$$$++ +++$$$$+ +++$$$++ ++++++++ ++++++++ ++++++++ $***$+++ +++$**** ****$+++ +++$***$.++++$$$$.$$$$++++.  +%%%%%%% +%%+++%% +%%+++%% +%%+++%% +%%++%%% ++%%%%%+ ++++%%++ +%%+++%% +%%%+%%% +%%%%%%% +++%%%++ +++%%%%+ +++%%%++ ++++++++ ++++++++ ++++++++ %***%+++ +++%**** ****%+++ +++%***%.++++%%%%.%%%%++++.  +&&&&&&& +&&+++&& +&&+++&& +&&+++&& +&&++&&& ++&&&&&+ ++++&&++ +&&+++&& +&&&+&&& +&&&&&&& +++&&&++ +++&&&&+ +++&&&++ ++++++++ ++++++++ ++++++++ &***&+++ +++&**** ****&+++ +++&***&.++++&&&&.&&&&++++. ",
" +@@+@@@@ +@@+++@@ +@@@@@@+ +@@+@@@@ +@@@@@++ ++++++@@ ++++@@++ +@@+++@@ ++@@@@@+ +@@@@@@@ ++@@@@@+ ++++@@++ ++@@@+++ @@@@@@@@ ++++++++ @@@@@@@@ @****@@@ @@@***** *****@@@ @@@****@.++++++++.++++++++.  +##+#### +##+++## +######+ +##+#### +#####++ ++++++## ++++##++ +##+++## ++#####+ +####### ++#####+ ++++##++ ++###+++ ######## ++++++++ ######## #****### ###***** *****### ###****#.++++++++.++++++++.  +$$+$$$$ +$$+++$$ +$$$$$$+ +$$+$$$$ +$$$$$++ ++++++$$ ++++$$++ +$$+++$$ ++$$$$$+ +$$$$$$$ ++$$$$$+ ++++$$++ ++$$$+++ $$$$$$$$ ++++++++ $$$$$$$$ $****$$$ $$$***** *****$$$ $$$****$.++++++++.++++++++.  +%%+%%%% +%%+++%% +%%%%%%+ +%%+%%%% +%%%%%++ ++++++%% ++++%%++ +%%+++%% ++%%%%%+ +%%%%%%% ++%%%%%+ ++++%%++ ++%%%+++ %%%%%%%% ++++++++ %%%%%%%% %****%%% %%%***** *****%%% %%%****%.++++++++.++++++++.  +&&+&&&& +&&+++&& +&&&&&&+ +&&+&&&& +&&&&&++ ++++++&& ++++&&++ +&&+++&& ++&&&&&+ +&&&&&&& ++&&&&&+ ++++&&++ ++&&&+++ &&&&&&&& ++++++++ &&&&&&&& &****&&& &&&***** *****&&& &&&****&.++++++++.++++++++. ",
" +@@++@@@ +@@+++@@ +@@+++++ +@@++@@+ +@@+@@@+ +@@+++@@ ++++@@++ +@@+++@@ +++@@@++ +@@@+@@@ +@@@+@@@ ++++@@++ +@@@++++ *******@ ******** @******* @******* ******** ******** *******@.++++++++.++++++++.  +##++### +##+++## +##+++++ +##++##+ +##+###+ +##+++## ++++##++ +##+++## +++###++ +###+### +###+### ++++##++ +###++++ *******# ******** #******* #******* ******** ******** *******#.++++++++.++++++++.  +$$++$$$ +$$+++$$ +$$+++++ +$$++$$+ +$$+$$$+ +$$+++$$ ++++$$++ +$$+++$$ +++$$$++ +$$$+$$$ +$$$+$$$ ++++$$++ +$$$++++ *******$ ******** $******* $******* ******** ******** *******$.++++++++.++++++++.  +%%++%%% +%%+++%% +%%+++++ +%%++%%+ +%%+%%%+ +%%+++%% ++++%%++ +%%+++%% +++%%%++ +%%%+%%% +%%%+%%% ++++%%++ +%%%++++ *******% ******** %******* %******* ******** ******** *******%.++++++++.++++++++.  +&&++&&& +&&+++&& +&&+++++ +&&++&&+ +&&+&&&+ +&&+++&& ++++&&++ +&&+++&& +++&&&++ +&&&+&&& +&&&+&&& ++++&&++ +&&&++++ *******& ******** &******* &******* ******** ******** *******&.++++++++.++++++++. ",
" +@@+++@@ ++@@@@@+ +@@+++++ ++@@@@+@ +@@++@@@ ++@@@@@+ ++++@@++ ++@@@@@+ ++++@+++ +@@+++@@ +@@+++@@ ++++@@++ +@@@@@@@ *******@ ******** @******* @******* ******** ******** *******@.++++++++.++++++++.  +##+++## ++#####+ +##+++++ ++####+# +##++### ++#####+ ++++##++ ++#####+ ++++#+++ +##+++## +##+++## ++++##++ +####### *******# ******** #******* #******* ******** ******** *******#.++++++++.++++++++.  +$$+++$$ ++$$$$$+ +$$+++++ ++$$$$+$ +$$++$$$ ++$$$$$+ ++++$$++ ++$$$$$+ ++++$+++ +$$+++$$ +$$+++$$ ++++$$++ +$$$$$$$ *******$ ******** $******* $******* ******** ******** *******$.++++++++.++++++++.  +%%+++%% ++%%%%%+ +%%+++++ ++%%%%+% +%%++%%% ++%%%%%+ ++++%%++ ++%%%%%+ ++++%+++ +%%+++%% +%%+++%% ++++%%++ +%%%%%%% *******% ******** %******* %******* ******** ******** *******%.++++++++.++++++++.  +&&+++&& ++&&&&&+ +&&+++++ ++&&&&+& +&&++&&& ++&&&&&+ ++++&&++ ++&&&&&+ ++++&+++ +&&+++&& +&&+++&& ++++&&++ +&&&&&&& *******& ******** &******* &******* ******** ******** *******&.++++++++.++++++++. ",
" ++++++++ ++++++++ ++++++++ ++++++++ ++++++++ ++++++++ ++++++++ ++++++++ ++++++++ ++++++++ ++++++++ ++++++++ ++++++++ @@@@@@@@ ++++++++ @@@@@@@@ @******* ******** ******** *******@.++++++++.++++++++.  ++++++++ ++++++++ ++++++++ ++++++++ ++++++++ ++++++++ ++++++++ ++++++++ ++++++++ ++++++++ ++++++++ ++++++++ ++++++++ ######## ++++++++ ######## #******* ******** ******** *******#.++++++++.++++++++.  ++++++++ ++++++++ ++++++++ ++++++++ ++++++++ ++++++++ ++++++++ ++++++++ ++++++++ ++++++++ ++++++++ ++++++++ ++++++++ $$$$$$$$ ++++++++ $$$$$$$$ $******* ******** ******** *******$.++++++++.++++++++.  ++++++++ ++++++++ ++++++++ ++++++++ ++++++++ ++++++++ ++++++++ ++++++++ ++++++++ ++++++++ ++++++++ ++++++++ ++++++++ %%%%%%%% ++++++++ %%%%%%%% %******* ******** ******** *******%.++++++++.++++++++.  ++++++++ ++++++++ ++++++++ ++++++++ ++++++++ ++++++++ ++++++++ ++++++++ ++++++++ ++++++++ ++++++++ ++++++++ ++++++++ &&&&&&&& ++++++++ &&&&&&&& &******* ******** ******** *******&.++++++++.++++++++. ",
"                                                                                                                                                                                    ...................                                                                                                                                                                                     ...................                                                                                                                                                                                     ...................                                                                                                                                                                                     ...................                                                                                                                                                                                     ................... ",
" ++++++++ ++++++++ ++++++++ ++++++++ ++++++++ ++++++++ ++++++++ ++++++++ ++++++++ ++++++++ ++++++++ ++++++++ ++++++++ ++++++++ ++++++++ ++++++++ @******* ******** ******** *******@.@@@@@@@@.@@@@@@@@.  ++++++++ ++++++++ ++++++++ ++++++++ ++++++++ ++++++++ ++++++++ ++++++++ ++++++++ ++++++++ ++++++++ ++++++++ ++++++++ ++++++++ ++++++++ ++++++++ #******* ******** ******** *******#.########.########.  ++++++++ ++++++++ ++++++++ ++++++++ ++++++++ ++++++++ ++++++++ ++++++++ ++++++++ ++++++++ ++++++++ ++++++++ ++++++++ ++++++++ ++++++++ ++++++++ $******* ******** ******** *******$.$$$$$$$$.$$$$$$$$.  ++++++++ ++++++++ ++++++++ ++++++++ ++++++++ ++++++++ ++++++++ ++++++++ ++++++++ ++++++++ ++++++++ ++++++++ ++++++++ ++++++++ ++++++++ ++++++++ %******* ******** ******** *******%.%%%%%%%%.%%%%%%%%.  ++++++++ ++++++++ ++++++++ ++++++++ ++++++++ ++++++++ ++++++++ ++++++++ ++++++++ ++++++++ ++++++++ ++++++++ ++++++++ ++++++++ ++++++++ ++++++++ &******* ******** ******** *******&.&&&&&&&&.&&&&&&&&. ",
" ++++++++ ++++++++ ++++++++ ++++++++ ++++++++ ++++++++ ++++++++ ++++++++ +++++=++ ++++++++ ++++++++ ++++++++ ++++++++ ++++++++ ++++++++ ++++++++ @******* ******** ******** *******@.@+++++++.+++++++@.  ++++++++ ++++++++ ++++++++ ++++++++ ++++++++ ++++++++ ++++++++ ++++++++ +++++=++ ++++++++ ++++++++ ++++++++ ++++++++ ++++++++ ++++++++ ++++++++ #******* ******** ******** *******#.#+++++++.+++++++#.  ++++++++ ++++++++ ++++++++ ++++++++ ++++++++ ++++++++ ++++++++ ++++++++ +++++=++ ++++++++ ++++++++ ++++++++ ++++++++ ++++++++ ++++++++ ++++++++ $******* ******** ******** *******$.$+++++++.+++++++$.  ++++++++ ++++++++ ++++++++ ++++++++ ++++++++ ++++++++ ++++++++ ++++++++ +++++=++ ++++++++ ++++++++ ++++++++ ++++++++ ++++++++ ++++++++ ++++++++ %******* ******** ******** *******%.%+++++++.+++++++%.  ++++++++ ++++++++ ++++++++ ++++++++ ++++++++ ++++++++ ++++++++ ++++++++ +++++-++ ++++++++ ++++++++ ++++++++ ++++++++ ++++++++ ++++++++ ++++++++ &******* ******** ******** *******&.&+++++++.+++++++&. ",
" ++++++++ ++++**++ +++++++@ ++++++++ ++++++++ +**+++++ ++++++++ *+++++++ ++++++== ===+++++ ++++++++ ++++++++ +++++++= =+++++++ ++++++** *+++++++ @******* ******** ******** *******@.@+++++++.+++++++@.  ++++++++ ++++**++ +++++++# ++++++++ ++++++++ +**+++++ ++++++++ *+++++++ ++++++== ===+++++ ++++++++ ++++++++ +++++++= =+++++++ ++++++** *+++++++ #******* ******** ******** *******#.#+++++++.+++++++#.  ++++++++ ++++**++ +++++++$ ++++++++ ++++++++ +**+++++ ++++++++ *+++++++ ++++++== ===+++++ ++++++++ ++++++++ +++++++= =+++++++ ++++++** *+++++++ $******* ******** ******** *******$.$+++++++.+++++++$.  ++++++++ ++++**++ +++++++% ++++++++ ++++++++ +**+++++ ++++++++ *+++++++ ++++++== ===+++++ ++++++++ ++++++++ +++++++= =+++++++ ++++++** *+++++++ %******* ******** ******** *******%.%+++++++.+++++++%.  ++++++++ ++++**++ +++++++& ++++++++ ++++++++ +**+++++ ++++++++ *+++++++ ++++++-- ---+++++ ++++++++ ++++++++ +++++++- -+++++++ ++++++** *+++++++ &******* ******** ******** *******&.&+++++++.+++++++&. ",
" ++++++++ ++****++ ++++***@ ***+++++ +++++++@ *****+++ +++===+* +===++++ ++++++++ =+++++++ +++++++* ++++++++ +++++==+ +==+++++ ++++**++ +**+++++ @****@@@ @@@***** *****@@@ @@@****@.@+++++++.+++++++@.  ++++++++ ++****++ ++++***# ***+++++ +++++++# *****+++ +++===+* +===++++ ++++++++ =+++++++ +++++++* ++++++++ +++++==+ +==+++++ ++++**++ +**+++++ #****### ###***** *****### ###****#.#+++++++.+++++++#.  ++++++++ ++****++ ++++***$ ***+++++ +++++++$ *****+++ +++===+* +===++++ ++++++++ =+++++++ +++++++* ++++++++ +++++==+ +==+++++ ++++**++ +**+++++ $****$$$ $$$***** *****$$$ $$$****$.$+++++++.+++++++$.  ++++++++ ++****++ ++++***% ***+++++ +++++++% *****+++ +++===+* +===++++ ++++++++ =+++++++ +++++++* ++++++++ +++++==+ +==+++++ ++++**++ +**+++++ %****%%% %%%***** *****%%% %%%****%.%+++++++.+++++++%.  ++++++++ ++****++ ++++***& ***+++++ +++++++& *****+++ +++---+* +---++++ ++++++++ -+++++++ +++++++* ++++++++ +++++--+ +--+++++ ++++**++ +**+++++ &****&&& &&&***** *****&&& &&&****&.&+++++++.+++++++&. ",
" ++++++++ **+*++++ +++==*** **==++++ +++++++@ +***++++ ++=====* =====+++ +++++++* @*++++++ ++=+++** *+++=+++ ++++==== ====++++ ++++**** ***+++++ @***@+++ +++@**** ****@+++ +++@***@.@+++++++.+++++++@.  ++++++++ **+*++++ +++==*** **==++++ +++++++# +***++++ ++=====* =====+++ +++++++* #*++++++ ++=+++** *+++=+++ ++++==== ====++++ ++++**** ***+++++ #***#+++ +++#**** ****#+++ +++#***#.#+++++++.+++++++#.  ++++++++ **+*++++ +++==*** **==++++ +++++++$ +***++++ ++=====* =====+++ +++++++* $*++++++ ++=+++** *+++=+++ ++++==== ====++++ ++++**** ***+++++ $***$+++ +++$**** ****$+++ +++$***$.$+++++++.+++++++$.  ++++++++ **+*++++ +++==*** **==++++ +++++++% +***++++ ++=====* =====+++ +++++++* %*++++++ ++=+++** *+++=+++ ++++==== ====++++ ++++**** ***+++++ %***%+++ +++%**** ****%+++ +++%***%.%+++++++.+++++++%.  ++++++++ **+*++++ +++--*** **--++++ +++++++& +***++++ ++-----* -----+++ +++++++* &*++++++ ++-+++** *+++-+++ ++++---- ----++++ ++++**** ***+++++ &***&+++ +++&**** ****&+++ +++&***&.&+++++++.+++++++&. ",
" +++++++* +++*++++ ++=====* ===@=+++ ++++==@@ @===++++ ++====== ======++ +++++*** =***++++ ++=++*** **++=+++ ++++==+= ====++++ ++++**** ***+++++ @**@++++ ++++@*** ***@++++ ++++@**@.@+++++++.+++++++@.  +++++++* +++*++++ ++=====* ===#=+++ ++++==## #===++++ ++====== ======++ +++++*** =***++++ ++=++*** **++=+++ ++++==+= ====++++ ++++**** ***+++++ #**#++++ ++++#*** ***#++++ ++++#**#.#+++++++.+++++++#.  +++++++* +++*++++ ++=====* ===$=+++ ++++==$$ $===++++ ++====== ======++ +++++*** =***++++ ++=++*** **++=+++ ++++==+= ====++++ ++++**** ***+++++ $**$++++ ++++$*** ***$++++ ++++$**$.$+++++++.+++++++$.  +++++++* +++*++++ ++=====* ===%=+++ ++++==%% %===++++ ++====== ======++ +++++*** =***++++ ++=++*** **++=+++ ++++==+= ====++++ ++++**** ***+++++ %**%++++ ++++%*** ***%++++ ++++%**%.%+++++++.+++++++%.  +++++++* +++*++++ ++-----* ---&-+++ ++++--&& &---++++ ++------ ------++ +++++*** -***++++ ++-++*** **++-+++ ++++--+- ----++++ ++++**** ***+++++ &**&++++ ++++&*** ***&++++ ++++&**&.&+++++++.+++++++&. ",
" +++===*+ ++*+++++ ++=@==== =@===+++ +++====@ =====+++ ++====== ======++ ++++*=@= ***=*+++ ++=@**@* @**@=+++ ++++=+== ====++++ ++++**** ***+++++ @**@++++ ++++@*** ***@++++ ++++@**@.@+++++++.+++++++@.  +++===*+ ++*+++++ ++=#==== =#===+++ +++====# =====+++ ++====== ======++ ++++*=#= ***=*+++ ++=#**#* #**#=+++ ++++=+== ====++++ ++++**** ***+++++ #**#++++ ++++#*** ***#++++ ++++#**#.#+++++++.+++++++#.  +++===*+ ++*+++++ ++=$==== =$===+++ +++====$ =====+++ ++====== ======++ ++++*=$= ***=*+++ ++=$**$* $**$=+++ ++++=+== ====++++ ++++**** ***+++++ $**$++++ ++++$*** ***$++++ ++++$**$.$+++++++.+++++++$.  +++===*+ ++*+++++ ++=%==== =%===+++ +++====% =====+++ ++====== ======++ ++++*=%= ***=*+++ ++=%**%* %**%=+++ ++++=+== ====++++ ++++**** ***+++++ %**%++++ ++++%*** ***%++++ ++++%**%.%+++++++.+++++++%.  +++---*+ ++*+++++ ++-&---- -&---+++ +++----& -----+++ ++------ ------++ ++++*-&- ***-*+++ ++-&**&* &**&-+++ ++++-+-- ----++++ ++++**** ***+++++ &**&++++ ++++&*** ***&++++ ++++&**&.&+++++++.+++++++&. ",
" ++===*== +*++++++ ++===@=@ =====+++ ++====== ======++ ++====== ======++ ++++**=* *@=**+++ ++=@@@@* @@@@=+++ +++==+== =====+++ ++++++@+ @+++++++ @**@++++ ++++@*** ***@++++ ++++@**@.@+++++++.+++++++@.  ++===*== +*++++++ ++===#=# =====+++ ++====== ======++ ++====== ======++ ++++**=* *#=**+++ ++=####* ####=+++ +++==+== =====+++ ++++++#+ #+++++++ #**#++++ ++++#*** ***#++++ ++++#**#.#+++++++.+++++++#.  ++===*== +*++++++ ++===$=$ =====+++ ++====== ======++ ++====== ======++ ++++**=* *$=**+++ ++=$$$$* $$$$=+++ +++==+== =====+++ ++++++$+ $+++++++ $**$++++ ++++$*** ***$++++ ++++$**$.$+++++++.+++++++$.  ++===*== +*++++++ ++===%=% =====+++ ++====== ======++ ++====== ======++ ++++**=* *%=**+++ ++=%%%%* %%%%=+++ +++==+== =====+++ ++++++%+ %+++++++ %**%++++ ++++%*** ***%++++ ++++%**%.%+++++++.+++++++%.  ++---*-- +*++++++ ++---&-& -----+++ ++------ ------++ ++------ ------++ ++++**-* *&-**+++ ++-&&&&* &&&&-+++ +++--+-- -----+++ ++++++&+ &+++++++ &**&++++ ++++&*** ***&++++ ++++&**&.&+++++++.+++++++&. ",
"                                                                                                                                                                                    ...................                                                                                                                                                                                     ...................                                                                                                                                                                                     ...................                                                                                                                                                                                     ...................                                                                                                                                                                                     ................... ",
" ++=====+ =*==++++ ++====== ==@==+++ ++====== ======++ ++====== ===@==++ +++*@=** *=*=**++ ++==@@@@ @@@==+++ +++==+== =====+++ ++++++@+ @@++++++ @**@++++                   ++++@**@.@+++++++.+++++++@.  ++=====+ =*==++++ ++====== ==#==+++ ++====== ======++ ++====== ===#==++ +++*#=** *=*=**++ ++==#### ###==+++ +++==+== =====+++ ++++++#+ ##++++++ #**#++++                   ++++#**#.#+++++++.+++++++#.  ++=====+ =*==++++ ++====== ==$==+++ ++====== ======++ ++====== ===$==++ +++*$=** *=*=**++ ++==$$$$ $$$==+++ +++==+== =====+++ ++++++$+ $$++++++ $**$++++                   ++++$**$.$+++++++.+++++++$.  ++=====+ =*==++++ ++====== ==%==+++ ++====== ======++ ++====== ===%==++ +++*%=** *=*=**++ ++==%%%% %%%==+++ +++==+== =====+++ ++++++%+ %%++++++ %**%++++                   ++++%**%.%+++++++.+++++++%.  ++-----+ -*--++++ ++------ --&--+++ ++------ ------++ ++------ ---&--++ +++*&-** *-*-**++ ++--&&&& &&&--+++ +++--+-- -----+++ ++++++&+ &&++++++ &**&++++                   ++++&**&.&+++++++.+++++++&. ",
" ++=@==+= =*===+++ +++=@==@ ====++++ ++====== ======++ ++====== ===@==++ +++*=**@ =**@=*++ +++==@+@ +@==++++ +++===== =====+++ ++++++@+ @+++++++ @**@++++                   ++++@**@.@+++++++.+++++++@.  ++=#==+= =*===+++ +++=#==# ====++++ ++====== ======++ ++====== ===#==++ +++*=**# =**#=*++ +++==#+# +#==++++ +++===== =====+++ ++++++#+ #+++++++ #**#++++                   ++++#**#.#+++++++.+++++++#.  ++=$==+= =*===+++ +++=$==$ ====++++ ++====== ======++ ++====== ===$==++ +++*=**$ =**$=*++ +++==$+$ +$==++++ +++===== =====+++ ++++++$+ $+++++++ $**$++++                   ++++$**$.$+++++++.+++++++$.  ++=%==+= =*===+++ +++=%==% ====++++ ++====== ======++ ++====== ===%==++ +++*=**% =**%=*++ +++==%+% +%==++++ +++===== =====+++ ++++++%+ %+++++++ %**%++++                   ++++%**%.%+++++++.+++++++%.  ++-&--+- -*---+++ +++-&--& ----++++ ++------ ------++ ++------ ---&--++ +++*-**& -**&-*++ +++--&+& +&--++++ +++----- -----+++ ++++++&+ &+++++++ &**&++++                   ++++&**&.&+++++++.+++++++&. ",
" ++==@=+= =====+++ +++===== ====++++ ++====== ======++ +++===== ==@==+++ +++*@=** *=****++ ++++==+@ +==+++++ ++==+=== ======++ ++++++@+ ++++++++ @**@++++                   ++++@**@.@+++++++.+++++++@.  ++==#=+= =====+++ +++===== ====++++ ++====== ======++ +++===== ==#==+++ +++*#=** *=****++ ++++==+# +==+++++ ++==+=== ======++ ++++++#+ ++++++++ #**#++++                   ++++#**#.#+++++++.+++++++#.  ++==$=+= =====+++ +++===== ====++++ ++====== ======++ +++===== ==$==+++ +++*$=** *=****++ ++++==+$ +==+++++ ++==+=== ======++ ++++++$+ ++++++++ $**$++++                   ++++$**$.$+++++++.+++++++$.  ++==%=+= =====+++ +++===== ====++++ ++====== ======++ +++===== ==%==+++ +++*%=** *=****++ ++++==+% +==+++++ ++==+=== ======++ ++++++%+ ++++++++ %**%++++                   ++++%**%.%+++++++.+++++++%.  ++--&-+- -----+++ +++----- ----++++ ++------ ------++ +++----- --&--+++ +++*&-** *-****++ ++++--+& +--+++++ ++--+--- ------++ ++++++&+ ++++++++ &**&++++                   ++++&**&.&+++++++.+++++++&. ",
" +++===+= @====+++ ++++==@= =@++++++ +++===== =====+++ +++===== =====+++ ++++**=@ =@=**+++ +++++=+@ +=++++++ ++==+=== ======++ ++++++@+ @+++++++ @***@+++                   +++@***@.@+++++++.+++++++@.  +++===+= #====+++ ++++==#= =#++++++ +++===== =====+++ +++===== =====+++ ++++**=# =#=**+++ +++++=+# +=++++++ ++==+=== ======++ ++++++#+ #+++++++ #***#+++                   +++#***#.#+++++++.+++++++#.  +++===+= $====+++ ++++==$= =$++++++ +++===== =====+++ +++===== =====+++ ++++**=$ =$=**+++ +++++=+$ +=++++++ ++==+=== ======++ ++++++$+ $+++++++ $***$+++                   +++$***$.$+++++++.+++++++$.  +++===+= %====+++ ++++==%= =%++++++ +++===== =====+++ +++===== =====+++ ++++**=% =%=**+++ +++++=+% +=++++++ ++==+=== ======++ ++++++%+ %+++++++ %***%+++                   +++%***%.%+++++++.+++++++%.  +++---+- &----+++ ++++--&- -&++++++ +++----- -----+++ +++----- -----+++ ++++**-& -&-**+++ +++++-+& +-++++++ ++--+--- ------++ ++++++&+ &+++++++ &***&+++                   +++&***&.&+++++++.+++++++&. ",
" +++++++= =@===+++ +++++=== ==++++++ +++===== =====+++ ++++==== ====++++ ++++***= ***=*+++ +++++++@ ++++++++ ++====== ======++ ++++++@+ @@++++++ +@***@@@                   @@@***@+.@+++++++.+++++++@.  +++++++= =#===+++ +++++=== ==++++++ +++===== =====+++ ++++==== ====++++ ++++***= ***=*+++ +++++++# ++++++++ ++====== ======++ ++++++#+ ##++++++ +#***###                   ###***#+.#+++++++.+++++++#.  +++++++= =$===+++ +++++=== ==++++++ +++===== =====+++ ++++==== ====++++ ++++***= ***=*+++ +++++++$ ++++++++ ++====== ======++ ++++++$+ $$++++++ +$***$$$                   $$$***$+.$+++++++.+++++++$.  +++++++= =%===+++ +++++=== ==++++++ +++===== =====+++ ++++==== ====++++ ++++***= ***=*+++ +++++++% ++++++++ ++====== ======++ ++++++%+ %%++++++ +%***%%%                   %%%***%+.%+++++++.+++++++%.  +++++++- -&---+++ +++++--- --++++++ +++----- -----+++ ++++---- ----++++ ++++***- ***-*+++ +++++++& ++++++++ ++------ ------++ ++++++&+ &&++++++ +&***&&&                   &&&***&+.&+++++++.+++++++&. ",
" ++++++++ ====++++ +++++++= ++++++++ +++++=== ===+++++ +++++==+ ===+++++ +++++*=* **=*++++ +++++++@ ++++++++ ++=***** @@***=++ ++++++@+ @+++++++ +@******                   ******@+.@+++++++.+++++++@.  ++++++++ ====++++ +++++++= ++++++++ +++++=== ===+++++ +++++==+ ===+++++ +++++*=* **=*++++ +++++++# ++++++++ ++=***** ##***=++ ++++++#+ #+++++++ +#******                   ******#+.#+++++++.+++++++#.  ++++++++ ====++++ +++++++= ++++++++ +++++=== ===+++++ +++++==+ ===+++++ +++++*=* **=*++++ +++++++$ ++++++++ ++=***** $$***=++ ++++++$+ $+++++++ +$******                   ******$+.$+++++++.+++++++$.  ++++++++ ====++++ +++++++= ++++++++ +++++=== ===+++++ +++++==+ ===+++++ +++++*=* **=*++++ +++++++% ++++++++ ++=***** %%***=++ ++++++%+ %+++++++ +%******                   ******%+.%+++++++.+++++++%.  ++++++++ ----++++ +++++++- ++++++++ +++++--- ---+++++ +++++--+ ---+++++ +++++*-* **-*++++ +++++++& ++++++++ ++-***** &&***-++ ++++++&+ &+++++++ +&******                   ******&+.&+++++++.+++++++&. ",
" ++++++++ ++++++++ ++++++++ ++++++++ ++++++++ ++++++++ ++++++++ ++++++++ +++++++* *=++++++ ++++++++ ++++++++ +++***** @@***+++ +++++++@ ++++++++ ++@@****                   ****@@++.@+++++++.+++++++@.  ++++++++ ++++++++ ++++++++ ++++++++ ++++++++ ++++++++ ++++++++ ++++++++ +++++++* *=++++++ ++++++++ ++++++++ +++***** ##***+++ +++++++# ++++++++ ++##****                   ****##++.#+++++++.+++++++#.  ++++++++ ++++++++ ++++++++ ++++++++ ++++++++ ++++++++ ++++++++ ++++++++ +++++++* *=++++++ ++++++++ ++++++++ +++***** $$***+++ +++++++$ ++++++++ ++$$****                   ****$$++.$+++++++.+++++++$.  ++++++++ ++++++++ ++++++++ ++++++++ ++++++++ ++++++++ ++++++++ ++++++++ +++++++* *=++++++ ++++++++ ++++++++ +++***** %%***+++ +++++++% ++++++++ ++%%****                   ****%%++.%+++++++.+++++++%.  ++++++++ ++++++++ ++++++++ ++++++++ ++++++++ ++++++++ ++++++++ ++++++++ +++++++* *-++++++ ++++++++ ++++++++ +++***** &&***+++ +++++++& ++++++++ ++&&****                   ****&&++.&+++++++.+++++++&. ",
" ++++++++ ++++++++ ++++++++ ++++++++ ++++++++ ++++++++ ++++++++ ++++++++ ++++++++ ++++++++ ++++++++ ++++++++ ++++++++ ++++++++ ++++++++ ++++++++ ++++@@@@                   @@@@++++.@@@@@@@@.@@@@@@@@.  ++++++++ ++++++++ ++++++++ ++++++++ ++++++++ ++++++++ ++++++++ ++++++++ ++++++++ ++++++++ ++++++++ ++++++++ ++++++++ ++++++++ ++++++++ ++++++++ ++++####                   ####++++.########.########.  ++++++++ ++++++++ ++++++++ ++++++++ ++++++++ ++++++++ ++++++++ ++++++++ ++++++++ ++++++++ ++++++++ ++++++++ ++++++++ ++++++++ ++++++++ ++++++++ ++++$$$$                   $$$$++++.$$$$$$$$.$$$$$$$$.  ++++++++ ++++++++ ++++++++ ++++++++ ++++++++ ++++++++ ++++++++ ++++++++ ++++++++ ++++++++ ++++++++ ++++++++ ++++++++ ++++++++ ++++++++ ++++++++ ++++%%%%                   %%%%++++.%%%%%%%%.%%%%%%%%.  ++++++++ ++++++++ ++++++++ ++++++++ ++++++++ ++++++++ ++++++++ ++++++++ ++++++++ ++++++++ ++++++++ ++++++++ ++++++++ ++++++++ ++++++++ ++++++++ ++++&&&&                   &&&&++++.&&&&&&&&.&&&&&&&&. ",
"                                                                                                                                                                                    ...................                                                                                                                                                                                     ...................                                                                                                                                                                                     ...................                                                                                                                                                                                     ...................                                                                                                                                                                                     ................... ",
" ++++++++ ++++++++ ++++++++ ++++++++ ++++++++ ++++++++ ++++++++ ++++++++ ++++++++ ++++++++ ++++++++ ++++++++ ++++++++ +++@+++@ ++++++++ @@@@@++@ ++++++++ @@@@@++@ ++++++++ @@@@@++@ @+++@@++ ++++++++   ++++++++ ++++++++ ++++++++ ++++++++ ++++++++ ++++++++ ++++++++ ++++++++ ++++++++ ++++++++ ++++++++ ++++++++ ++++++++ +++#+++# ++++++++ #####++# ++++++++ #####++# ++++++++ #####++# #+++##++ ++++++++   ++++++++ ++++++++ ++++++++ ++++++++ ++++++++ ++++++++ ++++++++ ++++++++ ++++++++ ++++++++ ++++++++ ++++++++ ++++++++ +++$+++$ ++++++++ $$$$$++$ ++++++++ $$$$$++$ ++++++++ $$$$$++$ $+++$$++ ++++++++   ++++++++ ++++++++ ++++++++ ++++++++ ++++++++ ++++++++ ++++++++ ++++++++ ++++++++ ++++++++ ++++++++ ++++++++ ++++++++ +++%+++% ++++++++ %%%%%++% ++++++++ %%%%%++% ++++++++ %%%%%++% %+++%%++ ++++++++   ++++++++ ++++++++ ++++++++ ++++++++ ++++++++ ++++++++ ++++++++ ++++++++ ++++++++ ++++++++ ++++++++ ++++++++ ++++++++ +++&+++& ++++++++ &&&&&++& ++++++++ &&&&&++& ++++++++ &&&&&++& &+++&&++ ++++++++  ",
" ++++++++ ++++++++ ++++++++ ++++++++ ++++++++ ++++++++ ++++++++ ++++++++ ++++++++ ++++++++ ++++++++ ++++++++ ++++++++ ++@@++@+ ++++++++ +++@++@+ ++++++++ @+++++@+ ++++++++ @+++@+@+ +@+@++@+ ++++++++   ++++++++ ++++++++ ++++++++ ++++++++ ++++++++ ++++++++ ++++++++ ++++++++ ++++++++ ++++++++ ++++++++ ++++++++ ++++++++ ++##++#+ ++++++++ +++#++#+ ++++++++ #+++++#+ ++++++++ #+++#+#+ +#+#++#+ ++++++++   ++++++++ ++++++++ ++++++++ ++++++++ ++++++++ ++++++++ ++++++++ ++++++++ ++++++++ ++++++++ ++++++++ ++++++++ ++++++++ ++$$++$+ ++++++++ +++$++$+ ++++++++ $+++++$+ ++++++++ $+++$+$+ +$+$++$+ ++++++++   ++++++++ ++++++++ ++++++++ ++++++++ ++++++++ ++++++++ ++++++++ ++++++++ ++++++++ ++++++++ ++++++++ ++++++++ ++++++++ ++%%++%+ ++++++++ +++%++%+ ++++++++ %+++++%+ ++++++++ %+++%+%+ +%+%++%+ ++++++++   ++++++++ ++++++++ ++++++++ ++++++++ ++++++++ ++++++++ ++++++++ ++++++++ ++++++++ ++++++++ ++++++++ ++++++++ ++++++++ ++&&++&+ ++++++++ +++&++&+ ++++++++ &+++++&+ ++++++++ &+++&+&+ +&+&++&+ ++++++++  ",
" +++++@@@ @@++++++ ++++++++ ++++++++ ++++++++ +@@@@+++ +++++@@@ @@++++++ +++@@@@+ ++++++++ ++++++++ ++++++++ ++++++++ +++@++@+ ++++++++ ++@+++@+ ++++++++ @@@@++@+ ++++++++ +++@++@+ +@+@++@+ ++++++++   +++++### ##++++++ ++++++++ ++++++++ ++++++++ +####+++ +++++### ##++++++ +++####+ ++++++++ ++++++++ ++++++++ ++++++++ +++#++#+ ++++++++ ++#+++#+ ++++++++ ####++#+ ++++++++ +++#++#+ +#+#++#+ ++++++++   +++++$$$ $$++++++ ++++++++ ++++++++ ++++++++ +$$$$+++ +++++$$$ $$++++++ +++$$$$+ ++++++++ ++++++++ ++++++++ ++++++++ +++$++$+ ++++++++ ++$+++$+ ++++++++ $$$$++$+ ++++++++ +++$++$+ +$+$++$+ ++++++++   +++++%%% %%++++++ ++++++++ ++++++++ ++++++++ +%%%%+++ +++++%%% %%++++++ +++%%%%+ ++++++++ ++++++++ ++++++++ ++++++++ +++%++%+ ++++++++ ++%+++%+ ++++++++ %%%%++%+ ++++++++ +++%++%+ +%+%++%+ ++++++++   +++++&&& &&++++++ ++++++++ ++++++++ ++++++++ +&&&&+++ +++++&&& &&++++++ +++&&&&+ ++++++++ ++++++++ ++++++++ ++++++++ +++&++&+ ++++++++ ++&+++&+ ++++++++ &&&&++&+ ++++++++ +++&++&+ +&+&++&+ ++++++++  ",
" ++++@@@@ @@@+++++ ++++++++ ++++++++ ++++++++ +@@@@+++ +++++@@@ @@@+++++ +++@@@@@ ++++++++ ++++++++ ++++++++ ++++++++ +++@++@+ ++++++++ +++@++@+ ++++++++ ++++@+@+ ++++++++ +++@++@+ +@+@++@+ ++++++++   ++++#### ###+++++ ++++++++ ++++++++ ++++++++ +####+++ +++++### ###+++++ +++##### ++++++++ ++++++++ ++++++++ ++++++++ +++#++#+ ++++++++ +++#++#+ ++++++++ ++++#+#+ ++++++++ +++#++#+ +#+#++#+ ++++++++   ++++$$$$ $$$+++++ ++++++++ ++++++++ ++++++++ +$$$$+++ +++++$$$ $$$+++++ +++$$$$$ ++++++++ ++++++++ ++++++++ ++++++++ +++$++$+ ++++++++ +++$++$+ ++++++++ ++++$+$+ ++++++++ +++$++$+ +$+$++$+ ++++++++   ++++%%%% %%%+++++ ++++++++ ++++++++ ++++++++ +%%%%+++ +++++%%% %%%+++++ +++%%%%% ++++++++ ++++++++ ++++++++ ++++++++ +++%++%+ ++++++++ +++%++%+ ++++++++ ++++%+%+ ++++++++ +++%++%+ +%+%++%+ ++++++++   ++++&&&& &&&+++++ ++++++++ ++++++++ ++++++++ +&&&&+++ +++++&&& &&&+++++ +++&&&&& ++++++++ ++++++++ ++++++++ ++++++++ +++&++&+ ++++++++ +++&++&+ ++++++++ ++++&+&+ ++++++++ +++&++&+ +&+&++&+ ++++++++  ",
" +++@@@@@ @@@@++++ ++++++++ ++++++++ ++++++++ +@@@@@++ +++++@@@ @@@@++++ +++@@@@@ @+++++++ ++++++++ ++++++++ ++++++++ +++@++@+ ++++++++ ++++@+@+ ++++++++ ++++@+@+ ++++++++ ++@+++@+ +@+@++@+ ++++++++   +++##### ####++++ ++++++++ ++++++++ ++++++++ +#####++ +++++### ####++++ +++##### #+++++++ ++++++++ ++++++++ ++++++++ +++#++#+ ++++++++ ++++#+#+ ++++++++ ++++#+#+ ++++++++ ++#+++#+ +#+#++#+ ++++++++   +++$$$$$ $$$$++++ ++++++++ ++++++++ ++++++++ +$$$$$++ +++++$$$ $$$$++++ +++$$$$$ $+++++++ ++++++++ ++++++++ ++++++++ +++$++$+ ++++++++ ++++$+$+ ++++++++ ++++$+$+ ++++++++ ++$+++$+ +$+$++$+ ++++++++   +++%%%%% %%%%++++ ++++++++ ++++++++ ++++++++ +%%%%%++ +++++%%% %%%%++++ +++%%%%% %+++++++ ++++++++ ++++++++ ++++++++ +++%++%+ ++++++++ ++++%+%+ ++++++++ ++++%+%+ ++++++++ ++%+++%+ +%+%++%+ ++++++++   +++&&&&& &&&&++++ ++++++++ ++++++++ ++++++++ +&&&&&++ +++++&&& &&&&++++ +++&&&&& &+++++++ ++++++++ ++++++++ ++++++++ +++&++&+ ++++++++ ++++&+&+ ++++++++ ++++&+&+ ++++++++ ++&+++&+ +&+&++&+ ++++++++  ",
" +++++@@@ @@@@@+++ ++++++++ ++++++++ ++++++++ +@@@@@@+ +++++@@@ @@@@@@++ +++@@@@@ @@@+++++ ++++++++ ++++++++ ++++++++ +++@++@+ ++++++++ @+++@+@+ ++++++++ @+++@+@+ ++++++++ ++@+++@+ +@+@++@+ ++++++++   +++++### #####+++ ++++++++ ++++++++ ++++++++ +######+ +++++### ######++ +++##### ###+++++ ++++++++ ++++++++ ++++++++ +++#++#+ ++++++++ #+++#+#+ ++++++++ #+++#+#+ ++++++++ ++#+++#+ +#+#++#+ ++++++++   +++++$$$ $$$$$+++ ++++++++ ++++++++ ++++++++ +$$$$$$+ +++++$$$ $$$$$$++ +++$$$$$ $$$+++++ ++++++++ ++++++++ ++++++++ +++$++$+ ++++++++ $+++$+$+ ++++++++ $+++$+$+ ++++++++ ++$+++$+ +$+$++$+ ++++++++   +++++%%% %%%%%+++ ++++++++ ++++++++ ++++++++ +%%%%%%+ +++++%%% %%%%%%++ +++%%%%% %%%+++++ ++++++++ ++++++++ ++++++++ +++%++%+ ++++++++ %+++%+%+ ++++++++ %+++%+%+ ++++++++ ++%+++%+ +%+%++%+ ++++++++   +++++&&& &&&&&+++ ++++++++ ++++++++ ++++++++ +&&&&&&+ +++++&&& &&&&&&++ +++&&&&& &&&+++++ ++++++++ ++++++++ ++++++++ +++&++&+ ++++++++ &+++&+&+ ++++++++ &+++&+&+ ++++++++ ++&+++&+ +&+&++&+ ++++++++  ",
" +++++++@ @@@@@+++ ++++++++ ++++++++ ++++++++ +@@@@@@@ +++++@@@ @@@@@@@@ +++@@@@@ @@@@@@@@ ++++++++ +++++++@ ++++++++ ++@@@++@ ++++++++ +@@@+++@ ++++++++ +@@@+++@ ++++++++ ++@++++@ @+++@@++ ++++++++   +++++++# #####+++ ++++++++ ++++++++ ++++++++ +####### +++++### ######## +++##### ######## ++++++++ +++++++# ++++++++ ++###++# ++++++++ +###+++# ++++++++ +###+++# ++++++++ ++#++++# #+++##++ ++++++++   +++++++$ $$$$$+++ ++++++++ ++++++++ ++++++++ +$$$$$$$ +++++$$$ $$$$$$$$ +++$$$$$ $$$$$$$$ ++++++++ +++++++$ ++++++++ ++$$$++$ ++++++++ +$$$+++$ ++++++++ +$$$+++$ ++++++++ ++$++++$ $+++$$++ ++++++++   +++++++% %%%%%+++ ++++++++ ++++++++ ++++++++ +%%%%%%% +++++%%% %%%%%%%% +++%%%%% %%%%%%%% ++++++++ +++++++% ++++++++ ++%%%++% ++++++++ +%%%+++% ++++++++ +%%%+++% ++++++++ ++%++++% %+++%%++ ++++++++   +++++++& &&&&&+++ ++++++++ ++++++++ ++++++++ +&&&&&&& +++++&&& &&&&&&&& +++&&&&& &&&&&&&& ++++++++ +++++++& ++++++++ ++&&&++& ++++++++ +&&&+++& ++++++++ +&&&+++& ++++++++ ++&++++& &+++&&++ ++++++++  ",
" ++++++++ +@@@@+++ ++++++++ +++++++= ++++++++ +@@@@@@@ +++++@@@ @@@@@@@@ +++@@@@@ @@@@@@@@ ++++++++ ++++++@@ ++++++++ ++++++++ ++++++++ ++++++++ ++++++++ ++++++++ ++++++++ ++++++++ ++++++++ ++++++++   ++++++++ +####+++ ++++++++ +++++++= ++++++++ +####### +++++### ######## +++##### ######## ++++++++ ++++++## ++++++++ ++++++++ ++++++++ ++++++++ ++++++++ ++++++++ ++++++++ ++++++++ ++++++++ ++++++++   ++++++++ +$$$$+++ ++++++++ +++++++= ++++++++ +$$$$$$$ +++++$$$ $$$$$$$$ +++$$$$$ $$$$$$$$ ++++++++ ++++++$$ ++++++++ ++++++++ ++++++++ ++++++++ ++++++++ ++++++++ ++++++++ ++++++++ ++++++++ ++++++++   ++++++++ +%%%%+++ ++++++++ +++++++= ++++++++ +%%%%%%% +++++%%% %%%%%%%% +++%%%%% %%%%%%%% ++++++++ ++++++%% ++++++++ ++++++++ ++++++++ ++++++++ ++++++++ ++++++++ ++++++++ ++++++++ ++++++++ ++++++++   ++++++++ +&&&&+++ ++++++++ +++++++- ++++++++ +&&&&&&& +++++&&& &&&&&&&& +++&&&&& &&&&&&&& ++++++++ ++++++&& ++++++++ ++++++++ ++++++++ ++++++++ ++++++++ ++++++++ ++++++++ ++++++++ ++++++++ ++++++++  ",
"                                                                                                                                                                                                                                                                                                                                                                                                                                                                                                                                                                                                                                                                                                                                                                                                                                                                                                                                                                                                                                        ",
" +++++++@ @@@@@+++ ++++++++ +++++++= ++++++++ +@@@@@@@ +++++@@@ @@@@@@@@ +++@@@@@ @@@@@@@@ ++++++++ ++++@@@@ ++++++++ +@+++@@+ +++++++@ @@+++@@+ ++++++@@ @@@++@@+ ++++++@@ @@@++@@+ ++@@+++@ @+++++++   +++++++# #####+++ ++++++++ +++++++= ++++++++ +####### +++++### ######## +++##### ######## ++++++++ ++++#### ++++++++ +#+++##+ +++++++# ##+++##+ ++++++## ###++##+ ++++++## ###++##+ ++##+++# #+++++++   +++++++$ $$$$$+++ ++++++++ +++++++= ++++++++ +$$$$$$$ +++++$$$ $$$$$$$$ +++$$$$$ $$$$$$$$ ++++++++ ++++$$$$ ++++++++ +$+++$$+ +++++++$ $$+++$$+ ++++++$$ $$$++$$+ ++++++$$ $$$++$$+ ++$$+++$ $+++++++   +++++++% %%%%%+++ ++++++++ +++++++= ++++++++ +%%%%%%% +++++%%% %%%%%%%% +++%%%%% %%%%%%%% ++++++++ ++++%%%% ++++++++ +%+++%%+ +++++++% %%+++%%+ ++++++%% %%%++%%+ ++++++%% %%%++%%+ ++%%+++% %+++++++   +++++++& &&&&&+++ ++++++++ +++++++- ++++++++ +&&&&&&& +++++&&& &&&&&&&& +++&&&&& &&&&&&&& ++++++++ ++++&&&& ++++++++ +&+++&&+ +++++++& &&+++&&+ ++++++&& &&&++&&+ ++++++&& &&&++&&+ ++&&+++& &+++++++  ",
" +++++@@@ @@@@@+++ ++++++++ +++++++= ++++++++ +@@@@@@@ +++++@@@ @@@@@@@@ +++@@@@@ @@@@@@@@ ++++++++ +++@@@@@ ++++++++ @@++@++@ ++++++@+ ++@+@++@ ++++++++ +@++@++@ ++++++@+ ++++@++@ +@++@+@+ +@++++++   +++++### #####+++ ++++++++ +++++++= ++++++++ +####### +++++### ######## +++##### ######## ++++++++ +++##### ++++++++ ##++#++# ++++++#+ ++#+#++# ++++++++ +#++#++# ++++++#+ ++++#++# +#++#+#+ +#++++++   +++++$$$ $$$$$+++ ++++++++ +++++++= ++++++++ +$$$$$$$ +++++$$$ $$$$$$$$ +++$$$$$ $$$$$$$$ ++++++++ +++$$$$$ ++++++++ $$++$++$ ++++++$+ ++$+$++$ ++++++++ +$++$++$ ++++++$+ ++++$++$ +$++$+$+ +$++++++   +++++%%% %%%%%+++ ++++++++ +++++++= ++++++++ +%%%%%%% +++++%%% %%%%%%%% +++%%%%% %%%%%%%% ++++++++ +++%%%%% ++++++++ %%++%++% ++++++%+ ++%+%++% ++++++++ +%++%++% ++++++%+ ++++%++% +%++%+%+ +%++++++   +++++&&& &&&&&+++ ++++++++ +++++++- ++++++++ +&&&&&&& +++++&&& &&&&&&&& +++&&&&& &&&&&&&& ++++++++ +++&&&&& ++++++++ &&++&++& ++++++&+ ++&+&++& ++++++++ +&++&++& ++++++&+ ++++&++& +&++&+&+ +&++++++  ",
" +++@@@@@ @@@@++++ ++++++++ +++++++= ++++++++ +@@@@@@@ +++++@@@ @@@@@@@@ +++@@@@@ @@@@@@@@ ++++++++ +@@@@@@= ++++++++ +@++@++@ ++++++@+ ++@+@++@ ++++++++ @+++@++@ ++++++@@ @@++@++@ +@++@+@+ +@++++++   +++##### ####++++ ++++++++ +++++++= ++++++++ +####### +++++### ######## +++##### ######## ++++++++ +######= ++++++++ +#++#++# ++++++#+ ++#+#++# ++++++++ #+++#++# ++++++## ##++#++# +#++#+#+ +#++++++   +++$$$$$ $$$$++++ ++++++++ +++++++= ++++++++ +$$$$$$$ +++++$$$ $$$$$$$$ +++$$$$$ $$$$$$$$ ++++++++ +$$$$$$= ++++++++ +$++$++$ ++++++$+ ++$+$++$ ++++++++ $+++$++$ ++++++$$ $$++$++$ +$++$+$+ +$++++++   +++%%%%% %%%%++++ ++++++++ +++++++= ++++++++ +%%%%%%% +++++%%% %%%%%%%% +++%%%%% %%%%%%%% ++++++++ +%%%%%%= ++++++++ +%++%++% ++++++%+ ++%+%++% ++++++++ %+++%++% ++++++%% %%++%++% +%++%+%+ +%++++++   +++&&&&& &&&&++++ ++++++++ +++++++- ++++++++ +&&&&&&& +++++&&& &&&&&&&& +++&&&&& &&&&&&&& ++++++++ +&&&&&&- ++++++++ +&++&++& ++++++&+ ++&+&++& ++++++++ &+++&++& ++++++&& &&++&++& +&++&+&+ +&++++++  ",
" ++++@@@@ @@@+++++ ++++++++ ++++++++ ++++++++ ++++++++ ++++++++ ++++++++ ++++++++ ++++++++ ++++++++ ++++++++ ++++++++ +@++@++@ ++++++++ +@++@++@ ++++++++ +@++@++@ ++++++++ ++@+@++@ +@++@+@+ +@++++++   ++++#### ###+++++ ++++++++ ++++++++ ++++++++ ++++++++ ++++++++ ++++++++ ++++++++ ++++++++ ++++++++ ++++++++ ++++++++ +#++#++# ++++++++ +#++#++# ++++++++ +#++#++# ++++++++ ++#+#++# +#++#+#+ +#++++++   ++++$$$$ $$$+++++ ++++++++ ++++++++ ++++++++ ++++++++ ++++++++ ++++++++ ++++++++ ++++++++ ++++++++ ++++++++ ++++++++ +$++$++$ ++++++++ +$++$++$ ++++++++ +$++$++$ ++++++++ ++$+$++$ +$++$+$+ +$++++++   ++++%%%% %%%+++++ ++++++++ ++++++++ ++++++++ ++++++++ ++++++++ ++++++++ ++++++++ ++++++++ ++++++++ ++++++++ ++++++++ +%++%++% ++++++++ +%++%++% ++++++++ +%++%++% ++++++++ ++%+%++% +%++%+%+ +%++++++   ++++&&&& &&&+++++ ++++++++ ++++++++ ++++++++ ++++++++ ++++++++ ++++++++ ++++++++ ++++++++ ++++++++ ++++++++ ++++++++ +&++&++& ++++++++ +&++&++& ++++++++ +&++&++& ++++++++ ++&+&++& +&++&+&+ +&++++++  ",
" +++++@@@ @@++++++ ++++++++ ++++++++ ++++++++ ++++++++ ++++++++ ++++++++ ++++++++ ++++++++ ++++++++ ++++++++ ++++++++ +@++@++@ ++++++++ @+++@++@ ++++++++ ++@+@++@ ++++++++ ++@+@++@ +@++@+@+ +@++++++   +++++### ##++++++ ++++++++ ++++++++ ++++++++ ++++++++ ++++++++ ++++++++ ++++++++ ++++++++ ++++++++ ++++++++ ++++++++ +#++#++# ++++++++ #+++#++# ++++++++ ++#+#++# ++++++++ ++#+#++# +#++#+#+ +#++++++   +++++$$$ $$++++++ ++++++++ ++++++++ ++++++++ ++++++++ ++++++++ ++++++++ ++++++++ ++++++++ ++++++++ ++++++++ ++++++++ +$++$++$ ++++++++ $+++$++$ ++++++++ ++$+$++$ ++++++++ ++$+$++$ +$++$+$+ +$++++++   +++++%%% %%++++++ ++++++++ ++++++++ ++++++++ ++++++++ ++++++++ ++++++++ ++++++++ ++++++++ ++++++++ ++++++++ ++++++++ +%++%++% ++++++++ %+++%++% ++++++++ ++%+%++% ++++++++ ++%+%++% +%++%+%+ +%++++++   +++++&&& &&++++++ ++++++++ ++++++++ ++++++++ ++++++++ ++++++++ ++++++++ ++++++++ ++++++++ ++++++++ ++++++++ ++++++++ +&++&++& ++++++++ &+++&++& ++++++++ ++&+&++& ++++++++ ++&+&++& +&++&+&+ +&++++++  ",
" ++++++++ ++++++++ ++++++++ ++++++++ ++++++++ ++++++++ ++++++++ ++++++++ ++++++++ ++++++++ ++++++++ ++++++++ ++++++++ +@++@++@ +++++++@ ++++@++@ ++++++@+ ++@+@++@ ++++++@+ ++@+@++@ +@++@+@+ +@++++++   ++++++++ ++++++++ ++++++++ ++++++++ ++++++++ ++++++++ ++++++++ ++++++++ ++++++++ ++++++++ ++++++++ ++++++++ ++++++++ +#++#++# +++++++# ++++#++# ++++++#+ ++#+#++# ++++++#+ ++#+#++# +#++#+#+ +#++++++   ++++++++ ++++++++ ++++++++ ++++++++ ++++++++ ++++++++ ++++++++ ++++++++ ++++++++ ++++++++ ++++++++ ++++++++ ++++++++ +$++$++$ +++++++$ ++++$++$ ++++++$+ ++$+$++$ ++++++$+ ++$+$++$ +$++$+$+ +$++++++   ++++++++ ++++++++ ++++++++ ++++++++ ++++++++ ++++++++ ++++++++ ++++++++ ++++++++ ++++++++ ++++++++ ++++++++ ++++++++ +%++%++% +++++++% ++++%++% ++++++%+ ++%+%++% ++++++%+ ++%+%++% +%++%+%+ +%++++++   ++++++++ ++++++++ ++++++++ ++++++++ ++++++++ ++++++++ ++++++++ ++++++++ ++++++++ ++++++++ ++++++++ ++++++++ ++++++++ +&++&++& +++++++& ++++&++& ++++++&+ ++&+&++& ++++++&+ ++&+&++& +&++&+&+ +&++++++  ",
" ++++++++ ++++++++ ++++++++ ++++++++ ++++++++ ++++++++ ++++++++ ++++++++ ++++++++ ++++++++ ++++++++ ++++++++ ++++++++ @@@++@@+ ++++++@@ @@@++@@+ +++++++@ @@+++@@+ +++++++@ @@+++@@+ ++@@+++@ @+++++++   ++++++++ ++++++++ ++++++++ ++++++++ ++++++++ ++++++++ ++++++++ ++++++++ ++++++++ ++++++++ ++++++++ ++++++++ ++++++++ ###++##+ ++++++## ###++##+ +++++++# ##+++##+ +++++++# ##+++##+ ++##+++# #+++++++   ++++++++ ++++++++ ++++++++ ++++++++ ++++++++ ++++++++ ++++++++ ++++++++ ++++++++ ++++++++ ++++++++ ++++++++ ++++++++ $$$++$$+ ++++++$$ $$$++$$+ +++++++$ $$+++$$+ +++++++$ $$+++$$+ ++$$+++$ $+++++++   ++++++++ ++++++++ ++++++++ ++++++++ ++++++++ ++++++++ ++++++++ ++++++++ ++++++++ ++++++++ ++++++++ ++++++++ ++++++++ %%%++%%+ ++++++%% %%%++%%+ +++++++% %%+++%%+ +++++++% %%+++%%+ ++%%+++% %+++++++   ++++++++ ++++++++ ++++++++ ++++++++ ++++++++ ++++++++ ++++++++ ++++++++ ++++++++ ++++++++ ++++++++ ++++++++ ++++++++ &&&++&&+ ++++++&& &&&++&&+ +++++++& &&+++&&+ +++++++& &&+++&&+ ++&&+++& &+++++++  ",
" ++++++++ ++++++++ ++++++++ ++++++++ ++++++++ ++++++++ ++++++++ ++++++++ ++++++++ ++++++++ ++++++++ ++++++++ ++++++++ ++++++++ ++++++++ ++++++++ ++++++++ ++++++++ ++++++++ ++++++++ ++++++++ ++++++++   ++++++++ ++++++++ ++++++++ ++++++++ ++++++++ ++++++++ ++++++++ ++++++++ ++++++++ ++++++++ ++++++++ ++++++++ ++++++++ ++++++++ ++++++++ ++++++++ ++++++++ ++++++++ ++++++++ ++++++++ ++++++++ ++++++++   ++++++++ ++++++++ ++++++++ ++++++++ ++++++++ ++++++++ ++++++++ ++++++++ ++++++++ ++++++++ ++++++++ ++++++++ ++++++++ ++++++++ ++++++++ ++++++++ ++++++++ ++++++++ ++++++++ ++++++++ ++++++++ ++++++++   ++++++++ ++++++++ ++++++++ ++++++++ ++++++++ ++++++++ ++++++++ ++++++++ ++++++++ ++++++++ ++++++++ ++++++++ ++++++++ ++++++++ ++++++++ ++++++++ ++++++++ ++++++++ ++++++++ ++++++++ ++++++++ ++++++++   ++++++++ ++++++++ ++++++++ ++++++++ ++++++++ ++++++++ ++++++++ ++++++++ ++++++++ ++++++++ ++++++++ ++++++++ ++++++++ ++++++++ ++++++++ ++++++++ ++++++++ ++++++++ ++++++++ ++++++++ ++++++++ ++++++++  ",
"                                                                                                                                                                                                                                                                                                                                                                                                                                                                                                                                                                                                                                                                                                                                                                                                                                                                                                                                                                                                                                        ",
"                                                                                                                                                                                                                                                                                                                                                                                                                                                                                                                                                                                                                                                                                                                                                                                                                                                                                                                                                                                                                                        ",
" ++++++++++++++++ ++++++++++++++++ ++++++++++++++++ ++++++++++++++++ ++++++++++++++++ ++++++++++++++++ ++++++++++++++++ ++++++++++++++++ ++++++++++++==== ====++++++++++++  +++++++++++++++++++++++++    ++++++++++++++++ ++++++++++++++++ ++++++++++++++++ ++++++++++++++++ ++++++++++++++++ ++++++++++++++++ ++++++++++++++++ ++++++++++++++++ ++++++++++++==== ====++++++++++++  +++++++++++++++++++++++++    ++++++++++++++++ ++++++++++++++++ ++++++++++++++++ ++++++++++++++++ ++++++++++++++++ ++++++++++++++++ ++++++++++++++++ ++++++++++++++++ ++++++++++++==== ====++++++++++++  +++++++++++++++++++++++++    ++++++++++++++++ ++++++++++++++++ ++++++++++++++++ ++++++++++++++++ ++++++++++++++++ ++++++++++++++++ ++++++++++++++++ ++++++++++++++++ ++++++++++++==== ====++++++++++++  +++++++++++++++++++++++++    ++++++++++++++++ ++++++++++++++++ ++++++++++++++++ ++++++++++++++++ ++++++++++++++++ ++++++++++++++++ ++++++++++++++++ ++++++++++++++++ ++++++++++++---- ----++++++++++++  +++++++++++++++++++++++++   ",
" ++++++@@@@++++++ ++++++@@@@++++++ ++++++@@@@++++++ ++++++@@@@++++++ ++++++@@@@++++++ ++++++@@@@++++++ ++++++@@@@++++++ ++++++@@@@++++++ +++++++++======= =======+++++++++  +++++++++++++++++++++++++    ++++++####++++++ ++++++####++++++ ++++++####++++++ ++++++####++++++ ++++++####++++++ ++++++####++++++ ++++++####++++++ ++++++####++++++ +++++++++======= =======+++++++++  +++++++++++++++++++++++++    ++++++$$$$++++++ ++++++$$$$++++++ ++++++$$$$++++++ ++++++$$$$++++++ ++++++$$$$++++++ ++++++$$$$++++++ ++++++$$$$++++++ ++++++$$$$++++++ +++++++++======= =======+++++++++  +++++++++++++++++++++++++    ++++++%%%%++++++ ++++++%%%%++++++ ++++++%%%%++++++ ++++++%%%%++++++ ++++++%%%%++++++ ++++++%%%%++++++ ++++++%%%%++++++ ++++++%%%%++++++ +++++++++======= =======+++++++++  +++++++++++++++++++++++++    ++++++&&&&++++++ ++++++&&&&++++++ ++++++&&&&++++++ ++++++&&&&++++++ ++++++&&&&++++++ ++++++&&&&++++++ ++++++&&&&++++++ ++++++&&&&++++++ +++++++++------- -------+++++++++  +++++++++++++++++++++++++   ",
" ++++@@@@@@@@++++ ++++@@@@@@@@++++ ++++@@@@@@@@++++ ++++@@@@@@@@++++ ++++@@@@@@@@++++ ++++@@@@@@@@++++ ++++**@@@@**++++ ++++**@@@@**++++ +++++++========= =========+++++++  +++++++++++++++++++++++++    ++++########++++ ++++########++++ ++++########++++ ++++########++++ ++++########++++ ++++########++++ ++++**####**++++ ++++**####**++++ +++++++========= =========+++++++  +++++++++++++++++++++++++    ++++$$$$$$$$++++ ++++$$$$$$$$++++ ++++$$$$$$$$++++ ++++$$$$$$$$++++ ++++$$$$$$$$++++ ++++$$$$$$$$++++ ++++**$$$$**++++ ++++**$$$$**++++ +++++++========= =========+++++++  +++++++++++++++++++++++++    ++++%%%%%%%%++++ ++++%%%%%%%%++++ ++++%%%%%%%%++++ ++++%%%%%%%%++++ ++++%%%%%%%%++++ ++++%%%%%%%%++++ ++++**%%%%**++++ ++++**%%%%**++++ +++++++========= =========+++++++  +++++++++++++++++++++++++    ++++&&&&&&&&++++ ++++&&&&&&&&++++ ++++&&&&&&&&++++ ++++&&&&&&&&++++ ++++&&&&&&&&++++ ++++&&&&&&&&++++ ++++**&&&&**++++ ++++**&&&&**++++ +++++++--------- ---------+++++++  +++++++++++++++++++++++++   ",
" +++@@@@@@@@@@+++ +++@@@@@@@@@@+++ +++@@@@@@@@@@+++ +++@@@@@@@@@@+++ +++@@@@@@@@@@+++ +++@@@@@@@@@@+++ +++=**=@@=**=+++ +++=**=@@=**=+++ ++++++========== ==========++++++  +++++++++++++++++++++++++    +++##########+++ +++##########+++ +++##########+++ +++##########+++ +++##########+++ +++##########+++ +++=**=##=**=+++ +++=**=##=**=+++ ++++++========== ==========++++++  +++++++++++++++++++++++++    +++$$$$$$$$$$+++ +++$$$$$$$$$$+++ +++$$$$$$$$$$+++ +++$$$$$$$$$$+++ +++$$$$$$$$$$+++ +++$$$$$$$$$$+++ +++=**=$$=**=+++ +++=**=$$=**=+++ ++++++========== ==========++++++  +++++++++++++++++++++++++    +++%%%%%%%%%%+++ +++%%%%%%%%%%+++ +++%%%%%%%%%%+++ +++%%%%%%%%%%+++ +++%%%%%%%%%%+++ +++%%%%%%%%%%+++ +++=**=%%=**=+++ +++=**=%%=**=+++ ++++++========== ==========++++++  +++++++++++++++++++++++++    +++&&&&&&&&&&+++ +++&&&&&&&&&&+++ +++&&&&&&&&&&+++ +++&&&&&&&&&&+++ +++&&&&&&&&&&+++ +++&&&&&&&&&&+++ +++-**-&&-**-+++ +++-**-&&-**-+++ ++++++---------- ----------++++++  +++++++++++++++++++++++++   ",
" ++@@@==@@@@==@++ ++@@@==@@@@==@++ ++@@@@@@@@@@@@++ ++@@@@@@@@@@@@++ ++@==@@@@==@@@++ ++@==@@@@==@@@++ ++@====@@====@++ ++@====@@====@++ +++++=========== ===========+++++  +++++++++++++++++++++++++    ++###==####==#++ ++###==####==#++ ++############++ ++############++ ++#==####==###++ ++#==####==###++ ++#====##====#++ ++#====##====#++ +++++=========== ===========+++++  +++++++++++++++++++++++++    ++$$$==$$$$==$++ ++$$$==$$$$==$++ ++$$$$$$$$$$$$++ ++$$$$$$$$$$$$++ ++$==$$$$==$$$++ ++$==$$$$==$$$++ ++$====$$====$++ ++$====$$====$++ +++++=========== ===========+++++  +++++++++++++++++++++++++    ++%%%==%%%%==%++ ++%%%==%%%%==%++ ++%%%%%%%%%%%%++ ++%%%%%%%%%%%%++ ++%==%%%%==%%%++ ++%==%%%%==%%%++ ++%====%%====%++ ++%====%%====%++ +++++=========== ===========+++++  +++++++++++++++++++++++++    ++&&&--&&&&--&++ ++&&&--&&&&--&++ ++&&&&&&&&&&&&++ ++&&&&&&&&&&&&++ ++&--&&&&--&&&++ ++&--&&&&--&&&++ ++&----&&----&++ ++&----&&----&++ +++++----------- -----------+++++  +++++++++++++++++++++++++   ",
" ++@@====@@====++ ++@@====@@====++ ++@@==@@@@==@@++ ++@@==@@@@==@@++ ++====@@====@@++ ++====@@====@@++ ++@====@@====@++ ++@====@@====@++ ++++============ ============++++  +++++++++++++++++++++++++    ++##====##====++ ++##====##====++ ++##==####==##++ ++##==####==##++ ++====##====##++ ++====##====##++ ++#====##====#++ ++#====##====#++ ++++============ ============++++  +++++++++++++++++++++++++    ++$$====$$====++ ++$$====$$====++ ++$$==$$$$==$$++ ++$$==$$$$==$$++ ++====$$====$$++ ++====$$====$$++ ++$====$$====$++ ++$====$$====$++ ++++============ ============++++  +++++++++++++++++++++++++    ++%%====%%====++ ++%%====%%====++ ++%%==%%%%==%%++ ++%%==%%%%==%%++ ++====%%====%%++ ++====%%====%%++ ++%====%%====%++ ++%====%%====%++ ++++============ ============++++  +++++++++++++++++++++++++    ++&&----&&----++ ++&&----&&----++ ++&&--&&&&--&&++ ++&&--&&&&--&&++ ++----&&----&&++ ++----&&----&&++ ++&----&&----&++ ++&----&&----&++ ++++------------ ------------++++  +++++++++++++++++++++++++   ",
" ++@@==**@@==**++ ++@@==**@@==**++ ++@====@@====@++ ++@====@@====@++ ++**==@@**==@@++ ++**==@@**==@@++ ++@@==@@@@==@@++ ++@@==@@@@==@@++ +++============= =============+++  +++++++++++++++++++++++++    ++##==**##==**++ ++##==**##==**++ ++#====##====#++ ++#====##====#++ ++**==##**==##++ ++**==##**==##++ ++##==####==##++ ++##==####==##++ +++============= =============+++  +++++++++++++++++++++++++    ++$$==**$$==**++ ++$$==**$$==**++ ++$====$$====$++ ++$====$$====$++ ++**==$$**==$$++ ++**==$$**==$$++ ++$$==$$$$==$$++ ++$$==$$$$==$$++ +++============= =============+++  +++++++++++++++++++++++++    ++%%==**%%==**++ ++%%==**%%==**++ ++%====%%====%++ ++%====%%====%++ ++**==%%**==%%++ ++**==%%**==%%++ ++%%==%%%%==%%++ ++%%==%%%%==%%++ +++============= =============+++  +++++++++++++++++++++++++    ++&&--**&&--**++ ++&&--**&&--**++ ++&----&&----&++ ++&----&&----&++ ++**--&&**--&&++ ++**--&&**--&&++ ++&&--&&&&--&&++ ++&&--&&&&--&&++ +++------------- -------------+++  +++++++++++++++++++++++++   ",
" +@@@==**@@==**@+ +@@@==**@@==**@+ +@@====@@====@@+ +@@====@@====@@+ +@**==@@**==@@@+ +@**==@@**==@@@+ +@@@@@@@@@@@@@@+ +@@@@@@@@@@@@@@+ ++============== ==============++  +++++++++++++++++++++++++    +###==**##==**#+ +###==**##==**#+ +##====##====##+ +##====##====##+ +#**==##**==###+ +#**==##**==###+ +##############+ +##############+ ++============== ==============++  +++++++++++++++++++++++++    +$$$==**$$==**$+ +$$$==**$$==**$+ +$$====$$====$$+ +$$====$$====$$+ +$**==$$**==$$$+ +$**==$$**==$$$+ +$$$$$$$$$$$$$$+ +$$$$$$$$$$$$$$+ ++============== ==============++  +++++++++++++++++++++++++    +%%%==**%%==**%+ +%%%==**%%==**%+ +%%====%%====%%+ +%%====%%====%%+ +%**==%%**==%%%+ +%**==%%**==%%%+ +%%%%%%%%%%%%%%+ +%%%%%%%%%%%%%%+ ++============== ==============++  +++++++++++++++++++++++++    +&&&--**&&--**&+ +&&&--**&&--**&+ +&&----&&----&&+ +&&----&&----&&+ +&**--&&**--&&&+ +&**--&&**--&&&+ +&&&&&&&&&&&&&&+ +&&&&&&&&&&&&&&+ ++-------------- --------------++  +++++++++++++++++++++++++   ",
" +@@@@==@@@@==@@+ +@@@@==@@@@==@@+ +@@=**=@@=**=@@+ +@@=**=@@=**=@@+ +@@==@@@@==@@@@+ +@@==@@@@==@@@@+ +@@@@@@@@@@@@@@+ +@@@@@@@@@@@@@@+ ++============== ==============++  +++++++++++++++++++++++++    +####==####==##+ +####==####==##+ +##=**=##=**=##+ +##=**=##=**=##+ +##==####==####+ +##==####==####+ +##############+ +##############+ ++============== ==============++  +++++++++++++++++++++++++    +$$$$==$$$$==$$+ +$$$$==$$$$==$$+ +$$=**=$$=**=$$+ +$$=**=$$=**=$$+ +$$==$$$$==$$$$+ +$$==$$$$==$$$$+ +$$$$$$$$$$$$$$+ +$$$$$$$$$$$$$$+ ++============== ==============++  +++++++++++++++++++++++++    +%%%%==%%%%==%%+ +%%%%==%%%%==%%+ +%%=**=%%=**=%%+ +%%=**=%%=**=%%+ +%%==%%%%==%%%%+ +%%==%%%%==%%%%+ +%%%%%%%%%%%%%%+ +%%%%%%%%%%%%%%+ ++============== ==============++  +++++++++++++++++++++++++    +&&&&--&&&&--&&+ +&&&&--&&&&--&&+ +&&-**-&&-**-&&+ +&&-**-&&-**-&&+ +&&--&&&&--&&&&+ +&&--&&&&--&&&&+ +&&&&&&&&&&&&&&+ +&&&&&&&&&&&&&&+ ++-------------- --------------++  +++++++++++++++++++++++++   ",
" +@@@@@@@@@@@@@@+ +@@@@@@@@@@@@@@+ +@@@**@@@@**@@@+ +@@@**@@@@**@@@+ +@@@@@@@@@@@@@@+ +@@@@@@@@@@@@@@+ +@@@@@@@@@@@@@@+ +@@@@@@@@@@@@@@+ +=============== ===============+  +++++++++++++++++++++++++    +##############+ +##############+ +###**####**###+ +###**####**###+ +##############+ +##############+ +##############+ +##############+ +=============== ===============+  +++++++++++++++++++++++++    +$$$$$$$$$$$$$$+ +$$$$$$$$$$$$$$+ +$$$**$$$$**$$$+ +$$$**$$$$**$$$+ +$$$$$$$$$$$$$$+ +$$$$$$$$$$$$$$+ +$$$$$$$$$$$$$$+ +$$$$$$$$$$$$$$+ +=============== ===============+  +++++++++++++++++++++++++    +%%%%%%%%%%%%%%+ +%%%%%%%%%%%%%%+ +%%%**%%%%**%%%+ +%%%**%%%%**%%%+ +%%%%%%%%%%%%%%+ +%%%%%%%%%%%%%%+ +%%%%%%%%%%%%%%+ +%%%%%%%%%%%%%%+ +=============== ===============+  +++++++++++++++++++++++++    +&&&&&&&&&&&&&&+ +&&&&&&&&&&&&&&+ +&&&**&&&&**&&&+ +&&&**&&&&**&&&+ +&&&&&&&&&&&&&&+ +&&&&&&&&&&&&&&+ +&&&&&&&&&&&&&&+ +&&&&&&&&&&&&&&+ +--------------- ---------------+  +++++++++++++++++++++++++   ",
" +@@@@@@@@@@@@@@+ +@@@@@@@@@@@@@@+ +@@@@@@@@@@@@@@+ +@@@@@@@@@@@@@@+ +@@@@@@@@@@@@@@+ +@@@@@@@@@@@@@@+ +@@@@@@@@@@@@@@+ +@@@@@@@@@@@@@@+ +=============== ===============+  +++++++++++++++++++++++++    +##############+ +##############+ +##############+ +##############+ +##############+ +##############+ +##############+ +##############+ +=============== ===============+  +++++++++++++++++++++++++    +$$$$$$$$$$$$$$+ +$$$$$$$$$$$$$$+ +$$$$$$$$$$$$$$+ +$$$$$$$$$$$$$$+ +$$$$$$$$$$$$$$+ +$$$$$$$$$$$$$$+ +$$$$$$$$$$$$$$+ +$$$$$$$$$$$$$$+ +=============== ===============+  +++++++++++++++++++++++++    +%%%%%%%%%%%%%%+ +%%%%%%%%%%%%%%+ +%%%%%%%%%%%%%%+ +%%%%%%%%%%%%%%+ +%%%%%%%%%%%%%%+ +%%%%%%%%%%%%%%+ +%%%%%%%%%%%%%%+ +%%%%%%%%%%%%%%+ +=============== ===============+  +++++++++++++++++++++++++    +&&&&&&&&&&&&&&+ +&&&&&&&&&&&&&&+ +&&&&&&&&&&&&&&+ +&&&&&&&&&&&&&&+ +&&&&&&&&&&&&&&+ +&&&&&&&&&&&&&&+ +&&&&&&&&&&&&&&+ +&&&&&&&&&&&&&&+ +--------------- ---------------+  +++++++++++++++++++++++++   ",
" +@@@@@@@@@@@@@@+ +@@@@@@@@@@@@@@+ +@@@@@@@@@@@@@@+ +@@@@@@@@@@@@@@+ +@@@@@@@@@@@@@@+ +@@@@@@@@@@@@@@+ +@@@@@@@@@@@@@@+ +@@@@@@@@@@@@@@+ +=============== ===============+  +++++++++++++++++++++++++    +##############+ +##############+ +##############+ +##############+ +##############+ +##############+ +##############+ +##############+ +=============== ===============+  +++++++++++++++++++++++++    +$$$$$$$$$$$$$$+ +$$$$$$$$$$$$$$+ +$$$$$$$$$$$$$$+ +$$$$$$$$$$$$$$+ +$$$$$$$$$$$$$$+ +$$$$$$$$$$$$$$+ +$$$$$$$$$$$$$$+ +$$$$$$$$$$$$$$+ +=============== ===============+  +++++++++++++++++++++++++    +%%%%%%%%%%%%%%+ +%%%%%%%%%%%%%%+ +%%%%%%%%%%%%%%+ +%%%%%%%%%%%%%%+ +%%%%%%%%%%%%%%+ +%%%%%%%%%%%%%%+ +%%%%%%%%%%%%%%+ +%%%%%%%%%%%%%%+ +=============== ===============+  +++++++++++++++++++++++++    +&&&&&&&&&&&&&&+ +&&&&&&&&&&&&&&+ +&&&&&&&&&&&&&&+ +&&&&&&&&&&&&&&+ +&&&&&&&&&&&&&&+ +&&&&&&&&&&&&&&+ +&&&&&&&&&&&&&&+ +&&&&&&&&&&&&&&+ +--------------- ---------------+  +++++++++++++++++++++++++   ",
" +@@@@@@@@@@@@@@+ +@@@@@@@@@@@@@@+ +@@@@@@@@@@@@@@+ +@@@@@@@@@@@@@@+ +@@@@@@@@@@@@@@+ +@@@@@@@@@@@@@@+ +@@@@@@@@@@@@@@+ +@@@@@@@@@@@@@@+ ================ ================  +++++++++++++++++++++++++    +##############+ +##############+ +##############+ +##############+ +##############+ +##############+ +##############+ +##############+ ================ ================  +++++++++++++++++++++++++    +$$$$$$$$$$$$$$+ +$$$$$$$$$$$$$$+ +$$$$$$$$$$$$$$+ +$$$$$$$$$$$$$$+ +$$$$$$$$$$$$$$+ +$$$$$$$$$$$$$$+ +$$$$$$$$$$$$$$+ +$$$$$$$$$$$$$$+ ================ ================  +++++++++++++++++++++++++    +%%%%%%%%%%%%%%+ +%%%%%%%%%%%%%%+ +%%%%%%%%%%%%%%+ +%%%%%%%%%%%%%%+ +%%%%%%%%%%%%%%+ +%%%%%%%%%%%%%%+ +%%%%%%%%%%%%%%+ +%%%%%%%%%%%%%%+ ================ ================  +++++++++++++++++++++++++    +&&&&&&&&&&&&&&+ +&&&&&&&&&&&&&&+ +&&&&&&&&&&&&&&+ +&&&&&&&&&&&&&&+ +&&&&&&&&&&&&&&+ +&&&&&&&&&&&&&&+ +&&&&&&&&&&&&&&+ +&&&&&&&&&&&&&&+ ---------------- ----------------  +++++++++++++++++++++++++   ",
" +@@+@@@++@@@+@@+ +@@@@+@@@@+@@@@+ +@@+@@@++@@@+@@+ +@@@@+@@@@+@@@@+ +@@+@@@++@@@+@@+ +@@@@+@@@@+@@@@+ +@@+@@@++@@@+@@+ +@@@@+@@@@+@@@@+ ================ ================  +++++++++++++++++++++++++    +##+###++###+##+ +####+####+####+ +##+###++###+##+ +####+####+####+ +##+###++###+##+ +####+####+####+ +##+###++###+##+ +####+####+####+ ================ ================  +++++++++++++++++++++++++    +$$+$$$++$$$+$$+ +$$$$+$$$$+$$$$+ +$$+$$$++$$$+$$+ +$$$$+$$$$+$$$$+ +$$+$$$++$$$+$$+ +$$$$+$$$$+$$$$+ +$$+$$$++$$$+$$+ +$$$$+$$$$+$$$$+ ================ ================  +++++++++++++++++++++++++    +%%+%%%++%%%+%%+ +%%%%+%%%%+%%%%+ +%%+%%%++%%%+%%+ +%%%%+%%%%+%%%%+ +%%+%%%++%%%+%%+ +%%%%+%%%%+%%%%+ +%%+%%%++%%%+%%+ +%%%%+%%%%+%%%%+ ================ ================  +++++++++++++++++++++++++    +&&+&&&++&&&+&&+ +&&&&+&&&&+&&&&+ +&&+&&&++&&&+&&+ +&&&&+&&&&+&&&&+ +&&+&&&++&&&+&&+ +&&&&+&&&&+&&&&+ +&&+&&&++&&&+&&+ +&&&&+&&&&+&&&&+ ---------------- ----------------  +++++++++++++++++++++++++   ",
" +@+++@@++@@+++@+ ++@@+++@@+++@@++ +@+++@@++@@+++@+ ++@@+++@@+++@@++ +@+++@@++@@+++@+ ++@@+++@@+++@@++ +@+++@@++@@+++@+ ++@@+++@@+++@@++ ================ ================  +++++++++++++++++++++++++    +#+++##++##+++#+ ++##+++##+++##++ +#+++##++##+++#+ ++##+++##+++##++ +#+++##++##+++#+ ++##+++##+++##++ +#+++##++##+++#+ ++##+++##+++##++ ================ ================  +++++++++++++++++++++++++    +$+++$$++$$+++$+ ++$$+++$$+++$$++ +$+++$$++$$+++$+ ++$$+++$$+++$$++ +$+++$$++$$+++$+ ++$$+++$$+++$$++ +$+++$$++$$+++$+ ++$$+++$$+++$$++ ================ ================  +++++++++++++++++++++++++    +%+++%%++%%+++%+ ++%%+++%%+++%%++ +%+++%%++%%+++%+ ++%%+++%%+++%%++ +%+++%%++%%+++%+ ++%%+++%%+++%%++ +%+++%%++%%+++%+ ++%%+++%%+++%%++ ================ ================  +++++++++++++++++++++++++    +&+++&&++&&+++&+ ++&&+++&&+++&&++ +&+++&&++&&+++&+ ++&&+++&&+++&&++ +&+++&&++&&+++&+ ++&&+++&&+++&&++ +&+++&&++&&+++&+ ++&&+++&&+++&&++ ---------------- ----------------  +++++++++++++++++++++++++   ",
" ++++++++++++++++ ++++++++++++++++ ++++++++++++++++ ++++++++++++++++ ++++++++++++++++ ++++++++++++++++ ++++++++++++++++ ++++++++++++++++ ================ ================  +++++++++++++++++++++++++    ++++++++++++++++ ++++++++++++++++ ++++++++++++++++ ++++++++++++++++ ++++++++++++++++ ++++++++++++++++ ++++++++++++++++ ++++++++++++++++ ================ ================  +++++++++++++++++++++++++    ++++++++++++++++ ++++++++++++++++ ++++++++++++++++ ++++++++++++++++ ++++++++++++++++ ++++++++++++++++ ++++++++++++++++ ++++++++++++++++ ================ ================  +++++++++++++++++++++++++    ++++++++++++++++ ++++++++++++++++ ++++++++++++++++ ++++++++++++++++ ++++++++++++++++ ++++++++++++++++ ++++++++++++++++ ++++++++++++++++ ================ ================  +++++++++++++++++++++++++    ++++++++++++++++ ++++++++++++++++ ++++++++++++++++ ++++++++++++++++ ++++++++++++++++ ++++++++++++++++ ++++++++++++++++ ++++++++++++++++ ---------------- ----------------  +++++++++++++++++++++++++   ",
"                                                                                                                                                                            +++++++++++++++++++++++++                                                                                                                                                                               +++++++++++++++++++++++++                                                                                                                                                                               +++++++++++++++++++++++++                                                                                                                                                                               +++++++++++++++++++++++++                                                                                                                                                                               +++++++++++++++++++++++++   ",
" ++++++++++++++++ ++++++++++++++++ ++++++++++++++++ ++++++++++++++++ ++++++++++++++++ ++++++++++++++++ ++++++++++++++++ ++++++++++++++++ ================ ================  +++++++++++++++++++++++++    ++++++++++++++++ ++++++++++++++++ ++++++++++++++++ ++++++++++++++++ ++++++++++++++++ ++++++++++++++++ ++++++++++++++++ ++++++++++++++++ ================ ================  +++++++++++++++++++++++++    ++++++++++++++++ ++++++++++++++++ ++++++++++++++++ ++++++++++++++++ ++++++++++++++++ ++++++++++++++++ ++++++++++++++++ ++++++++++++++++ ================ ================  +++++++++++++++++++++++++    ++++++++++++++++ ++++++++++++++++ ++++++++++++++++ ++++++++++++++++ ++++++++++++++++ ++++++++++++++++ ++++++++++++++++ ++++++++++++++++ ================ ================  +++++++++++++++++++++++++    ++++++++++++++++ ++++++++++++++++ ++++++++++++++++ ++++++++++++++++ ++++++++++++++++ ++++++++++++++++ ++++++++++++++++ ++++++++++++++++ ---------------- ----------------  +++++++++++++++++++++++++   ",
" ++++++@@@@++++++ ++++++@@@@++++++ ++++++@@@@++++++ ++++++@@@@++++++ ++++++++++++++++ ++++++++++++++++ ++++++++++++++++ ++++++++++++++++ ================ ================  +++++++++++++++++++++++++    ++++++####++++++ ++++++####++++++ ++++++####++++++ ++++++####++++++ ++++++++++++++++ ++++++++++++++++ ++++++++++++++++ ++++++++++++++++ ================ ================  +++++++++++++++++++++++++    ++++++$$$$++++++ ++++++$$$$++++++ ++++++$$$$++++++ ++++++$$$$++++++ ++++++++++++++++ ++++++++++++++++ ++++++++++++++++ ++++++++++++++++ ================ ================  +++++++++++++++++++++++++    ++++++%%%%++++++ ++++++%%%%++++++ ++++++%%%%++++++ ++++++%%%%++++++ ++++++++++++++++ ++++++++++++++++ ++++++++++++++++ ++++++++++++++++ ================ ================  +++++++++++++++++++++++++    ++++++&&&&++++++ ++++++&&&&++++++ ++++++&&&&++++++ ++++++&&&&++++++ ++++++++++++++++ ++++++++++++++++ ++++++++++++++++ ++++++++++++++++ ---------------- ----------------  +++++++++++++++++++++++++   ",
" ++++++@@@@++++++ ++++@@@@@@@@++++ ++++@@@@@@@@++++ ++++@@@@@@@@++++ ++++++++++++++++ ++++++++++++++++ ++++++++++++++++ ++++++++++++++++ ================ ================  +++++++++++++++++++++++++    ++++++####++++++ ++++########++++ ++++########++++ ++++########++++ ++++++++++++++++ ++++++++++++++++ ++++++++++++++++ ++++++++++++++++ ================ ================  +++++++++++++++++++++++++    ++++++$$$$++++++ ++++$$$$$$$$++++ ++++$$$$$$$$++++ ++++$$$$$$$$++++ ++++++++++++++++ ++++++++++++++++ ++++++++++++++++ ++++++++++++++++ ================ ================  +++++++++++++++++++++++++    ++++++%%%%++++++ ++++%%%%%%%%++++ ++++%%%%%%%%++++ ++++%%%%%%%%++++ ++++++++++++++++ ++++++++++++++++ ++++++++++++++++ ++++++++++++++++ ================ ================  +++++++++++++++++++++++++    ++++++&&&&++++++ ++++&&&&&&&&++++ ++++&&&&&&&&++++ ++++&&&&&&&&++++ ++++++++++++++++ ++++++++++++++++ ++++++++++++++++ ++++++++++++++++ ---------------- ----------------  +++++++++++++++++++++++++   ",
" +++=++=@@=++=+++ +++@==@@@@==@+++ +++@@@@@@@@@@+++ +++@@@@@@@@@@+++ ++++++++++++++++ ++++++++++++++++ ++++++++++++++++ ++++++++++++++++ ================ ================  +++++++++++++++++++++++++    +++=++=##=++=+++ +++#==####==#+++ +++##########+++ +++##########+++ ++++++++++++++++ ++++++++++++++++ ++++++++++++++++ ++++++++++++++++ ================ ================  +++++++++++++++++++++++++    +++=++=$$=++=+++ +++$==$$$$==$+++ +++$$$$$$$$$$+++ +++$$$$$$$$$$+++ ++++++++++++++++ ++++++++++++++++ ++++++++++++++++ ++++++++++++++++ ================ ================  +++++++++++++++++++++++++    +++=++=%%=++=+++ +++%==%%%%==%+++ +++%%%%%%%%%%+++ +++%%%%%%%%%%+++ ++++++++++++++++ ++++++++++++++++ ++++++++++++++++ ++++++++++++++++ ================ ================  +++++++++++++++++++++++++    +++-++-&&-++-+++ +++&--&&&&--&+++ +++&&&&&&&&&&+++ +++&&&&&&&&&&+++ ++++++++++++++++ ++++++++++++++++ ++++++++++++++++ ++++++++++++++++ ---------------- ----------------  +++++++++++++++++++++++++   ",
" ++@====@@====@++ ++@====@@====@++ ++@==@@@@==@@@++ ++@==@@@@==@@@++ +++++++++==+==++ +++++++++==+==++ ++++++++++++++++ ++++++++++++++++ +=============== ===============+  +++++++++++++++++++++++++    ++#====##====#++ ++#====##====#++ ++#==####==###++ ++#==####==###++ +++++++++==+==++ +++++++++==+==++ ++++++++++++++++ ++++++++++++++++ +=============== ===============+  +++++++++++++++++++++++++    ++$====$$====$++ ++$====$$====$++ ++$==$$$$==$$$++ ++$==$$$$==$$$++ +++++++++==+==++ +++++++++==+==++ ++++++++++++++++ ++++++++++++++++ +=============== ===============+  +++++++++++++++++++++++++    ++%====%%====%++ ++%====%%====%++ ++%==%%%%==%%%++ ++%==%%%%==%%%++ +++++++++==+==++ +++++++++==+==++ ++++++++++++++++ ++++++++++++++++ +=============== ===============+  +++++++++++++++++++++++++    ++&----&&----&++ ++&----&&----&++ ++&--&&&&--&&&++ ++&--&&&&--&&&++ +++++++++--+--++ +++++++++--+--++ ++++++++++++++++ ++++++++++++++++ +--------------- ---------------+  +++++++++++++++++++++++++   ",
" ++@====@@====@++ ++@====@@====@++ ++====@@====@@++ ++====@@====@@++ ++++++++==**=**+ ++++++++==**=**+ ++++++++++++++++ ++++++++++++++++ +=============== ===============+  +++++++++++++++++++++++++    ++#====##====#++ ++#====##====#++ ++====##====##++ ++====##====##++ ++++++++==**=**+ ++++++++==**=**+ ++++++++++++++++ ++++++++++++++++ +=============== ===============+  +++++++++++++++++++++++++    ++$====$$====$++ ++$====$$====$++ ++====$$====$$++ ++====$$====$$++ ++++++++==**=**+ ++++++++==**=**+ ++++++++++++++++ ++++++++++++++++ +=============== ===============+  +++++++++++++++++++++++++    ++%====%%====%++ ++%====%%====%++ ++====%%====%%++ ++====%%====%%++ ++++++++==**=**+ ++++++++==**=**+ ++++++++++++++++ ++++++++++++++++ +=============== ===============+  +++++++++++++++++++++++++    ++&----&&----&++ ++&----&&----&++ ++----&&----&&++ ++----&&----&&++ ++++++++--**-**+ ++++++++--**-**+ ++++++++++++++++ ++++++++++++++++ +--------------- ---------------+  +++++++++++++++++++++++++   ",
" ++@@==@@@@==@@++ ++@==++@@==++@++ ++**==@@**==@@++ ++**==@@**==@@++ ++++++++==**=**+ ++++++++==**=**+ ++++++++++++++++ ++++++++++++++++ +=============== ===============+  +++++++++++++++++++++++++    ++##==####==##++ ++#==++##==++#++ ++**==##**==##++ ++**==##**==##++ ++++++++==**=**+ ++++++++==**=**+ ++++++++++++++++ ++++++++++++++++ +=============== ===============+  +++++++++++++++++++++++++    ++$$==$$$$==$$++ ++$==++$$==++$++ ++**==$$**==$$++ ++**==$$**==$$++ ++++++++==**=**+ ++++++++==**=**+ ++++++++++++++++ ++++++++++++++++ +=============== ===============+  +++++++++++++++++++++++++    ++%%==%%%%==%%++ ++%==++%%==++%++ ++**==%%**==%%++ ++**==%%**==%%++ ++++++++==**=**+ ++++++++==**=**+ ++++++++++++++++ ++++++++++++++++ +=============== ===============+  +++++++++++++++++++++++++    ++&&--&&&&--&&++ ++&--++&&--++&++ ++**--&&**--&&++ ++**--&&**--&&++ ++++++++--**-**+ ++++++++--**-**+ ++++++++++++++++ ++++++++++++++++ +--------------- ---------------+  +++++++++++++++++++++++++   ",
" +@@@@@@@@@@@@@@+ +@@@=+@@@@=+@@@+ +@**==@@**==@@@+ +@**==@@**==@@@+ +++++++@@==@==++ +++++++@@==@==++ ++++++++++++++++ ++++++++++++++++ ++============== ==============++  +++++++++++++++++++++++++    +##############+ +###=+####=+###+ +#**==##**==###+ +#**==##**==###+ +++++++##==#==++ +++++++##==#==++ ++++++++++++++++ ++++++++++++++++ ++============== ==============++  +++++++++++++++++++++++++    +$$$$$$$$$$$$$$+ +$$$=+$$$$=+$$$+ +$**==$$**==$$$+ +$**==$$**==$$$+ +++++++$$==$==++ +++++++$$==$==++ ++++++++++++++++ ++++++++++++++++ ++============== ==============++  +++++++++++++++++++++++++    +%%%%%%%%%%%%%%+ +%%%=+%%%%=+%%%+ +%**==%%**==%%%+ +%**==%%**==%%%+ +++++++%%==%==++ +++++++%%==%==++ ++++++++++++++++ ++++++++++++++++ ++============== ==============++  +++++++++++++++++++++++++    +&&&&&&&&&&&&&&+ +&&&-+&&&&-+&&&+ +&**--&&**--&&&+ +&**--&&**--&&&+ +++++++&&--&--++ +++++++&&--&--++ ++++++++++++++++ ++++++++++++++++ ++-------------- --------------++  +++++++++++++++++++++++++   ",
" +@@@@@@@@@@@@*++ +@@@@@@@@@@@@*++ +@@==@@@@==@=@=+ +@@==@@@@==@=@=+ +++++@@@@@@@@+++ +++++++@@@@@@+++ ++++++++++++++++ ++++++++++++++++ ++============== ==============++  =========================    +############*++ +############*++ +##==####==#=#=+ +##==####==#=#=+ +++++########+++ +++++++######+++ ++++++++++++++++ ++++++++++++++++ ++============== ==============++  =========================    +$$$$$$$$$$$$*++ +$$$$$$$$$$$$*++ +$$==$$$$==$=$=+ +$$==$$$$==$=$=+ +++++$$$$$$$$+++ +++++++$$$$$$+++ ++++++++++++++++ ++++++++++++++++ ++============== ==============++  =========================    +%%%%%%%%%%%%*++ +%%%%%%%%%%%%*++ +%%==%%%%==%=%=+ +%%==%%%%==%=%=+ +++++%%%%%%%%+++ +++++++%%%%%%+++ ++++++++++++++++ ++++++++++++++++ ++============== ==============++  =========================    +&&&&&&&&&&&&*++ +&&&&&&&&&&&&*++ +&&--&&&&--&-&-+ +&&--&&&&--&-&-+ +++++&&&&&&&&+++ +++++++&&&&&&+++ ++++++++++++++++ ++++++++++++++++ ++-------------- --------------++  -------------------------   ",
" +@@@@@@@@@@@**++ +@@@@@@@@@@@**++ +@@@@@@@@@@=@=@+ +@@@@@@@@@@=@=@+ ++++@@@@@@@@++++ ++++++@@@@@@@+++ ++++++++++++++++ ++++++++++++++++ +++============= =============+++  =========================    +###########**++ +###########**++ +##########=#=#+ +##########=#=#+ ++++########++++ ++++++#######+++ ++++++++++++++++ ++++++++++++++++ +++============= =============+++  =========================    +$$$$$$$$$$$**++ +$$$$$$$$$$$**++ +$$$$$$$$$$=$=$+ +$$$$$$$$$$=$=$+ ++++$$$$$$$$++++ ++++++$$$$$$$+++ ++++++++++++++++ ++++++++++++++++ +++============= =============+++  =========================    +%%%%%%%%%%%**++ +%%%%%%%%%%%**++ +%%%%%%%%%%=%=%+ +%%%%%%%%%%=%=%+ ++++%%%%%%%%++++ ++++++%%%%%%%+++ ++++++++++++++++ ++++++++++++++++ +++============= =============+++  =========================    +&&&&&&&&&&&**++ +&&&&&&&&&&&**++ +&&&&&&&&&&-&-&+ +&&&&&&&&&&-&-&+ ++++&&&&&&&&++++ ++++++&&&&&&&+++ ++++++++++++++++ ++++++++++++++++ +++------------- -------------+++  -------------------------   ",
" +@@@@@@@@@@***++ +@@@@@@@@@@***++ +@@@@@@@@@=@@@@+ +@@@@@@@@@=@@@@+ +++@@@@@@@@@++++ +++++@@@@@@@@+++ ++++++++++++++++ ++++++++++++++++ ++++============ ============++++  =========================    +##########***++ +##########***++ +#########=####+ +#########=####+ +++#########++++ +++++########+++ ++++++++++++++++ ++++++++++++++++ ++++============ ============++++  =========================    +$$$$$$$$$$***++ +$$$$$$$$$$***++ +$$$$$$$$$=$$$$+ +$$$$$$$$$=$$$$+ +++$$$$$$$$$++++ +++++$$$$$$$$+++ ++++++++++++++++ ++++++++++++++++ ++++============ ============++++  =========================    +%%%%%%%%%%***++ +%%%%%%%%%%***++ +%%%%%%%%%=%%%%+ +%%%%%%%%%=%%%%+ +++%%%%%%%%%++++ +++++%%%%%%%%+++ ++++++++++++++++ ++++++++++++++++ ++++============ ============++++  =========================    +&&&&&&&&&&***++ +&&&&&&&&&&***++ +&&&&&&&&&-&&&&+ +&&&&&&&&&-&&&&+ +++&&&&&&&&&++++ +++++&&&&&&&&+++ ++++++++++++++++ ++++++++++++++++ ++++------------ ------------++++  -------------------------   ",
" +@@@@@@@@@@@**++ +@@@@@@@@@@@**++ +@@@@@@@@@@=@@@+ +@@@@@@@@@@=@@@+ +++@@@@@@@@+++++ +++++@@@@@@@@+++ +++++++++@@@++++ ++++++++++++++++ +++++=========== ===========+++++  =========================    +###########**++ +###########**++ +##########=###+ +##########=###+ +++########+++++ +++++########+++ +++++++++###++++ ++++++++++++++++ +++++=========== ===========+++++  =========================    +$$$$$$$$$$$**++ +$$$$$$$$$$$**++ +$$$$$$$$$$=$$$+ +$$$$$$$$$$=$$$+ +++$$$$$$$$+++++ +++++$$$$$$$$+++ +++++++++$$$++++ ++++++++++++++++ +++++=========== ===========+++++  =========================    +%%%%%%%%%%%**++ +%%%%%%%%%%%**++ +%%%%%%%%%%=%%%+ +%%%%%%%%%%=%%%+ +++%%%%%%%%+++++ +++++%%%%%%%%+++ +++++++++%%%++++ ++++++++++++++++ +++++=========== ===========+++++  =========================    +&&&&&&&&&&&**++ +&&&&&&&&&&&**++ +&&&&&&&&&&-&&&+ +&&&&&&&&&&-&&&+ +++&&&&&&&&+++++ +++++&&&&&&&&+++ +++++++++&&&++++ ++++++++++++++++ +++++----------- -----------+++++  -------------------------   ",
" +@@@@@@@@@@**+++ +@@@@@@@@@@**+++ +@@@@@@@@@=@@@@+ +@@@@@@@@@=@@@@+ ++@@@@@@@@@@@+++ +++@@@@@@@@@@@@+ ++@@@++@@@@@@+++ ++@@++++++@@@@++ ++++++========== ==========++++++  =========================    +##########**+++ +##########**+++ +#########=####+ +#########=####+ ++###########+++ +++############+ ++###++######+++ ++##++++++####++ ++++++========== ==========++++++  =========================    +$$$$$$$$$$**+++ +$$$$$$$$$$**+++ +$$$$$$$$$=$$$$+ +$$$$$$$$$=$$$$+ ++$$$$$$$$$$$+++ +++$$$$$$$$$$$$+ ++$$$++$$$$$$+++ ++$$++++++$$$$++ ++++++========== ==========++++++  =========================    +%%%%%%%%%%**+++ +%%%%%%%%%%**+++ +%%%%%%%%%=%%%%+ +%%%%%%%%%=%%%%+ ++%%%%%%%%%%%+++ +++%%%%%%%%%%%%+ ++%%%++%%%%%%+++ ++%%++++++%%%%++ ++++++========== ==========++++++  =========================    +&&&&&&&&&&**+++ +&&&&&&&&&&**+++ +&&&&&&&&&-&&&&+ +&&&&&&&&&-&&&&+ ++&&&&&&&&&&&+++ +++&&&&&&&&&&&&+ ++&&&++&&&&&&+++ ++&&++++++&&&&++ ++++++---------- ----------++++++  -------------------------   ",
" +@@+@@@++@*****+ +@@+@@@++@*****+ +@@+@@@++@@=+@@+ +@@@@+@@@@+=@@@+ ++@@@@@@@@@@@+++ +++@@@@@@@@@@@@+ +@@@@@@@@@@@@@++ +@@@@@@@@@@@@@@+ +++++++========= =========+++++++  =========================    +##+###++#*****+ +##+###++#*****+ +##+###++##=+##+ +####+####+=###+ ++###########+++ +++############+ +#############++ +##############+ +++++++========= =========+++++++  =========================    +$$+$$$++$*****+ +$$+$$$++$*****+ +$$+$$$++$$=+$$+ +$$$$+$$$$+=$$$+ ++$$$$$$$$$$$+++ +++$$$$$$$$$$$$+ +$$$$$$$$$$$$$++ +$$$$$$$$$$$$$$+ +++++++========= =========+++++++  =========================    +%%+%%%++%*****+ +%%+%%%++%*****+ +%%+%%%++%%=+%%+ +%%%%+%%%%+=%%%+ ++%%%%%%%%%%%+++ +++%%%%%%%%%%%%+ +%%%%%%%%%%%%%++ +%%%%%%%%%%%%%%+ +++++++========= =========+++++++  =========================    +&&+&&&++&*****+ +&&+&&&++&*****+ +&&+&&&++&&-+&&+ +&&&&+&&&&+-&&&+ ++&&&&&&&&&&&+++ +++&&&&&&&&&&&&+ +&&&&&&&&&&&&&++ +&&&&&&&&&&&&&&+ +++++++--------- ---------+++++++  -------------------------   ",
" +@+++@@+++*****+ +@+++@@+++*****+ +@+++@@++@=+++@+ ++@@+++@@+++@@++ ++@@@+++++@@@+++ +++@@@++++++@@@+ @@@@@@@@@@@@@+++ @@@@@@@@@@@@@@++ +++++++++======= =======+++++++++  =========================    +#+++##+++*****+ +#+++##+++*****+ +#+++##++#=+++#+ ++##+++##+++##++ ++###+++++###+++ +++###++++++###+ #############+++ ##############++ +++++++++======= =======+++++++++  =========================    +$+++$$+++*****+ +$+++$$+++*****+ +$+++$$++$=+++$+ ++$$+++$$+++$$++ ++$$$+++++$$$+++ +++$$$++++++$$$+ $$$$$$$$$$$$$+++ $$$$$$$$$$$$$$++ +++++++++======= =======+++++++++  =========================    +%+++%%+++*****+ +%+++%%+++*****+ +%+++%%++%=+++%+ ++%%+++%%+++%%++ ++%%%+++++%%%+++ +++%%%++++++%%%+ %%%%%%%%%%%%%+++ %%%%%%%%%%%%%%++ +++++++++======= =======+++++++++  =========================    +&+++&&+++*****+ +&+++&&+++*****+ +&+++&&++&-+++&+ ++&&+++&&+++&&++ ++&&&+++++&&&+++ +++&&&++++++&&&+ &&&&&&&&&&&&&+++ &&&&&&&&&&&&&&++ +++++++++------- -------+++++++++  -------------------------   ",
" ++++++++++++++++ ++++++++++++++++ ++++++++++++++++ ++++++++++++++++ ++++++++++++++++ ++++++++++++++++ ++++++++++++++++ ++++++++++++++++ ++++++++++++==== ====++++++++++++  =========================    ++++++++++++++++ ++++++++++++++++ ++++++++++++++++ ++++++++++++++++ ++++++++++++++++ ++++++++++++++++ ++++++++++++++++ ++++++++++++++++ ++++++++++++==== ====++++++++++++  =========================    ++++++++++++++++ ++++++++++++++++ ++++++++++++++++ ++++++++++++++++ ++++++++++++++++ ++++++++++++++++ ++++++++++++++++ ++++++++++++++++ ++++++++++++==== ====++++++++++++  =========================    ++++++++++++++++ ++++++++++++++++ ++++++++++++++++ ++++++++++++++++ ++++++++++++++++ ++++++++++++++++ ++++++++++++++++ ++++++++++++++++ ++++++++++++==== ====++++++++++++  =========================    ++++++++++++++++ ++++++++++++++++ ++++++++++++++++ ++++++++++++++++ ++++++++++++++++ ++++++++++++++++ ++++++++++++++++ ++++++++++++++++ ++++++++++++---- ----++++++++++++  -------------------------   ",
"                                                                                                                                                                            =========================                                                                                                                                                                               =========================                                                                                                                                                                               =========================                                                                                                                                                                               =========================                                                                                                                                                                               -------------------------   ",
" ++++++++++++++++ ++++++++++++++++ ++++++++++++++++ ++++++++++++++++ ++++++++++++++++ ++++++++++++++++ ++++++++++++++++ ++++++++++++++++ ++++++++++++==== ====++++++++++++  =========================    ++++++++++++++++ ++++++++++++++++ ++++++++++++++++ ++++++++++++++++ ++++++++++++++++ ++++++++++++++++ ++++++++++++++++ ++++++++++++++++ ++++++++++++==== ====++++++++++++  =========================    ++++++++++++++++ ++++++++++++++++ ++++++++++++++++ ++++++++++++++++ ++++++++++++++++ ++++++++++++++++ ++++++++++++++++ ++++++++++++++++ ++++++++++++==== ====++++++++++++  =========================    ++++++++++++++++ ++++++++++++++++ ++++++++++++++++ ++++++++++++++++ ++++++++++++++++ ++++++++++++++++ ++++++++++++++++ ++++++++++++++++ ++++++++++++==== ====++++++++++++  =========================    ++++++++++++++++ ++++++++++++++++ ++++++++++++++++ ++++++++++++++++ ++++++++++++++++ ++++++++++++++++ ++++++++++++++++ ++++++++++++++++ ++++++++++++---- ----++++++++++++  -------------------------   ",
" ++++++++++++++++ ++++++++++++++++ ++++++++++++++++ ++++++++++++++++ +++++=++++++++++ ++++++++++++++++ ++++++++++++++++ ++++++++++++++++ +++++++++======= =======+++++++++  =========================    ++++++++++++++++ ++++++++++++++++ ++++++++++++++++ ++++++++++++++++ +++++=++++++++++ ++++++++++++++++ ++++++++++++++++ ++++++++++++++++ +++++++++======= =======+++++++++  =========================    ++++++++++++++++ ++++++++++++++++ ++++++++++++++++ ++++++++++++++++ +++++=++++++++++ ++++++++++++++++ ++++++++++++++++ ++++++++++++++++ +++++++++======= =======+++++++++  =========================    ++++++++++++++++ ++++++++++++++++ ++++++++++++++++ ++++++++++++++++ +++++=++++++++++ ++++++++++++++++ ++++++++++++++++ ++++++++++++++++ +++++++++======= =======+++++++++  =========================    ++++++++++++++++ ++++++++++++++++ ++++++++++++++++ ++++++++++++++++ +++++-++++++++++ ++++++++++++++++ ++++++++++++++++ ++++++++++++++++ +++++++++------- -------+++++++++  -------------------------   ",
" ++++++++++++**++ +++++++@++++++++ +++++++++**+++++ ++++++++*+++++++ ++++++=====+++++ ++++++++++++++++ +++++++==+++++++ ++++++***+++++++ +++++++========= =========+++++++  =========================    ++++++++++++**++ +++++++#++++++++ +++++++++**+++++ ++++++++*+++++++ ++++++=====+++++ ++++++++++++++++ +++++++==+++++++ ++++++***+++++++ +++++++========= =========+++++++  =========================    ++++++++++++**++ +++++++$++++++++ +++++++++**+++++ ++++++++*+++++++ ++++++=====+++++ ++++++++++++++++ +++++++==+++++++ ++++++***+++++++ +++++++========= =========+++++++  =========================    ++++++++++++**++ +++++++%++++++++ +++++++++**+++++ ++++++++*+++++++ ++++++=====+++++ ++++++++++++++++ +++++++==+++++++ ++++++***+++++++ +++++++========= =========+++++++  =========================    ++++++++++++**++ +++++++&++++++++ +++++++++**+++++ ++++++++*+++++++ ++++++-----+++++ ++++++++++++++++ +++++++--+++++++ ++++++***+++++++ +++++++--------- ---------+++++++  -------------------------   ",
" ++++++++++****++ ++++***@***+++++ +++++++@*****+++ +++===+*+===++++ ++++++++=+++++++ +++++++*++++++++ +++++==++==+++++ ++++**+++**+++++ ++++++========== ==========++++++  =========================    ++++++++++****++ ++++***#***+++++ +++++++#*****+++ +++===+*+===++++ ++++++++=+++++++ +++++++*++++++++ +++++==++==+++++ ++++**+++**+++++ ++++++========== ==========++++++  =========================    ++++++++++****++ ++++***$***+++++ +++++++$*****+++ +++===+*+===++++ ++++++++=+++++++ +++++++*++++++++ +++++==++==+++++ ++++**+++**+++++ ++++++========== ==========++++++  =========================    ++++++++++****++ ++++***%***+++++ +++++++%*****+++ +++===+*+===++++ ++++++++=+++++++ +++++++*++++++++ +++++==++==+++++ ++++**+++**+++++ ++++++========== ==========++++++  =========================    ++++++++++****++ ++++***&***+++++ +++++++&*****+++ +++---+*+---++++ ++++++++-+++++++ +++++++*++++++++ +++++--++--+++++ ++++**+++**+++++ ++++++---------- ----------++++++  -------------------------   ",
" ++++++++**+*++++ +++==*****==++++ +++++++@+***++++ ++=====*=====+++ +++++++*@*++++++ ++=+++***+++=+++ ++++========++++ ++++*******+++++ +++++=========== ===========+++++  =========================    ++++++++**+*++++ +++==*****==++++ +++++++#+***++++ ++=====*=====+++ +++++++*#*++++++ ++=+++***+++=+++ ++++========++++ ++++*******+++++ +++++=========== ===========+++++  =========================    ++++++++**+*++++ +++==*****==++++ +++++++$+***++++ ++=====*=====+++ +++++++*$*++++++ ++=+++***+++=+++ ++++========++++ ++++*******+++++ +++++=========== ===========+++++  =========================    ++++++++**+*++++ +++==*****==++++ +++++++%+***++++ ++=====*=====+++ +++++++*%*++++++ ++=+++***+++=+++ ++++========++++ ++++*******+++++ +++++=========== ===========+++++  =========================    ++++++++**+*++++ +++--*****--++++ +++++++&+***++++ ++-----*-----+++ +++++++*&*++++++ ++-+++***+++-+++ ++++--------++++ ++++*******+++++ +++++----------- -----------+++++  -------------------------   ",
" +++++++*+++*++++ ++=====*===@=+++ ++++==@@@===++++ ++============++ +++++***=***++++ ++=++*****++=+++ ++++==+=====++++ ++++*******+++++ ++++============ ============++++  =========================    +++++++*+++*++++ ++=====*===#=+++ ++++==###===++++ ++============++ +++++***=***++++ ++=++*****++=+++ ++++==+=====++++ ++++*******+++++ ++++============ ============++++  =========================    +++++++*+++*++++ ++=====*===$=+++ ++++==$$$===++++ ++============++ +++++***=***++++ ++=++*****++=+++ ++++==+=====++++ ++++*******+++++ ++++============ ============++++  =========================    +++++++*+++*++++ ++=====*===%=+++ ++++==%%%===++++ ++============++ +++++***=***++++ ++=++*****++=+++ ++++==+=====++++ ++++*******+++++ ++++============ ============++++  =========================    +++++++*+++*++++ ++-----*---&-+++ ++++--&&&---++++ ++------------++ +++++***-***++++ ++-++*****++-+++ ++++--+-----++++ ++++*******+++++ ++++------------ ------------++++  -------------------------   ",
" +++===*+++*+++++ ++=@=====@===+++ +++====@=====+++ ++============++ ++++*=@=***=*+++ ++=@**@*@**@=+++ ++++=+======++++ ++++*******+++++ +++============= =============+++  =========================    +++===*+++*+++++ ++=#=====#===+++ +++====#=====+++ ++============++ ++++*=#=***=*+++ ++=#**#*#**#=+++ ++++=+======++++ ++++*******+++++ +++============= =============+++  =========================    +++===*+++*+++++ ++=$=====$===+++ +++====$=====+++ ++============++ ++++*=$=***=*+++ ++=$**$*$**$=+++ ++++=+======++++ ++++*******+++++ +++============= =============+++  =========================    +++===*+++*+++++ ++=%=====%===+++ +++====%=====+++ ++============++ ++++*=%=***=*+++ ++=%**%*%**%=+++ ++++=+======++++ ++++*******+++++ +++============= =============+++  =========================    +++---*+++*+++++ ++-&-----&---+++ +++----&-----+++ ++------------++ ++++*-&-***-*+++ ++-&**&*&**&-+++ ++++-+------++++ ++++*******+++++ +++------------- -------------+++  -------------------------   ",
" ++===*==+*++++++ ++===@=@=====+++ ++============++ ++============++ ++++**=**@=**+++ ++=@@@@*@@@@=+++ +++==+=======+++ ++++++@+@+++++++ ++============== ==============++  =========================    ++===*==+*++++++ ++===#=#=====+++ ++============++ ++============++ ++++**=**#=**+++ ++=####*####=+++ +++==+=======+++ ++++++#+#+++++++ ++============== ==============++  =========================    ++===*==+*++++++ ++===$=$=====+++ ++============++ ++============++ ++++**=**$=**+++ ++=$$$$*$$$$=+++ +++==+=======+++ ++++++$+$+++++++ ++============== ==============++  =========================    ++===*==+*++++++ ++===%=%=====+++ ++============++ ++============++ ++++**=**%=**+++ ++=%%%%*%%%%=+++ +++==+=======+++ ++++++%+%+++++++ ++============== ==============++  =========================    ++---*--+*++++++ ++---&-&-----+++ ++------------++ ++------------++ ++++**-**&-**+++ ++-&&&&*&&&&-+++ +++--+-------+++ ++++++&+&+++++++ ++-------------- --------------++  -------------------------   ",
" ++=====+=*==++++ ++========@==+++ ++============++ ++=========@==++ +++*@=***=*=**++ ++==@@@@@@@==+++ +++==+=======+++ ++++++@+@@++++++ ++============== ==============++  =========================    ++=====+=*==++++ ++========#==+++ ++============++ ++=========#==++ +++*#=***=*=**++ ++==#######==+++ +++==+=======+++ ++++++#+##++++++ ++============== ==============++  =========================    ++=====+=*==++++ ++========$==+++ ++============++ ++=========$==++ +++*$=***=*=**++ ++==$$$$$$$==+++ +++==+=======+++ ++++++$+$$++++++ ++============== ==============++  =========================    ++=====+=*==++++ ++========%==+++ ++============++ ++=========%==++ +++*%=***=*=**++ ++==%%%%%%%==+++ +++==+=======+++ ++++++%+%%++++++ ++============== ==============++  =========================    ++-----+-*--++++ ++--------&--+++ ++------------++ ++---------&--++ +++*&-***-*-**++ ++--&&&&&&&--+++ +++--+-------+++ ++++++&+&&++++++ ++-------------- --------------++  -------------------------   ",
" ++=@==+==*===+++ +++=@==@====++++ ++============++ ++=========@==++ +++*=**@=**@=*++ +++==@+@+@==++++ +++==========+++ ++++++@+@+++++++ +=============== ============++++  =========================    ++=#==+==*===+++ +++=#==#====++++ ++============++ ++=========#==++ +++*=**#=**#=*++ +++==#+#+#==++++ +++==========+++ ++++++#+#+++++++ +=============== ============++++  =========================    ++=$==+==*===+++ +++=$==$====++++ ++============++ ++=========$==++ +++*=**$=**$=*++ +++==$+$+$==++++ +++==========+++ ++++++$+$+++++++ +=============== ============++++  =========================    ++=%==+==*===+++ +++=%==%====++++ ++============++ ++=========%==++ +++*=**%=**%=*++ +++==%+%+%==++++ +++==========+++ ++++++%+%+++++++ +=============== ============++++  =========================    ++-&--+--*---+++ +++-&--&----++++ ++------------++ ++---------&--++ +++*-**&-**&-*++ +++--&+&+&--++++ +++----------+++ ++++++&+&+++++++ +--------------- ------------++++  -------------------------   ",
" ++==@=+======+++ +++=========++++ ++============++ +++=======@==+++ +++*@=***=****++ ++++==+@+==+++++ ++==+=========++ ++++++@+++++++++ +=============== ==========++++++  =========================    ++==#=+======+++ +++=========++++ ++============++ +++=======#==+++ +++*#=***=****++ ++++==+#+==+++++ ++==+=========++ ++++++#+++++++++ +=============== ==========++++++  =========================    ++==$=+======+++ +++=========++++ ++============++ +++=======$==+++ +++*$=***=****++ ++++==+$+==+++++ ++==+=========++ ++++++$+++++++++ +=============== ==========++++++  =========================    ++==%=+======+++ +++=========++++ ++============++ +++=======%==+++ +++*%=***=****++ ++++==+%+==+++++ ++==+=========++ ++++++%+++++++++ +=============== ==========++++++  =========================    ++--&-+------+++ +++---------++++ ++------------++ +++-------&--+++ +++*&-***-****++ ++++--+&+--+++++ ++--+---------++ ++++++&+++++++++ +--------------- ----------++++++  -------------------------   ",
" +++===+=@====+++ ++++==@==@++++++ +++==========+++ +++==========+++ ++++**=@=@=**+++ +++++=+@+=++++++ ++==+=========++ ++++++@+@+++++++ +=============== ========++++++++  =========================    +++===+=#====+++ ++++==#==#++++++ +++==========+++ +++==========+++ ++++**=#=#=**+++ +++++=+#+=++++++ ++==+=========++ ++++++#+#+++++++ +=============== ========++++++++  =========================    +++===+=$====+++ ++++==$==$++++++ +++==========+++ +++==========+++ ++++**=$=$=**+++ +++++=+$+=++++++ ++==+=========++ ++++++$+$+++++++ +=============== ========++++++++  =========================    +++===+=%====+++ ++++==%==%++++++ +++==========+++ +++==========+++ ++++**=%=%=**+++ +++++=+%+=++++++ ++==+=========++ ++++++%+%+++++++ +=============== ========++++++++  =========================    +++---+-&----+++ ++++--&--&++++++ +++----------+++ +++----------+++ ++++**-&-&-**+++ +++++-+&+-++++++ ++--+---------++ ++++++&+&+++++++ +--------------- --------++++++++  -------------------------   ",
" +++++++==@===+++ +++++=====++++++ +++==========+++ ++++========++++ ++++***=***=*+++ +++++++@++++++++ ++============++ ++++++@+@@++++++ ================ =====+++++++++++  =========================    +++++++==#===+++ +++++=====++++++ +++==========+++ ++++========++++ ++++***=***=*+++ +++++++#++++++++ ++============++ ++++++#+##++++++ ================ =====+++++++++++  =========================    +++++++==$===+++ +++++=====++++++ +++==========+++ ++++========++++ ++++***=***=*+++ +++++++$++++++++ ++============++ ++++++$+$$++++++ ================ =====+++++++++++  =========================    +++++++==%===+++ +++++=====++++++ +++==========+++ ++++========++++ ++++***=***=*+++ +++++++%++++++++ ++============++ ++++++%+%%++++++ ================ =====+++++++++++  =========================    +++++++--&---+++ +++++-----++++++ +++----------+++ ++++--------++++ ++++***-***-*+++ +++++++&++++++++ ++------------++ ++++++&+&&++++++ ---------------- -----+++++++++++  -------------------------   ",
" ++++++++====++++ +++++++=++++++++ +++++======+++++ +++++==+===+++++ +++++*=***=*++++ +++++++@++++++++ ++=*****@@***=++ ++++++@+@+++++++ ================ ==++++++++++++++  =========================    ++++++++====++++ +++++++=++++++++ +++++======+++++ +++++==+===+++++ +++++*=***=*++++ +++++++#++++++++ ++=*****##***=++ ++++++#+#+++++++ ================ ==++++++++++++++  =========================    ++++++++====++++ +++++++=++++++++ +++++======+++++ +++++==+===+++++ +++++*=***=*++++ +++++++$++++++++ ++=*****$$***=++ ++++++$+$+++++++ ================ ==++++++++++++++  =========================    ++++++++====++++ +++++++=++++++++ +++++======+++++ +++++==+===+++++ +++++*=***=*++++ +++++++%++++++++ ++=*****%%***=++ ++++++%+%+++++++ ================ ==++++++++++++++  =========================    ++++++++----++++ +++++++-++++++++ +++++------+++++ +++++--+---+++++ +++++*-***-*++++ +++++++&++++++++ ++-*****&&***-++ ++++++&+&+++++++ ---------------- --++++++++++++++  -------------------------   ",
" ++++++++++++++++ ++++++++++++++++ ++++++++++++++++ ++++++++++++++++ +++++++**=++++++ ++++++++++++++++ +++*****@@***+++ +++++++@++++++++ ================ ++++++++++++++++  =========================    ++++++++++++++++ ++++++++++++++++ ++++++++++++++++ ++++++++++++++++ +++++++**=++++++ ++++++++++++++++ +++*****##***+++ +++++++#++++++++ ================ ++++++++++++++++  =========================    ++++++++++++++++ ++++++++++++++++ ++++++++++++++++ ++++++++++++++++ +++++++**=++++++ ++++++++++++++++ +++*****$$***+++ +++++++$++++++++ ================ ++++++++++++++++  =========================    ++++++++++++++++ ++++++++++++++++ ++++++++++++++++ ++++++++++++++++ +++++++**=++++++ ++++++++++++++++ +++*****%%***+++ +++++++%++++++++ ================ ++++++++++++++++  =========================    ++++++++++++++++ ++++++++++++++++ ++++++++++++++++ ++++++++++++++++ +++++++**-++++++ ++++++++++++++++ +++*****&&***+++ +++++++&++++++++ ---------------- ++++++++++++++++  -------------------------   ",
" ++++++++++++++++ ++++++++++++++++ ++++++++++++++++ ++++++++++++++++ ++++++++++++++++ ++++++++++++++++ ++++++++++++++++ ++++++++++++++++ ==============++ ++++++++++++++++  =========================    ++++++++++++++++ ++++++++++++++++ ++++++++++++++++ ++++++++++++++++ ++++++++++++++++ ++++++++++++++++ ++++++++++++++++ ++++++++++++++++ ==============++ ++++++++++++++++  =========================    ++++++++++++++++ ++++++++++++++++ ++++++++++++++++ ++++++++++++++++ ++++++++++++++++ ++++++++++++++++ ++++++++++++++++ ++++++++++++++++ ==============++ ++++++++++++++++  =========================    ++++++++++++++++ ++++++++++++++++ ++++++++++++++++ ++++++++++++++++ ++++++++++++++++ ++++++++++++++++ ++++++++++++++++ ++++++++++++++++ ==============++ ++++++++++++++++  =========================    ++++++++++++++++ ++++++++++++++++ ++++++++++++++++ ++++++++++++++++ ++++++++++++++++ ++++++++++++++++ ++++++++++++++++ ++++++++++++++++ --------------++ ++++++++++++++++  -------------------------   ",
"                                                                                                                                                                            *************************                                                                                                                                                                               *************************                                                                                                                                                                               *************************                                                                                                                                                                               *************************                                                                                                                                                                               *************************   ",
" ++++++++++++++++ ++++++++++++++++ ++++++++++++++++ ++++++++++++++++ ++++++++++++++++ ++++++++++++++++ ++++++++++++++++ ++++++++++++++++ ==============++ ++++++++++++++++  *************************    ++++++++++++++++ ++++++++++++++++ ++++++++++++++++ ++++++++++++++++ ++++++++++++++++ ++++++++++++++++ ++++++++++++++++ ++++++++++++++++ ==============++ ++++++++++++++++  *************************    ++++++++++++++++ ++++++++++++++++ ++++++++++++++++ ++++++++++++++++ ++++++++++++++++ ++++++++++++++++ ++++++++++++++++ ++++++++++++++++ ==============++ ++++++++++++++++  *************************    ++++++++++++++++ ++++++++++++++++ ++++++++++++++++ ++++++++++++++++ ++++++++++++++++ ++++++++++++++++ ++++++++++++++++ ++++++++++++++++ ==============++ ++++++++++++++++  *************************    ++++++++++++++++ ++++++++++++++++ ++++++++++++++++ ++++++++++++++++ ++++++++++++++++ ++++++++++++++++ ++++++++++++++++ ++++++++++++++++ --------------++ ++++++++++++++++  *************************   ",
" ++++++++++++++++ ++++++++++++++++ ++++++++++++++++ ++++++++++++++++ ++++++++++++++++ ++++++++++++++++ +++++@@@@@++++++ +++++@@@@@++++++ ================ ++++++++++++++++  *************************    ++++++++++++++++ ++++++++++++++++ ++++++++++++++++ ++++++++++++++++ ++++++++++++++++ ++++++++++++++++ +++++#####++++++ +++++#####++++++ ================ ++++++++++++++++  *************************    ++++++++++++++++ ++++++++++++++++ ++++++++++++++++ ++++++++++++++++ ++++++++++++++++ ++++++++++++++++ +++++$$$$$++++++ +++++$$$$$++++++ ================ ++++++++++++++++  *************************    ++++++++++++++++ ++++++++++++++++ ++++++++++++++++ ++++++++++++++++ ++++++++++++++++ ++++++++++++++++ +++++%%%%%++++++ +++++%%%%%++++++ ================ ++++++++++++++++  *************************    ++++++++++++++++ ++++++++++++++++ ++++++++++++++++ ++++++++++++++++ ++++++++++++++++ ++++++++++++++++ +++++&&&&&++++++ +++++&&&&&++++++ ---------------- ++++++++++++++++  *************************   ",
" ++++++++++++++++ ++++++++++++++++ ++++++++++++++++ ++++++++++++++++ ++++++++++++++++ ++++++++++++++++ +++@@@@@@@++++++ +++@@@@@@@@@++++ ================ ==++++++++++++++  *************************    ++++++++++++++++ ++++++++++++++++ ++++++++++++++++ ++++++++++++++++ ++++++++++++++++ ++++++++++++++++ +++#######++++++ +++#########++++ ================ ==++++++++++++++  *************************    ++++++++++++++++ ++++++++++++++++ ++++++++++++++++ ++++++++++++++++ ++++++++++++++++ ++++++++++++++++ +++$$$$$$$++++++ +++$$$$$$$$$++++ ================ ==++++++++++++++  *************************    ++++++++++++++++ ++++++++++++++++ ++++++++++++++++ ++++++++++++++++ ++++++++++++++++ ++++++++++++++++ +++%%%%%%%++++++ +++%%%%%%%%%++++ ================ ==++++++++++++++  *************************    ++++++++++++++++ ++++++++++++++++ ++++++++++++++++ ++++++++++++++++ ++++++++++++++++ ++++++++++++++++ +++&&&&&&&++++++ +++&&&&&&&&&++++ ---------------- --++++++++++++++  *************************   ",
" +@@+++++++++@@++ ++++++++++++++++ ++++++++++++++++ ++++++++++++++++ ++++++++++++++++ ++++++++++++++++ ++@@@@@@@+++++++ ++@@@@@@@@@@@+++ ================ =====+++++++++++  *************************    +##+++++++++##++ ++++++++++++++++ ++++++++++++++++ ++++++++++++++++ ++++++++++++++++ ++++++++++++++++ ++#######+++++++ ++###########+++ ================ =====+++++++++++  *************************    +$$+++++++++$$++ ++++++++++++++++ ++++++++++++++++ ++++++++++++++++ ++++++++++++++++ ++++++++++++++++ ++$$$$$$$+++++++ ++$$$$$$$$$$$+++ ================ =====+++++++++++  *************************    +%%+++++++++%%++ ++++++++++++++++ ++++++++++++++++ ++++++++++++++++ ++++++++++++++++ ++++++++++++++++ ++%%%%%%%+++++++ ++%%%%%%%%%%%+++ ================ =====+++++++++++  *************************    +&&+++++++++&&++ ++++++++++++++++ ++++++++++++++++ ++++++++++++++++ ++++++++++++++++ ++++++++++++++++ ++&&&&&&&+++++++ ++&&&&&&&&&&&+++ ---------------- -----+++++++++++  *************************   ",
" +@@@+++++++@@@++ +@+++++++++++@++ ++++++++++++++++ ++++++++++++++++ ++++++++++++++++ ++++++++++++++++ ++@@@@@@++++++++ ++@@@@@@@@@@@+++ +=============== ========++++++++  *************************    +###+++++++###++ +#+++++++++++#++ ++++++++++++++++ ++++++++++++++++ ++++++++++++++++ ++++++++++++++++ ++######++++++++ ++###########+++ +=============== ========++++++++  *************************    +$$$+++++++$$$++ +$+++++++++++$++ ++++++++++++++++ ++++++++++++++++ ++++++++++++++++ ++++++++++++++++ ++$$$$$$++++++++ ++$$$$$$$$$$$+++ +=============== ========++++++++  *************************    +%%%+++++++%%%++ +%+++++++++++%++ ++++++++++++++++ ++++++++++++++++ ++++++++++++++++ ++++++++++++++++ ++%%%%%%++++++++ ++%%%%%%%%%%%+++ +=============== ========++++++++  *************************    +&&&+++++++&&&++ +&+++++++++++&++ ++++++++++++++++ ++++++++++++++++ ++++++++++++++++ ++++++++++++++++ ++&&&&&&++++++++ ++&&&&&&&&&&&+++ +--------------- --------++++++++  *************************   ",
" +@@@@+++++@@@@++ @@@@+++++++@@@@+ ++++++++++++++++ ++++++++++++++++ ++++++++++++++++ ++++++++++++++++ +@@@@@@+++++++++ +@@@@@@+@@@@@@++ +=============== ==========++++++  *************************    +####+++++####++ ####+++++++####+ ++++++++++++++++ ++++++++++++++++ ++++++++++++++++ ++++++++++++++++ +######+++++++++ +######+######++ +=============== ==========++++++  *************************    +$$$$+++++$$$$++ $$$$+++++++$$$$+ ++++++++++++++++ ++++++++++++++++ ++++++++++++++++ ++++++++++++++++ +$$$$$$+++++++++ +$$$$$$+$$$$$$++ +=============== ==========++++++  *************************    +%%%%+++++%%%%++ %%%%+++++++%%%%+ ++++++++++++++++ ++++++++++++++++ ++++++++++++++++ ++++++++++++++++ +%%%%%%+++++++++ +%%%%%%+%%%%%%++ +=============== ==========++++++  *************************    +&&&&+++++&&&&++ &&&&+++++++&&&&+ ++++++++++++++++ ++++++++++++++++ ++++++++++++++++ ++++++++++++++++ +&&&&&&+++++++++ +&&&&&&+&&&&&&++ +--------------- ----------++++++  *************************   ",
" +@@@@@+++@@@@@++ @@@@@+++++@@@@@+ @@@+++++++++@@@+ ++++++++++++++++ ++++++++++++++++ ++++++++++++++++ +@@@@@++++++++++ +@@@@@+++@@@@@++ +=============== ============++++  *************************    +#####+++#####++ #####+++++#####+ ###+++++++++###+ ++++++++++++++++ ++++++++++++++++ ++++++++++++++++ +#####++++++++++ +#####+++#####++ +=============== ============++++  *************************    +$$$$$+++$$$$$++ $$$$$+++++$$$$$+ $$$+++++++++$$$+ ++++++++++++++++ ++++++++++++++++ ++++++++++++++++ +$$$$$++++++++++ +$$$$$+++$$$$$++ +=============== ============++++  *************************    +%%%%%+++%%%%%++ %%%%%+++++%%%%%+ %%%+++++++++%%%+ ++++++++++++++++ ++++++++++++++++ ++++++++++++++++ +%%%%%++++++++++ +%%%%%+++%%%%%++ +=============== ============++++  *************************    +&&&&&+++&&&&&++ &&&&&+++++&&&&&+ &&&+++++++++&&&+ ++++++++++++++++ ++++++++++++++++ ++++++++++++++++ +&&&&&++++++++++ +&&&&&+++&&&&&++ +--------------- ------------++++  *************************   ",
" +@@@@@@+@@@@@@++ @@@@@@@+@@@@@@@+ @@@@@@+++@@@@@@+ @@@@+++++++@@@@+ ++++++++++++++++ ++++++++++++++++ +@@@@+++++++++++ +@@@@+++++@@@@++ ++============== ==============++  *************************    +######+######++ #######+#######+ ######+++######+ ####+++++++####+ ++++++++++++++++ ++++++++++++++++ +####+++++++++++ +####+++++####++ ++============== ==============++  *************************    +$$$$$$+$$$$$$++ $$$$$$$+$$$$$$$+ $$$$$$+++$$$$$$+ $$$$+++++++$$$$+ ++++++++++++++++ ++++++++++++++++ +$$$$+++++++++++ +$$$$+++++$$$$++ ++============== ==============++  *************************    +%%%%%%+%%%%%%++ %%%%%%%+%%%%%%%+ %%%%%%+++%%%%%%+ %%%%+++++++%%%%+ ++++++++++++++++ ++++++++++++++++ +%%%%+++++++++++ +%%%%+++++%%%%++ ++============== ==============++  *************************    +&&&&&&+&&&&&&++ &&&&&&&+&&&&&&&+ &&&&&&+++&&&&&&+ &&&&+++++++&&&&+ ++++++++++++++++ ++++++++++++++++ +&&&&+++++++++++ +&&&&+++++&&&&++ ++-------------- --------------++  *************************   ",
" ++@@@@@@@@@@@+++ +@@@@@@@@@@@@@++ @@@@@@@@@@@@@@@+ @@@@@@@@@@@@@@@+ ++++@@@@@@@+++++ ++++++@@@+++++++ +@@@@@++++++++++ +@@@+++++++@@@++ ++============== ==============++  *************************    ++###########+++ +#############++ ###############+ ###############+ ++++#######+++++ ++++++###+++++++ +#####++++++++++ +###+++++++###++ ++============== ==============++  *************************    ++$$$$$$$$$$$+++ +$$$$$$$$$$$$$++ $$$$$$$$$$$$$$$+ $$$$$$$$$$$$$$$+ ++++$$$$$$$+++++ ++++++$$$+++++++ +$$$$$++++++++++ +$$$+++++++$$$++ ++============== ==============++  *************************    ++%%%%%%%%%%%+++ +%%%%%%%%%%%%%++ %%%%%%%%%%%%%%%+ %%%%%%%%%%%%%%%+ ++++%%%%%%%+++++ ++++++%%%+++++++ +%%%%%++++++++++ +%%%+++++++%%%++ ++============== ==============++  *************************    ++&&&&&&&&&&&+++ +&&&&&&&&&&&&&++ &&&&&&&&&&&&&&&+ &&&&&&&&&&&&&&&+ ++++&&&&&&&+++++ ++++++&&&+++++++ +&&&&&++++++++++ +&&&+++++++&&&++ ++-------------- --------------++  *************************   ",
" ++@@@@@@@@@@@+++ +@@@@@@@@@@@@@++ +@@@@@@@@@@@@@++ @@@@@@@@@@@@@@@+ @@@@@@@@@@@@@@@+ ++++@@@@@@@+++++ +@@@@@@+++++++++ +@@+++++++++@@++ +++============= =============+++  *************************    ++###########+++ +#############++ +#############++ ###############+ ###############+ ++++#######+++++ +######+++++++++ +##+++++++++##++ +++============= =============+++  *************************    ++$$$$$$$$$$$+++ +$$$$$$$$$$$$$++ +$$$$$$$$$$$$$++ $$$$$$$$$$$$$$$+ $$$$$$$$$$$$$$$+ ++++$$$$$$$+++++ +$$$$$$+++++++++ +$$+++++++++$$++ +++============= =============+++  *************************    ++%%%%%%%%%%%+++ +%%%%%%%%%%%%%++ +%%%%%%%%%%%%%++ %%%%%%%%%%%%%%%+ %%%%%%%%%%%%%%%+ ++++%%%%%%%+++++ +%%%%%%+++++++++ +%%+++++++++%%++ +++============= =============+++  *************************    ++&&&&&&&&&&&+++ +&&&&&&&&&&&&&++ +&&&&&&&&&&&&&++ &&&&&&&&&&&&&&&+ &&&&&&&&&&&&&&&+ ++++&&&&&&&+++++ +&&&&&&+++++++++ +&&+++++++++&&++ +++------------- -------------+++  *************************   ",
" +++@@@@@@@@@++++ ++@@@@@@@@@@@+++ ++@@@@@@@@@@@+++ +@@@@@@@@@@@@@++ @@@@@@@@@@@@@@@+ +@@@@@@@@@@@@@++ ++@@@@@@++++++++ ++++++++++++++++ ++++============ ============++++  *************************    +++#########++++ ++###########+++ ++###########+++ +#############++ ###############+ +#############++ ++######++++++++ ++++++++++++++++ ++++============ ============++++  *************************    +++$$$$$$$$$++++ ++$$$$$$$$$$$+++ ++$$$$$$$$$$$+++ +$$$$$$$$$$$$$++ $$$$$$$$$$$$$$$+ +$$$$$$$$$$$$$++ ++$$$$$$++++++++ ++++++++++++++++ ++++============ ============++++  *************************    +++%%%%%%%%%++++ ++%%%%%%%%%%%+++ ++%%%%%%%%%%%+++ +%%%%%%%%%%%%%++ %%%%%%%%%%%%%%%+ +%%%%%%%%%%%%%++ ++%%%%%%++++++++ ++++++++++++++++ ++++============ ============++++  *************************    +++&&&&&&&&&++++ ++&&&&&&&&&&&+++ ++&&&&&&&&&&&+++ +&&&&&&&&&&&&&++ &&&&&&&&&&&&&&&+ +&&&&&&&&&&&&&++ ++&&&&&&++++++++ ++++++++++++++++ ++++------------ ------------++++  *************************   ",
" +++++@@@@@++++++ ++++@@@+@@@+++++ ++++@@@+@@@+++++ +++@@@@+@@@@++++ +@@@@@@@@@@@@@++ @@@@@@@@@@@@@@@+ ++@@@@@@@+++++++ ++++++++++++++++ +++++=========== ===========+++++  *************************    +++++#####++++++ ++++###+###+++++ ++++###+###+++++ +++####+####++++ +#############++ ###############+ ++#######+++++++ ++++++++++++++++ +++++=========== ===========+++++  *************************    +++++$$$$$++++++ ++++$$$+$$$+++++ ++++$$$+$$$+++++ +++$$$$+$$$$++++ +$$$$$$$$$$$$$++ $$$$$$$$$$$$$$$+ ++$$$$$$$+++++++ ++++++++++++++++ +++++=========== ===========+++++  *************************    +++++%%%%%++++++ ++++%%%+%%%+++++ ++++%%%+%%%+++++ +++%%%%+%%%%++++ +%%%%%%%%%%%%%++ %%%%%%%%%%%%%%%+ ++%%%%%%%+++++++ ++++++++++++++++ +++++=========== ===========+++++  *************************    +++++&&&&&++++++ ++++&&&+&&&+++++ ++++&&&+&&&+++++ +++&&&&+&&&&++++ +&&&&&&&&&&&&&++ &&&&&&&&&&&&&&&+ ++&&&&&&&+++++++ ++++++++++++++++ +++++----------- -----------+++++  *************************   ",
" ++++++++++++++++ ++++++++++++++++ ++++++++++++++++ ++++++++++++++++ +++@@@@+@@@@++++ +@@@@@@+@@@@@@++ +++@@@@@@@++++++ ++++++++++++++++ ++++++========== ==========++++++  *************************    ++++++++++++++++ ++++++++++++++++ ++++++++++++++++ ++++++++++++++++ +++####+####++++ +######+######++ +++#######++++++ ++++++++++++++++ ++++++========== ==========++++++  *************************    ++++++++++++++++ ++++++++++++++++ ++++++++++++++++ ++++++++++++++++ +++$$$$+$$$$++++ +$$$$$$+$$$$$$++ +++$$$$$$$++++++ ++++++++++++++++ ++++++========== ==========++++++  *************************    ++++++++++++++++ ++++++++++++++++ ++++++++++++++++ ++++++++++++++++ +++%%%%+%%%%++++ +%%%%%%+%%%%%%++ +++%%%%%%%++++++ ++++++++++++++++ ++++++========== ==========++++++  *************************    ++++++++++++++++ ++++++++++++++++ ++++++++++++++++ ++++++++++++++++ +++&&&&+&&&&++++ +&&&&&&+&&&&&&++ +++&&&&&&&++++++ ++++++++++++++++ ++++++---------- ----------++++++  *************************   ",
" ++++++++++++++++ ++++++++++++++++ ++++++++++++++++ ++++++++++++++++ ++++++++++++++++ +++@@@+++@@@++++ +++++@@@@@++++++ ++++++++++++++++ +++++++========= =========+++++++  *************************    ++++++++++++++++ ++++++++++++++++ ++++++++++++++++ ++++++++++++++++ ++++++++++++++++ +++###+++###++++ +++++#####++++++ ++++++++++++++++ +++++++========= =========+++++++  *************************    ++++++++++++++++ ++++++++++++++++ ++++++++++++++++ ++++++++++++++++ ++++++++++++++++ +++$$$+++$$$++++ +++++$$$$$++++++ ++++++++++++++++ +++++++========= =========+++++++  *************************    ++++++++++++++++ ++++++++++++++++ ++++++++++++++++ ++++++++++++++++ ++++++++++++++++ +++%%%+++%%%++++ +++++%%%%%++++++ ++++++++++++++++ +++++++========= =========+++++++  *************************    ++++++++++++++++ ++++++++++++++++ ++++++++++++++++ ++++++++++++++++ ++++++++++++++++ +++&&&+++&&&++++ +++++&&&&&++++++ ++++++++++++++++ +++++++--------- ---------+++++++  *************************   ",
" ++++++++++++++++ ++++++++++++++++ ++++++++++++++++ ++++++++++++++++ ++++++++++++++++ ++++++++++++++++ ++++++++++++++++ ++++++++++++++++ +++++++++======= =======+++++++++  *************************    ++++++++++++++++ ++++++++++++++++ ++++++++++++++++ ++++++++++++++++ ++++++++++++++++ ++++++++++++++++ ++++++++++++++++ ++++++++++++++++ +++++++++======= =======+++++++++  *************************    ++++++++++++++++ ++++++++++++++++ ++++++++++++++++ ++++++++++++++++ ++++++++++++++++ ++++++++++++++++ ++++++++++++++++ ++++++++++++++++ +++++++++======= =======+++++++++  *************************    ++++++++++++++++ ++++++++++++++++ ++++++++++++++++ ++++++++++++++++ ++++++++++++++++ ++++++++++++++++ ++++++++++++++++ ++++++++++++++++ +++++++++======= =======+++++++++  *************************    ++++++++++++++++ ++++++++++++++++ ++++++++++++++++ ++++++++++++++++ ++++++++++++++++ ++++++++++++++++ ++++++++++++++++ ++++++++++++++++ +++++++++------- -------+++++++++  *************************   ",
" ++++++++++++++++ ++++++++++++++++ ++++++++++++++++ ++++++++++++++++ ++++++++++++++++ ++++++++++++++++ ++++++++++++++++ ++++++++++++++++ ++++++++++++==== ====++++++++++++  *************************    ++++++++++++++++ ++++++++++++++++ ++++++++++++++++ ++++++++++++++++ ++++++++++++++++ ++++++++++++++++ ++++++++++++++++ ++++++++++++++++ ++++++++++++==== ====++++++++++++  *************************    ++++++++++++++++ ++++++++++++++++ ++++++++++++++++ ++++++++++++++++ ++++++++++++++++ ++++++++++++++++ ++++++++++++++++ ++++++++++++++++ ++++++++++++==== ====++++++++++++  *************************    ++++++++++++++++ ++++++++++++++++ ++++++++++++++++ ++++++++++++++++ ++++++++++++++++ ++++++++++++++++ ++++++++++++++++ ++++++++++++++++ ++++++++++++==== ====++++++++++++  *************************    ++++++++++++++++ ++++++++++++++++ ++++++++++++++++ ++++++++++++++++ ++++++++++++++++ ++++++++++++++++ ++++++++++++++++ ++++++++++++++++ ++++++++++++---- ----++++++++++++  *************************   ",
"                                                                                                                                                                            *************************                                                                                                                                                                               *************************                                                                                                                                                                               *************************                                                                                                                                                                               *************************                                                                                                                                                                               *************************   ",
" ++++++++++++++++ ++++++++++++++++ ++++++++++++++++ ++++++++++++++++ ++++++++++++++++ ++++++++++++++++ ++++++++++++++++ ++++++++++++++++ ++++++++++++==== ====++++++++++++  *************************    ++++++++++++++++ ++++++++++++++++ ++++++++++++++++ ++++++++++++++++ ++++++++++++++++ ++++++++++++++++ ++++++++++++++++ ++++++++++++++++ ++++++++++++==== ====++++++++++++  *************************    ++++++++++++++++ ++++++++++++++++ ++++++++++++++++ ++++++++++++++++ ++++++++++++++++ ++++++++++++++++ ++++++++++++++++ ++++++++++++++++ ++++++++++++==== ====++++++++++++  *************************    ++++++++++++++++ ++++++++++++++++ ++++++++++++++++ ++++++++++++++++ ++++++++++++++++ ++++++++++++++++ ++++++++++++++++ ++++++++++++++++ ++++++++++++==== ====++++++++++++  *************************    ++++++++++++++++ ++++++++++++++++ ++++++++++++++++ ++++++++++++++++ ++++++++++++++++ ++++++++++++++++ ++++++++++++++++ ++++++++++++++++ ++++++++++++---- ----++++++++++++  *************************   ",
" ++++++++++++++++ ++++++++++++++++ ++++++++++++++++ ++++++++++++++++ ++++++++++++++++ ++++++++++++++++ +++++@@@@@++++++ +++++@@@@@++++++ +++++++++======= =======+++++++++  *************************    ++++++++++++++++ ++++++++++++++++ ++++++++++++++++ ++++++++++++++++ ++++++++++++++++ ++++++++++++++++ +++++#####++++++ +++++#####++++++ +++++++++======= =======+++++++++  *************************    ++++++++++++++++ ++++++++++++++++ ++++++++++++++++ ++++++++++++++++ ++++++++++++++++ ++++++++++++++++ +++++$$$$$++++++ +++++$$$$$++++++ +++++++++======= =======+++++++++  *************************    ++++++++++++++++ ++++++++++++++++ ++++++++++++++++ ++++++++++++++++ ++++++++++++++++ ++++++++++++++++ +++++%%%%%++++++ +++++%%%%%++++++ +++++++++======= =======+++++++++  *************************    ++++++++++++++++ ++++++++++++++++ ++++++++++++++++ ++++++++++++++++ ++++++++++++++++ ++++++++++++++++ +++++&&&&&++++++ +++++&&&&&++++++ +++++++++------- -------+++++++++  *************************   ",
" ++++++++++++++++ ++++++++++++++++ ++++++++++++++++ ++++++++++++++++ ++++++++++++++++ ++++++++++++++++ +++@@@@@@@@@++++ +++@@@@@@@@@++++ +++++++========= ========++++++++  *************************    ++++++++++++++++ ++++++++++++++++ ++++++++++++++++ ++++++++++++++++ ++++++++++++++++ ++++++++++++++++ +++#########++++ +++#########++++ +++++++========= ========++++++++  *************************    ++++++++++++++++ ++++++++++++++++ ++++++++++++++++ ++++++++++++++++ ++++++++++++++++ ++++++++++++++++ +++$$$$$$$$$++++ +++$$$$$$$$$++++ +++++++========= ========++++++++  *************************    ++++++++++++++++ ++++++++++++++++ ++++++++++++++++ ++++++++++++++++ ++++++++++++++++ ++++++++++++++++ +++%%%%%%%%%++++ +++%%%%%%%%%++++ +++++++========= ========++++++++  *************************    ++++++++++++++++ ++++++++++++++++ ++++++++++++++++ ++++++++++++++++ ++++++++++++++++ ++++++++++++++++ +++&&&&&&&&&++++ +++&&&&&&&&&++++ +++++++--------- --------++++++++  *************************   ",
" ++++++++++++++++ ++++++++++++++++ ++++++++++++++++ ++++++++++++++++ ++++++++++++++++ ++++++++++++++++ ++@@@@@@@@@@@+++ ++@@@@@@@@@@@+++ ++++++========== ========++++++++  *************************    ++++++++++++++++ ++++++++++++++++ ++++++++++++++++ ++++++++++++++++ ++++++++++++++++ ++++++++++++++++ ++###########+++ ++###########+++ ++++++========== ========++++++++  *************************    ++++++++++++++++ ++++++++++++++++ ++++++++++++++++ ++++++++++++++++ ++++++++++++++++ ++++++++++++++++ ++$$$$$$$$$$$+++ ++$$$$$$$$$$$+++ ++++++========== ========++++++++  *************************    ++++++++++++++++ ++++++++++++++++ ++++++++++++++++ ++++++++++++++++ ++++++++++++++++ ++++++++++++++++ ++%%%%%%%%%%%+++ ++%%%%%%%%%%%+++ ++++++========== ========++++++++  *************************    ++++++++++++++++ ++++++++++++++++ ++++++++++++++++ ++++++++++++++++ ++++++++++++++++ ++++++++++++++++ ++&&&&&&&&&&&+++ ++&&&&&&&&&&&+++ ++++++---------- --------++++++++  *************************   ",
" ++++++++++++++++ ++++++++++++++++ ++++++++++++++++ ++++++++++++++++ ++++++++++++++++ ++++++++++++++++ ++@@@@@@@@@@@+++ ++@@@@@@@@@@@+++ +++++=========== =======+++++++++  *************************    ++++++++++++++++ ++++++++++++++++ ++++++++++++++++ ++++++++++++++++ ++++++++++++++++ ++++++++++++++++ ++###########+++ ++###########+++ +++++=========== =======+++++++++  *************************    ++++++++++++++++ ++++++++++++++++ ++++++++++++++++ ++++++++++++++++ ++++++++++++++++ ++++++++++++++++ ++$$$$$$$$$$$+++ ++$$$$$$$$$$$+++ +++++=========== =======+++++++++  *************************    ++++++++++++++++ ++++++++++++++++ ++++++++++++++++ ++++++++++++++++ ++++++++++++++++ ++++++++++++++++ ++%%%%%%%%%%%+++ ++%%%%%%%%%%%+++ +++++=========== =======+++++++++  *************************    ++++++++++++++++ ++++++++++++++++ ++++++++++++++++ ++++++++++++++++ ++++++++++++++++ ++++++++++++++++ ++&&&&&&&&&&&+++ ++&&&&&&&&&&&+++ +++++----------- -------+++++++++  *************************   ",
" ++++++++++++++++ ++++++++++++++++ ++++++++++++++++ ++++++++++++++++ ++++++++++++++++ ++++++++++++++++ +@@@@@@@@@@+++++ +@@@@@@@@@@@@@++ ++++============ ======++++++++++  *************************    ++++++++++++++++ ++++++++++++++++ ++++++++++++++++ ++++++++++++++++ ++++++++++++++++ ++++++++++++++++ +##########+++++ +#############++ ++++============ ======++++++++++  *************************    ++++++++++++++++ ++++++++++++++++ ++++++++++++++++ ++++++++++++++++ ++++++++++++++++ ++++++++++++++++ +$$$$$$$$$$+++++ +$$$$$$$$$$$$$++ ++++============ ======++++++++++  *************************    ++++++++++++++++ ++++++++++++++++ ++++++++++++++++ ++++++++++++++++ ++++++++++++++++ ++++++++++++++++ +%%%%%%%%%%+++++ +%%%%%%%%%%%%%++ ++++============ ======++++++++++  *************************    ++++++++++++++++ ++++++++++++++++ ++++++++++++++++ ++++++++++++++++ ++++++++++++++++ ++++++++++++++++ +&&&&&&&&&&+++++ +&&&&&&&&&&&&&++ ++++------------ ------++++++++++  *************************   ",
" ++++++++++++++++ ++++++++++++++++ ++++++++++++++++ ++++++++++++++++ +++++@+++@++++++ ++++++++++++++++ +@@@@@@@++++++++ +@@@@@@+@@@@@@++ +++============= =====+++++++++++  *************************    ++++++++++++++++ ++++++++++++++++ ++++++++++++++++ ++++++++++++++++ +++++#+++#++++++ ++++++++++++++++ +#######++++++++ +######+######++ +++============= =====+++++++++++  *************************    ++++++++++++++++ ++++++++++++++++ ++++++++++++++++ ++++++++++++++++ +++++$+++$++++++ ++++++++++++++++ +$$$$$$$++++++++ +$$$$$$+$$$$$$++ +++============= =====+++++++++++  *************************    ++++++++++++++++ ++++++++++++++++ ++++++++++++++++ ++++++++++++++++ +++++%+++%++++++ ++++++++++++++++ +%%%%%%%++++++++ +%%%%%%+%%%%%%++ +++============= =====+++++++++++  *************************    ++++++++++++++++ ++++++++++++++++ ++++++++++++++++ ++++++++++++++++ +++++&+++&++++++ ++++++++++++++++ +&&&&&&&++++++++ +&&&&&&+&&&&&&++ +++------------- -----+++++++++++  *************************   ",
" ++++++++++++++++ ++++++++++++++++ ++++++++++++++++ ++++++++++++++++ +++@++@+@+++++++ ++++++++++++++++ +@@@@+++++++++++ +@@@@@@+@@@@@@++ ++============== ====++++++++++++  @@@@@@@@@@@@@@@@@@@@@@@@@    ++++++++++++++++ ++++++++++++++++ ++++++++++++++++ ++++++++++++++++ +++#++#+#+++++++ ++++++++++++++++ +####+++++++++++ +######+######++ ++============== ====++++++++++++  #########################    ++++++++++++++++ ++++++++++++++++ ++++++++++++++++ ++++++++++++++++ +++$++$+$+++++++ ++++++++++++++++ +$$$$+++++++++++ +$$$$$$+$$$$$$++ ++============== ====++++++++++++  $$$$$$$$$$$$$$$$$$$$$$$$$    ++++++++++++++++ ++++++++++++++++ ++++++++++++++++ ++++++++++++++++ +++%++%+%+++++++ ++++++++++++++++ +%%%%+++++++++++ +%%%%%%+%%%%%%++ ++============== ====++++++++++++  %%%%%%%%%%%%%%%%%%%%%%%%%    ++++++++++++++++ ++++++++++++++++ ++++++++++++++++ ++++++++++++++++ +++&++&+&+++++++ ++++++++++++++++ +&&&&+++++++++++ +&&&&&&+&&&&&&++ ++-------------- ----++++++++++++  &&&&&&&&&&&&&&&&&&&&&&&&&   ",
" +++++++@++++++++ +++++++@++++++++ +++++++@++++++++ +++++++@++++++++ ++++@++++++@++++ ++++++++++++++++ +@@@@@@@++++++++ +@@@@@+++@@@@@++ ++============== ===+++++++++++++  @@@@@@@@@@@@@@@@@@@@@@@@@    +++++++#++++++++ +++++++#++++++++ +++++++#++++++++ +++++++#++++++++ ++++#++++++#++++ ++++++++++++++++ +#######++++++++ +#####+++#####++ ++============== ===+++++++++++++  #########################    +++++++$++++++++ +++++++$++++++++ +++++++$++++++++ +++++++$++++++++ ++++$++++++$++++ ++++++++++++++++ +$$$$$$$++++++++ +$$$$$+++$$$$$++ ++============== ===+++++++++++++  $$$$$$$$$$$$$$$$$$$$$$$$$    +++++++%++++++++ +++++++%++++++++ +++++++%++++++++ +++++++%++++++++ ++++%++++++%++++ ++++++++++++++++ +%%%%%%%++++++++ +%%%%%+++%%%%%++ ++============== ===+++++++++++++  %%%%%%%%%%%%%%%%%%%%%%%%%    +++++++&++++++++ +++++++&++++++++ +++++++&++++++++ +++++++&++++++++ ++++&++++++&++++ ++++++++++++++++ +&&&&&&&++++++++ +&&&&&+++&&&&&++ ++-------------- ---+++++++++++++  &&&&&&&&&&&&&&&&&&&&&&&&&   ",
" ++++++@@@+++++++ ++++++@@@+++++++ +++++++@++++++++ +++++++@++++++++ ++++++++++@+++++ ++++++++++++++++ +@@@@@@@@@@+++++ +@@@@@+++@@@@@++ +=============== ==++++++++++++++  @@@@@@@@@@@@@@@@@@@@@@@@@    ++++++###+++++++ ++++++###+++++++ +++++++#++++++++ +++++++#++++++++ ++++++++++#+++++ ++++++++++++++++ +##########+++++ +#####+++#####++ +=============== ==++++++++++++++  #########################    ++++++$$$+++++++ ++++++$$$+++++++ +++++++$++++++++ +++++++$++++++++ ++++++++++$+++++ ++++++++++++++++ +$$$$$$$$$$+++++ +$$$$$+++$$$$$++ +=============== ==++++++++++++++  $$$$$$$$$$$$$$$$$$$$$$$$$    ++++++%%%+++++++ ++++++%%%+++++++ +++++++%++++++++ +++++++%++++++++ ++++++++++%+++++ ++++++++++++++++ +%%%%%%%%%%+++++ +%%%%%+++%%%%%++ +=============== ==++++++++++++++  %%%%%%%%%%%%%%%%%%%%%%%%%    ++++++&&&+++++++ ++++++&&&+++++++ +++++++&++++++++ +++++++&++++++++ ++++++++++&+++++ ++++++++++++++++ +&&&&&&&&&&+++++ +&&&&&+++&&&&&++ +--------------- --++++++++++++++  &&&&&&&&&&&&&&&&&&&&&&&&&   ",
" ++++@@@@@@@+++++ +++++@@@@@++++++ ++++++@@@+++++++ +++++++@++++++++ ++@@++++++++++++ ++++++++++++++++ ++@@@@@@@@@@@+++ ++@@@@+++@@@@+++ +=============== =+++++++++++++++  @@@@@@@@@@@@@@@@@@@@@@@@@    ++++#######+++++ +++++#####++++++ ++++++###+++++++ +++++++#++++++++ ++##++++++++++++ ++++++++++++++++ ++###########+++ ++####+++####+++ +=============== =+++++++++++++++  #########################    ++++$$$$$$$+++++ +++++$$$$$++++++ ++++++$$$+++++++ +++++++$++++++++ ++$$++++++++++++ ++++++++++++++++ ++$$$$$$$$$$$+++ ++$$$$+++$$$$+++ +=============== =+++++++++++++++  $$$$$$$$$$$$$$$$$$$$$$$$$    ++++%%%%%%%+++++ +++++%%%%%++++++ ++++++%%%+++++++ +++++++%++++++++ ++%%++++++++++++ ++++++++++++++++ ++%%%%%%%%%%%+++ ++%%%%+++%%%%+++ +=============== =+++++++++++++++  %%%%%%%%%%%%%%%%%%%%%%%%%    ++++&&&&&&&+++++ +++++&&&&&++++++ ++++++&&&+++++++ +++++++&++++++++ ++&&++++++++++++ ++++++++++++++++ ++&&&&&&&&&&&+++ ++&&&&+++&&&&+++ +--------------- -+++++++++++++++  &&&&&&&&&&&&&&&&&&&&&&&&&   ",
" +++@@@@@@@@@++++ +++++@@@@@++++++ ++++++@@@+++++++ +++++++@++++++++ +++++++++++@@+++ ++++++++++++++++ ++@@@@@@@@@@@+++ ++@@@+++++@@@+++ +=============== ++++++++++++++++  @@@@@@@@@@@@@@@@@@@@@@@@@    +++#########++++ +++++#####++++++ ++++++###+++++++ +++++++#++++++++ +++++++++++##+++ ++++++++++++++++ ++###########+++ ++###+++++###+++ +=============== ++++++++++++++++  #########################    +++$$$$$$$$$++++ +++++$$$$$++++++ ++++++$$$+++++++ +++++++$++++++++ +++++++++++$$+++ ++++++++++++++++ ++$$$$$$$$$$$+++ ++$$$+++++$$$+++ +=============== ++++++++++++++++  $$$$$$$$$$$$$$$$$$$$$$$$$    +++%%%%%%%%%++++ +++++%%%%%++++++ ++++++%%%+++++++ +++++++%++++++++ +++++++++++%%+++ ++++++++++++++++ ++%%%%%%%%%%%+++ ++%%%+++++%%%+++ +=============== ++++++++++++++++  %%%%%%%%%%%%%%%%%%%%%%%%%    +++&&&&&&&&&++++ +++++&&&&&++++++ ++++++&&&+++++++ +++++++&++++++++ +++++++++++&&+++ ++++++++++++++++ ++&&&&&&&&&&&+++ ++&&&+++++&&&+++ +--------------- ++++++++++++++++  &&&&&&&&&&&&&&&&&&&&&&&&&   ",
" +@@@@@@@@@@@@@++ ++++@@@@@@@+++++ ++++++@@@+++++++ +++++++@++++++++ ++++@+++++++++++ ++++++++++++++++ +++@@@@@@@@@++++ +++@@+++++@@++++ ===============+ ++++++++++++++++  @@@@@@@@@@@@@@@@@@@@@@@@@    +#############++ ++++#######+++++ ++++++###+++++++ +++++++#++++++++ ++++#+++++++++++ ++++++++++++++++ +++#########++++ +++##+++++##++++ ===============+ ++++++++++++++++  #########################    +$$$$$$$$$$$$$++ ++++$$$$$$$+++++ ++++++$$$+++++++ +++++++$++++++++ ++++$+++++++++++ ++++++++++++++++ +++$$$$$$$$$++++ +++$$+++++$$++++ ===============+ ++++++++++++++++  $$$$$$$$$$$$$$$$$$$$$$$$$    +%%%%%%%%%%%%%++ ++++%%%%%%%+++++ ++++++%%%+++++++ +++++++%++++++++ ++++%+++++++++++ ++++++++++++++++ +++%%%%%%%%%++++ +++%%+++++%%++++ ===============+ ++++++++++++++++  %%%%%%%%%%%%%%%%%%%%%%%%%    +&&&&&&&&&&&&&++ ++++&&&&&&&+++++ ++++++&&&+++++++ +++++++&++++++++ ++++&+++++++++++ ++++++++++++++++ +++&&&&&&&&&++++ +++&&+++++&&++++ ---------------+ ++++++++++++++++  &&&&&&&&&&&&&&&&&&&&&&&&&   ",
" +@@@@@@+@@@@@@++ +++@@@@@@@@@++++ +++++@@@@@++++++ +++++++@++++++++ +++@++++++@+++++ ++++++++++++++++ +++++@@@@@++++++ ++++++++++++++++ ==============++ ++++++++++++++++  @@@@@@@@@@@@@@@@@@@@@@@@@    +######+######++ +++#########++++ +++++#####++++++ +++++++#++++++++ +++#++++++#+++++ ++++++++++++++++ +++++#####++++++ ++++++++++++++++ ==============++ ++++++++++++++++  #########################    +$$$$$$+$$$$$$++ +++$$$$$$$$$++++ +++++$$$$$++++++ +++++++$++++++++ +++$++++++$+++++ ++++++++++++++++ +++++$$$$$++++++ ++++++++++++++++ ==============++ ++++++++++++++++  $$$$$$$$$$$$$$$$$$$$$$$$$    +%%%%%%+%%%%%%++ +++%%%%%%%%%++++ +++++%%%%%++++++ +++++++%++++++++ +++%++++++%+++++ ++++++++++++++++ +++++%%%%%++++++ ++++++++++++++++ ==============++ ++++++++++++++++  %%%%%%%%%%%%%%%%%%%%%%%%%    +&&&&&&+&&&&&&++ +++&&&&&&&&&++++ +++++&&&&&++++++ +++++++&++++++++ +++&++++++&+++++ ++++++++++++++++ +++++&&&&&++++++ ++++++++++++++++ --------------++ ++++++++++++++++  &&&&&&&&&&&&&&&&&&&&&&&&&   ",
" ++@@@@+++@@@@+++ ++++@@@+@@@+++++ ++++++@+@+++++++ ++++++++++++++++ ++++++@+@++@++++ ++++++++++++++++ ++++++++++++++++ ++++++++++++++++ =============+++ ++++++++++++++++  @@@@@@@@@@@@@@@@@@@@@@@@@    ++####+++####+++ ++++###+###+++++ ++++++#+#+++++++ ++++++++++++++++ ++++++#+#++#++++ ++++++++++++++++ ++++++++++++++++ ++++++++++++++++ =============+++ ++++++++++++++++  #########################    ++$$$$+++$$$$+++ ++++$$$+$$$+++++ ++++++$+$+++++++ ++++++++++++++++ ++++++$+$++$++++ ++++++++++++++++ ++++++++++++++++ ++++++++++++++++ =============+++ ++++++++++++++++  $$$$$$$$$$$$$$$$$$$$$$$$$    ++%%%%+++%%%%+++ ++++%%%+%%%+++++ ++++++%+%+++++++ ++++++++++++++++ ++++++%+%++%++++ ++++++++++++++++ ++++++++++++++++ ++++++++++++++++ =============+++ ++++++++++++++++  %%%%%%%%%%%%%%%%%%%%%%%%%    ++&&&&+++&&&&+++ ++++&&&+&&&+++++ ++++++&+&+++++++ ++++++++++++++++ ++++++&+&++&++++ ++++++++++++++++ ++++++++++++++++ ++++++++++++++++ -------------+++ ++++++++++++++++  &&&&&&&&&&&&&&&&&&&&&&&&&   ",
" ++++++++++++++++ ++++++++++++++++ ++++++++++++++++ ++++++++++++++++ +++++@+++@++++++ ++++++++++++++++ ++++++++++++++++ ++++++++++++++++ ============++++ ++++++++++++++++  @@@@@@@@@@@@@@@@@@@@@@@@@    ++++++++++++++++ ++++++++++++++++ ++++++++++++++++ ++++++++++++++++ +++++#+++#++++++ ++++++++++++++++ ++++++++++++++++ ++++++++++++++++ ============++++ ++++++++++++++++  #########################    ++++++++++++++++ ++++++++++++++++ ++++++++++++++++ ++++++++++++++++ +++++$+++$++++++ ++++++++++++++++ ++++++++++++++++ ++++++++++++++++ ============++++ ++++++++++++++++  $$$$$$$$$$$$$$$$$$$$$$$$$    ++++++++++++++++ ++++++++++++++++ ++++++++++++++++ ++++++++++++++++ +++++%+++%++++++ ++++++++++++++++ ++++++++++++++++ ++++++++++++++++ ============++++ ++++++++++++++++  %%%%%%%%%%%%%%%%%%%%%%%%%    ++++++++++++++++ ++++++++++++++++ ++++++++++++++++ ++++++++++++++++ +++++&+++&++++++ ++++++++++++++++ ++++++++++++++++ ++++++++++++++++ ------------++++ ++++++++++++++++  &&&&&&&&&&&&&&&&&&&&&&&&&   ",
"                                                                                                                       ..................                                   @@@@@@@@@@@@@@@@@@@@@@@@@                                                                                                                          ..................                                   #########################                                                                                                                          ..................                                   $$$$$$$$$$$$$$$$$$$$$$$$$                                                                                                                          ..................                                   %%%%%%%%%%%%%%%%%%%%%%%%%                                                                                                                          ..................                                   &&&&&&&&&&&&&&&&&&&&&&&&&   ",
" ++++++++++++++++ ++++++++++++++++ ++++++++++++++++ ++++++++++++++++ ++++++++++++++++ ++++++++++++++++ ++++++++++++++++.+=+++++++++=++++.============++++ ++++++++++++++++  @@@@@@@@@@@@@@@@@@@@@@@@@    ++++++++++++++++ ++++++++++++++++ ++++++++++++++++ ++++++++++++++++ ++++++++++++++++ ++++++++++++++++ ++++++++++++++++.+=+++++++++=++++.============++++ ++++++++++++++++  #########################    ++++++++++++++++ ++++++++++++++++ ++++++++++++++++ ++++++++++++++++ ++++++++++++++++ ++++++++++++++++ ++++++++++++++++.+=+++++++++=++++.============++++ ++++++++++++++++  $$$$$$$$$$$$$$$$$$$$$$$$$    ++++++++++++++++ ++++++++++++++++ ++++++++++++++++ ++++++++++++++++ ++++++++++++++++ ++++++++++++++++ ++++++++++++++++.+=+++++++++=++++.============++++ ++++++++++++++++  %%%%%%%%%%%%%%%%%%%%%%%%%    ++++++++++++++++ ++++++++++++++++ ++++++++++++++++ ++++++++++++++++ ++++++++++++++++ ++++++++++++++++ ++++++++++++++++.+-+++++++++-++++.------------++++ ++++++++++++++++  &&&&&&&&&&&&&&&&&&&&&&&&&   ",
" ++++++****++++++ ++++++****++++++ ++++++++++++++++ ++++++++++++++++ ++++++++++++++++ ++++++++++++++++ +++++@@@@@++++++.++=+++++++=+++++.=============+++ ++++++++++++++++  @@@@@@@@@@@@@@@@@@@@@@@@@    ++++++****++++++ ++++++****++++++ ++++++++++++++++ ++++++++++++++++ ++++++++++++++++ ++++++++++++++++ +++++#####++++++.++=+++++++=+++++.=============+++ ++++++++++++++++  #########################    ++++++****++++++ ++++++****++++++ ++++++++++++++++ ++++++++++++++++ ++++++++++++++++ ++++++++++++++++ +++++$$$$$++++++.++=+++++++=+++++.=============+++ ++++++++++++++++  $$$$$$$$$$$$$$$$$$$$$$$$$    ++++++****++++++ ++++++****++++++ ++++++++++++++++ ++++++++++++++++ ++++++++++++++++ ++++++++++++++++ +++++%%%%%++++++.++=+++++++=+++++.=============+++ ++++++++++++++++  %%%%%%%%%%%%%%%%%%%%%%%%%    ++++++****++++++ ++++++****++++++ ++++++++++++++++ ++++++++++++++++ ++++++++++++++++ ++++++++++++++++ +++++&&&&&++++++.++-+++++++-+++++.-------------+++ ++++++++++++++++  &&&&&&&&&&&&&&&&&&&&&&&&&   ",
" ++++********++++ ++++********++++ ++++++++++++++++ ++++++++++++++++ ++++++++++++++++ ++++++++++++++++ +++@@@@@@@@@++++.+++=+++++=++++++.==============++ ++++++++++++++++  @@@@@@@@@@@@@@@@@@@@@@@@@    ++++********++++ ++++********++++ ++++++++++++++++ ++++++++++++++++ ++++++++++++++++ ++++++++++++++++ +++#########++++.+++=+++++=++++++.==============++ ++++++++++++++++  #########################    ++++********++++ ++++********++++ ++++++++++++++++ ++++++++++++++++ ++++++++++++++++ ++++++++++++++++ +++$$$$$$$$$++++.+++=+++++=++++++.==============++ ++++++++++++++++  $$$$$$$$$$$$$$$$$$$$$$$$$    ++++********++++ ++++********++++ ++++++++++++++++ ++++++++++++++++ ++++++++++++++++ ++++++++++++++++ +++%%%%%%%%%++++.+++=+++++=++++++.==============++ ++++++++++++++++  %%%%%%%%%%%%%%%%%%%%%%%%%    ++++********++++ ++++********++++ ++++++++++++++++ ++++++++++++++++ ++++++++++++++++ ++++++++++++++++ +++&&&&&&&&&++++.+++-+++++-++++++.--------------++ ++++++++++++++++  &&&&&&&&&&&&&&&&&&&&&&&&&   ",
" +++**********+++ +++**********+++ ++++++++++++++++ ++++++++++++++++ ++++++++++++++++ ++++++++++++++++ ++@@@@@@@@@@@+++.+++====++===+++=.===============+ ++++++++++++++++  @@@@@@@@@@@@@@@@@@@@@@@@@    +++**********+++ +++**********+++ ++++++++++++++++ ++++++++++++++++ ++++++++++++++++ ++++++++++++++++ ++###########+++.+++====++===+++=.===============+ ++++++++++++++++  #########################    +++**********+++ +++**********+++ ++++++++++++++++ ++++++++++++++++ ++++++++++++++++ ++++++++++++++++ ++$$$$$$$$$$$+++.+++====++===+++=.===============+ ++++++++++++++++  $$$$$$$$$$$$$$$$$$$$$$$$$    +++**********+++ +++**********+++ ++++++++++++++++ ++++++++++++++++ ++++++++++++++++ ++++++++++++++++ ++%%%%%%%%%%%+++.+++====++===+++=.===============+ ++++++++++++++++  %%%%%%%%%%%%%%%%%%%%%%%%%    +++**********+++ +++**********+++ ++++++++++++++++ ++++++++++++++++ ++++++++++++++++ ++++++++++++++++ ++&&&&&&&&&&&+++.+++----++---+++-.---------------+ ++++++++++++++++  &&&&&&&&&&&&&&&&&&&&&&&&&   ",
" ++************++ ++************++ +===+++==+++==++ +++=+++==+++==++ +===+++==+++==++ =++===++==+++==+ ++@@@@@@@@@@@+++.++++=*=+=@*@=+=+.+=============== ++++++++++++++++  @@@@@@@@@@@@@@@@@@@@@@@@@    ++************++ ++************++ +===+++==+++==++ +++=+++==+++==++ +===+++==+++==++ =++===++==+++==+ ++###########+++.++++=*=+=#*#=+=+.+=============== ++++++++++++++++  #########################    ++************++ ++************++ +===+++==+++==++ +++=+++==+++==++ +===+++==+++==++ =++===++==+++==+ ++$$$$$$$$$$$+++.++++=*=+=$*$=+=+.+=============== ++++++++++++++++  $$$$$$$$$$$$$$$$$$$$$$$$$    ++************++ ++************++ +===+++==+++==++ +++=+++==+++==++ +===+++==+++==++ =++===++==+++==+ ++%%%%%%%%%%%+++.++++=*=+=%*%=+=+.+=============== ++++++++++++++++  %%%%%%%%%%%%%%%%%%%%%%%%%    ++************++ ++************++ +---+++--+++--++ +++-+++--+++--++ +---+++--+++--++ -++---++--+++--+ ++&&&&&&&&&&&+++.++++-*-+-&*&-+-+.+--------------- ++++++++++++++++  &&&&&&&&&&&&&&&&&&&&&&&&&   ",
" ++************++ ++************++ =+++=+=++=+=++=+ ++==++=++=+=++=+ =+++=+=++=+=++=+ =+=++++=++=+=++= +@@@@@@@@@@@@@++.+++=@+@=**@**=++.+=============== =+++++++++++++++  @@@@@@@@@@@@@@@@@@@@@@@@@    ++************++ ++************++ =+++=+=++=+=++=+ ++==++=++=+=++=+ =+++=+=++=+=++=+ =+=++++=++=+=++= +#############++.+++=#+#=**#**=++.+=============== =+++++++++++++++  #########################    ++************++ ++************++ =+++=+=++=+=++=+ ++==++=++=+=++=+ =+++=+=++=+=++=+ =+=++++=++=+=++= +$$$$$$$$$$$$$++.+++=$+$=**$**=++.+=============== =+++++++++++++++  $$$$$$$$$$$$$$$$$$$$$$$$$    ++************++ ++************++ =+++=+=++=+=++=+ ++==++=++=+=++=+ =+++=+=++=+=++=+ =+=++++=++=+=++= +%%%%%%%%%%%%%++.+++=%+%=**%**=++.+=============== =+++++++++++++++  %%%%%%%%%%%%%%%%%%%%%%%%%    ++************++ ++************++ -+++-+-++-+-++-+ ++--++-++-+-++-+ -+++-+-++-+-++-+ -+-++++-++-+-++- +&&&&&&&&&&&&&++.+++-&+&-**&**-++.+--------------- -+++++++++++++++  &&&&&&&&&&&&&&&&&&&&&&&&&   ",
" ++***@@**@@***++ ++***@@**@@***++ =+++=+=++=+=++=+ +=+=++=++=+=++=+ =+++=+=++=+=++=+ =+=++++=++=+=++= +@@@@@@@@@@@@@++.+++=*@+@@@*@*=++.+=============== ==++++++++++++++  @@@@@@@@@@@@@@@@@@@@@@@@@    ++***##**##***++ ++***##**##***++ =+++=+=++=+=++=+ +=+=++=++=+=++=+ =+++=+=++=+=++=+ =+=++++=++=+=++= +#############++.+++=*#+###*#*=++.+=============== ==++++++++++++++  #########################    ++***$$**$$***++ ++***$$**$$***++ =+++=+=++=+=++=+ +=+=++=++=+=++=+ =+++=+=++=+=++=+ =+=++++=++=+=++= +$$$$$$$$$$$$$++.+++=*$+$$$*$*=++.+=============== ==++++++++++++++  $$$$$$$$$$$$$$$$$$$$$$$$$    ++***%%**%%***++ ++***%%**%%***++ =+++=+=++=+=++=+ +=+=++=++=+=++=+ =+++=+=++=+=++=+ =+=++++=++=+=++= +%%%%%%%%%%%%%++.+++=*%+%%%*%*=++.+=============== ==++++++++++++++  %%%%%%%%%%%%%%%%%%%%%%%%%    ++***&&**&&***++ ++***&&**&&***++ -+++-+-++-+-++-+ +-+-++-++-+-++-+ -+++-+-++-+-++-+ -+-++++-++-+-++- +&&&&&&&&&&&&&++.+++-*&+&&&*&*-++.+--------------- --++++++++++++++  &&&&&&&&&&&&&&&&&&&&&&&&&   ",
" +****@@**@@****+ +****@@**@@****+ +++=++=++=+=++=+ =++=++=++=+=++=+ +===++=++=+=++=+ =+====+=++=+=++= +@@@@@@@@@@@@@++.+++=**@+@+@**=++.++============== ===+++++++++++++  @@@@@@@@@@@@@@@@@@@@@@@@@    +****##**##****+ +****##**##****+ +++=++=++=+=++=+ =++=++=++=+=++=+ +===++=++=+=++=+ =+====+=++=+=++= +#############++.+++=**#+#+#**=++.++============== ===+++++++++++++  #########################    +****$$**$$****+ +****$$**$$****+ +++=++=++=+=++=+ =++=++=++=+=++=+ +===++=++=+=++=+ =+====+=++=+=++= +$$$$$$$$$$$$$++.+++=**$+$+$**=++.++============== ===+++++++++++++  $$$$$$$$$$$$$$$$$$$$$$$$$    +****%%**%%****+ +****%%**%%****+ +++=++=++=+=++=+ =++=++=++=+=++=+ +===++=++=+=++=+ =+====+=++=+=++= +%%%%%%%%%%%%%++.+++=**%+%+%**=++.++============== ===+++++++++++++  %%%%%%%%%%%%%%%%%%%%%%%%%    +****&&**&&****+ +****&&**&&****+ +++-++-++-+-++-+ -++-++-++-+-++-+ +---++-++-+-++-+ -+----+-++-+-++- +&&&&&&&&&&&&&++.+++-**&+&+&**-++.++-------------- ---+++++++++++++  &&&&&&&&&&&&&&&&&&&&&&&&&   ",
" +**************+ +**************+ ++=+++=++=+=++=+ =====+=++=+=++=+ =+++=+=++=+=++=+ =+=++=+=++=+=++= +@@@@@@@@@@@@@++.++=*@@*+++@*=+++.++============== ====++++++++++++  @@@@@@@@@@@@@@@@@@@@@@@@@    +**************+ +**************+ ++=+++=++=+=++=+ =====+=++=+=++=+ =+++=+=++=+=++=+ =+=++=+=++=+=++= +#############++.++=*##*+++#*=+++.++============== ====++++++++++++  #########################    +**************+ +**************+ ++=+++=++=+=++=+ =====+=++=+=++=+ =+++=+=++=+=++=+ =+=++=+=++=+=++= +$$$$$$$$$$$$$++.++=*$$*+++$*=+++.++============== ====++++++++++++  $$$$$$$$$$$$$$$$$$$$$$$$$    +**************+ +**************+ ++=+++=++=+=++=+ =====+=++=+=++=+ =+++=+=++=+=++=+ =+=++=+=++=+=++= +%%%%%%%%%%%%%++.++=*%%*+++%*=+++.++============== ====++++++++++++  %%%%%%%%%%%%%%%%%%%%%%%%%    +**************+ +**************+ ++-+++-++-+-++-+ -----+-++-+-++-+ -+++-+-++-+-++-+ -+-++-+-++-+-++- +&&&&&&&&&&&&&++.++-*&&*+++&*-+++.++-------------- ----++++++++++++  &&&&&&&&&&&&&&&&&&&&&&&&&   ",
" +**************+ +**************+ +=++++=++=+=++=+ +++=++=++=+=++=+ =+++=+=++=+=++=+ =+=++=+=++=+=++= +@@@@@@@@@@@@@++.++=*@@@*+@*=++++.+++============= =====+++++++++++  @@@@@@@@@@@@@@@@@@@@@@@@@    +**************+ +**************+ +=++++=++=+=++=+ +++=++=++=+=++=+ =+++=+=++=+=++=+ =+=++=+=++=+=++= +#############++.++=*###*+#*=++++.+++============= =====+++++++++++  #########################    +**************+ +**************+ +=++++=++=+=++=+ +++=++=++=+=++=+ =+++=+=++=+=++=+ =+=++=+=++=+=++= +$$$$$$$$$$$$$++.++=*$$$*+$*=++++.+++============= =====+++++++++++  $$$$$$$$$$$$$$$$$$$$$$$$$    +**************+ +**************+ +=++++=++=+=++=+ +++=++=++=+=++=+ =+++=+=++=+=++=+ =+=++=+=++=+=++= +%%%%%%%%%%%%%++.++=*%%%*+%*=++++.+++============= =====+++++++++++  %%%%%%%%%%%%%%%%%%%%%%%%%    +**************+ +**************+ +-++++-++-+-++-+ +++-++-++-+-++-+ -+++-+-++-+-++-+ -+-++-+-++-+-++- +&&&&&&&&&&&&&++.++-*&&&*+&*-++++.+++------------- -----+++++++++++  &&&&&&&&&&&&&&&&&&&&&&&&&   ",
" +**@@**@@**@@**+ +**@@**@@**@@**+ =====++==+++==++ +++=+++==+++==++ +===+++==+++==++ =++==+++==+++==+ ++@@@@@@@@@@@+++.++=@*+@@@@@*=+++.++++============ ======++++++++++  @@@@@@@@@@@@@@@@@@@@@@@@@    +**##**##**##**+ +**##**##**##**+ =====++==+++==++ +++=+++==+++==++ +===+++==+++==++ =++==+++==+++==+ ++###########+++.++=#*+#####*=+++.++++============ ======++++++++++  #########################    +**$$**$$**$$**+ +**$$**$$**$$**+ =====++==+++==++ +++=+++==+++==++ +===+++==+++==++ =++==+++==+++==+ ++$$$$$$$$$$$+++.++=$*+$$$$$*=+++.++++============ ======++++++++++  $$$$$$$$$$$$$$$$$$$$$$$$$    +**%%**%%**%%**+ +**%%**%%**%%**+ =====++==+++==++ +++=+++==+++==++ +===+++==+++==++ =++==+++==+++==+ ++%%%%%%%%%%%+++.++=%*+%%%%%*=+++.++++============ ======++++++++++  %%%%%%%%%%%%%%%%%%%%%%%%%    +**&&**&&**&&**+ +**&&**&&**&&**+ -----++--+++--++ +++-+++--+++--++ +---+++--+++--++ -++--+++--+++--+ ++&&&&&&&&&&&+++.++-&*+&&&&&*-+++.++++------------ ------++++++++++  &&&&&&&&&&&&&&&&&&&&&&&&&   ",
" +*@**@@**@@**@*+ +*@**@@**@@**@*+ ++++++++++++++++ ++++++++++++++++ ++++++++++++++++ ++++++++++++++++ ++@@@@@@@@@@@+++.+++=*++**@+@=+++.+++++=========== =======+++++++++  @@@@@@@@@@@@@@@@@@@@@@@@@    +*#**##**##**#*+ +*#**##**##**#*+ ++++++++++++++++ ++++++++++++++++ ++++++++++++++++ ++++++++++++++++ ++###########+++.+++=*++**#+#=+++.+++++=========== =======+++++++++  #########################    +*$**$$**$$**$*+ +*$**$$**$$**$*+ ++++++++++++++++ ++++++++++++++++ ++++++++++++++++ ++++++++++++++++ ++$$$$$$$$$$$+++.+++=*++**$+$=+++.+++++=========== =======+++++++++  $$$$$$$$$$$$$$$$$$$$$$$$$    +*%**%%**%%**%*+ +*%**%%**%%**%*+ ++++++++++++++++ ++++++++++++++++ ++++++++++++++++ ++++++++++++++++ ++%%%%%%%%%%%+++.+++=*++**%+%=+++.+++++=========== =======+++++++++  %%%%%%%%%%%%%%%%%%%%%%%%%    +*&**&&**&&**&*+ +*&**&&**&&**&*+ ++++++++++++++++ ++++++++++++++++ ++++++++++++++++ ++++++++++++++++ ++&&&&&&&&&&&+++.+++-*++**&+&-+++.+++++----------- -------+++++++++  &&&&&&&&&&&&&&&&&&&&&&&&&   ",
" +**************+ +**************+ ++++++++++++++++ ++++++++++++++++ ++++++++++++++++ ++++++++++++++++ +++@@@@@@@@@++++.+++==**==**==+++.++++++========== ========++++++++  @@@@@@@@@@@@@@@@@@@@@@@@@    +**************+ +**************+ ++++++++++++++++ ++++++++++++++++ ++++++++++++++++ ++++++++++++++++ +++#########++++.+++==**==**==+++.++++++========== ========++++++++  #########################    +**************+ +**************+ ++++++++++++++++ ++++++++++++++++ ++++++++++++++++ ++++++++++++++++ +++$$$$$$$$$++++.+++==**==**==+++.++++++========== ========++++++++  $$$$$$$$$$$$$$$$$$$$$$$$$    +**************+ +**************+ ++++++++++++++++ ++++++++++++++++ ++++++++++++++++ ++++++++++++++++ +++%%%%%%%%%++++.+++==**==**==+++.++++++========== ========++++++++  %%%%%%%%%%%%%%%%%%%%%%%%%    +**************+ +**************+ ++++++++++++++++ ++++++++++++++++ ++++++++++++++++ ++++++++++++++++ +++&&&&&&&&&++++.+++--**--**--+++.++++++---------- --------++++++++  &&&&&&&&&&&&&&&&&&&&&&&&&   ",
" +**+***++***+**+ +****+****+****+ ++++++++++++++++ ++++++++++++++++ ++++++++++++++++ ++++++++++++++++ +++++@@@@@++++++.++==+==++==+==++.+++++++========= ========++++++++  @@@@@@@@@@@@@@@@@@@@@@@@@    +**+***++***+**+ +****+****+****+ ++++++++++++++++ ++++++++++++++++ ++++++++++++++++ ++++++++++++++++ +++++#####++++++.++==+==++==+==++.+++++++========= ========++++++++  #########################    +**+***++***+**+ +****+****+****+ ++++++++++++++++ ++++++++++++++++ ++++++++++++++++ ++++++++++++++++ +++++$$$$$++++++.++==+==++==+==++.+++++++========= ========++++++++  $$$$$$$$$$$$$$$$$$$$$$$$$    +**+***++***+**+ +****+****+****+ ++++++++++++++++ ++++++++++++++++ ++++++++++++++++ ++++++++++++++++ +++++%%%%%++++++.++==+==++==+==++.+++++++========= ========++++++++  %%%%%%%%%%%%%%%%%%%%%%%%%    +**+***++***+**+ +****+****+****+ ++++++++++++++++ ++++++++++++++++ ++++++++++++++++ ++++++++++++++++ +++++&&&&&++++++.++--+--++--+--++.+++++++--------- --------++++++++  &&&&&&&&&&&&&&&&&&&&&&&&&   ",
" +*+++**++**+++*+ ++**+++**+++**++ ++++++++++++++++ ++++++++++++++++ ++++++++++++++++ ++++++++++++++++ ++++++++++++++++.+=++++++++++++=+.+++++++++======= =======+++++++++  @@@@@@@@@@@@@@@@@@@@@@@@@    +*+++**++**+++*+ ++**+++**+++**++ ++++++++++++++++ ++++++++++++++++ ++++++++++++++++ ++++++++++++++++ ++++++++++++++++.+=++++++++++++=+.+++++++++======= =======+++++++++  #########################    +*+++**++**+++*+ ++**+++**+++**++ ++++++++++++++++ ++++++++++++++++ ++++++++++++++++ ++++++++++++++++ ++++++++++++++++.+=++++++++++++=+.+++++++++======= =======+++++++++  $$$$$$$$$$$$$$$$$$$$$$$$$    +*+++**++**+++*+ ++**+++**+++**++ ++++++++++++++++ ++++++++++++++++ ++++++++++++++++ ++++++++++++++++ ++++++++++++++++.+=++++++++++++=+.+++++++++======= =======+++++++++  %%%%%%%%%%%%%%%%%%%%%%%%%    +*+++**++**+++*+ ++**+++**+++**++ ++++++++++++++++ ++++++++++++++++ ++++++++++++++++ ++++++++++++++++ ++++++++++++++++.+-++++++++++++-+.+++++++++------- -------+++++++++  &&&&&&&&&&&&&&&&&&&&&&&&&   ",
" ++++++++++++++++ ++++++++++++++++ ++++++++++++++++ ++++++++++++++++ ++++++++++++++++ ++++++++++++++++ ++++++++++++++++.=++++++++++++++=.++++++++++++==== ====++++++++++++                               ++++++++++++++++ ++++++++++++++++ ++++++++++++++++ ++++++++++++++++ ++++++++++++++++ ++++++++++++++++ ++++++++++++++++.=++++++++++++++=.++++++++++++==== ====++++++++++++                               ++++++++++++++++ ++++++++++++++++ ++++++++++++++++ ++++++++++++++++ ++++++++++++++++ ++++++++++++++++ ++++++++++++++++.=++++++++++++++=.++++++++++++==== ====++++++++++++                               ++++++++++++++++ ++++++++++++++++ ++++++++++++++++ ++++++++++++++++ ++++++++++++++++ ++++++++++++++++ ++++++++++++++++.=++++++++++++++=.++++++++++++==== ====++++++++++++                               ++++++++++++++++ ++++++++++++++++ ++++++++++++++++ ++++++++++++++++ ++++++++++++++++ ++++++++++++++++ ++++++++++++++++.-++++++++++++++-.++++++++++++---- ----++++++++++++                              ",
"                                                                                                                       ..................                                                                                                                                                                                      ..................                                                                                                                                                                                      ..................                                                                                                                                                                                      ..................                                                                                                                                                                                      ..................                                                               ",
"                                                                                                                                                                                                                                                                                                                                                                                                                                                                                                                                                                                                                                                                                                                                                                                                                                                                                                                                                                                                                                        ",
"                                                                                          .......................................................                                                                                                                                                 .......................................................                                                                                                                                                 .......................................................                                                                                                                                                 .......................................................                                                                                                                                                 .......................................................                                                       ",
" ++++++++ ++++++++ ++++++++ ++++++++ ++++++++ ++++++++ ++++++++ ++++++++ ++++++++ ++++++++.++++++++.++++++++.++++++++.++++++++.++++++++.++++++++.++++++++ ++++++++ ++++++++ ++++++++ ++++++++ ++++++++   ++++++++ ++++++++ ++++++++ ++++++++ ++++++++ ++++++++ ++++++++ ++++++++ ++++++++ ++++++++.++++++++.++++++++.++++++++.++++++++.++++++++.++++++++.++++++++ ++++++++ ++++++++ ++++++++ ++++++++ ++++++++   ++++++++ ++++++++ ++++++++ ++++++++ ++++++++ ++++++++ ++++++++ ++++++++ ++++++++ ++++++++.++++++++.++++++++.++++++++.++++++++.++++++++.++++++++.++++++++ ++++++++ ++++++++ ++++++++ ++++++++ ++++++++   ++++++++ ++++++++ ++++++++ ++++++++ ++++++++ ++++++++ ++++++++ ++++++++ ++++++++ ++++++++.++++++++.++++++++.++++++++.++++++++.++++++++.++++++++.++++++++ ++++++++ ++++++++ ++++++++ ++++++++ ++++++++   ++++++++ ++++++++ ++++++++ ++++++++ ++++++++ ++++++++ ++++++++ ++++++++ ++++++++ ++++++++.++++++++.++++++++.++++++++.++++++++.++++++++.++++++++.++++++++ ++++++++ ++++++++ ++++++++ ++++++++ ++++++++  ",
" +++@@@++ ++++@@++ ++@@@@@+ ++@@@@@@ ++++@@@+ +@@@@@@+ +++@@@@+ +@@@@@@@ ++@@@@++ ++@@@@@+.+++@@@++.+@@@@@@+.+++@@@@+.+@@@@@++.++@@@@@@.+@@@@@@@.++++++++ ++++++++ ++++++++ ++++++++ ++++++++ ++++++++   ++++++++ ++++++++ ++++++++ ++++++++ ++++++++ ++++++++ ++++++++ ++++++++ ++++++++ ++++++++.++++++++.++++++++.++++++++.++++++++.++++++++.++++++++.++++++++ ++++++++ ++++++++ ++++++++ ++++++++ ++++++++   +++;;;++ ++++;;++ ++;;;;;+ ++;;;;;; ++++;;;+ +;;;;;;+ +++;;;;+ +;;;;;;; ++;;;;++ ++;;;;;+.+++;;;++.+;;;;;;+.+++;;;;+.+;;;;;++.++;;;;;;.+;;;;;;;.++++++++ ++++++++ ++++++++ ++++++++ ++++++++ ++++++++   +++***++ ++++**++ ++*****+ ++****** ++++***+ +******+ +++****+ +******* ++****++ ++*****+.+++***++.+******+.+++****+.+*****++.++******.+*******.++++++++ ++++++++ ++++++++ ++++++++ ++++++++ ++++++++   +++===++ ++++==++ ++=====+ ++====== ++++===+ +======+ +++====+ +======= ++====++ ++=====+.+++===++.+======+.+++====+.+=====++.++======.+=======.++++++++ ++++++++ ++++++++ ++++++++ ++++++++ ++++++++  ",
" ++@++@@+ +++@@@++ +@@+++@@ +++++@@+ +++@@@@+ +@@+++++ ++@@++++ +@@+++@@ +@@+++@+ +@@+++@@.++@@+@@+.+@@+++@@.++@@++@@.+@@++@@+.++@@++++.+@@+++++.++++++++ ++++++++ ++++++++ ++++++++ ++++++++ ++++++++   ++++++++ ++++++++ ++++++++ ++++++++ ++++++++ ++++++++ ++++++++ ++++++++ ++++++++ ++++++++.++++++++.++++++++.++++++++.++++++++.++++++++.++++++++.++++++++ ++++++++ ++++++++ ++++++++ ++++++++ ++++++++   ++;++;;+ +++;;;++ +;;+++;; +++++;;+ +++;;;;+ +;;+++++ ++;;++++ +;;+++;; +;;+++;+ +;;+++;;.++;;+;;+.+;;+++;;.++;;++;;.+;;++;;+.++;;++++.+;;+++++.++++++++ ++++++++ ++++++++ ++++++++ ++++++++ ++++++++   ++*++**+ +++***++ +**+++** +++++**+ +++****+ +**+++++ ++**++++ +**+++** +**+++*+ +**+++**.++**+**+.+**+++**.++**++**.+**++**+.++**++++.+**+++++.++++++++ ++++++++ ++++++++ ++++++++ ++++++++ ++++++++   ++=++==+ +++===++ +==+++== +++++==+ +++====+ +==+++++ ++==++++ +==+++== +==+++=+ +==+++==.++==+==+.+==+++==.++==++==.+==++==+.++==++++.+==+++++.++++++++ ++++++++ ++++++++ ++++++++ ++++++++ ++++++++  ",
" +@@+++@@ ++++@@++ +++++@@@ ++++@@++ ++@@+@@+ +@@@@@@+ +@@+++++ +++++@@+ +@@@++@+ +@@+++@@.+@@+++@@.+@@+++@@.+@@+++++.+@@+++@@.++@@++++.+@@+++++.++++++++ ++++++++ ++++++++ ++++++++ ++++++++ ++++++++   ++++++++ ++++++++ ++++++++ ++++++++ ++++++++ ++++++++ ++++++++ ++++++++ ++++++++ ++++++++.++++++++.++++++++.++++++++.++++++++.++++++++.++++++++.++++++++ ++++++++ ++++++++ ++++++++ ++++++++ ++++++++   +;;+++;; ++++;;++ +++++;;; ++++;;++ ++;;+;;+ +;;;;;;+ +;;+++++ +++++;;+ +;;;++;+ +;;+++;;.+;;+++;;.+;;+++;;.+;;+++++.+;;+++;;.++;;++++.+;;+++++.++++++++ ++++++++ ++++++++ ++++++++ ++++++++ ++++++++   +**+++** ++++**++ +++++*** ++++**++ ++**+**+ +******+ +**+++++ +++++**+ +***++*+ +**+++**.+**+++**.+**+++**.+**+++++.+**+++**.++**++++.+**+++++.++++++++ ++++++++ ++++++++ ++++++++ ++++++++ ++++++++   +==+++== ++++==++ +++++=== ++++==++ ++==+==+ +======+ +==+++++ +++++==+ +===++=+ +==+++==.+==+++==.+==+++==.+==+++++.+==+++==.++==++++.+==+++++.++++++++ ++++++++ ++++++++ ++++++++ ++++++++ ++++++++  ",
" +@@+++@@ ++++@@++ +++@@@@+ +++@@@@+ +@@++@@+ ++++++@@ +@@@@@@+ ++++@@++ ++@@@@++ ++@@@@@@.+@@+++@@.+@@@@@@+.+@@+++++.+@@+++@@.++@@@@@+.+@@@@@@+.++++++@@ @@@@@@@@ @@++++++ ++++@@@@ @@@@@@@@ @@@@++++   ++++++++ ++++++++ ++++++++ ++++++++ ++++++++ ++++++++ ++++++++ ++++++++ ++++++++ ++++++++.++++++++.++++++++.++++++++.++++++++.++++++++.++++++++.++++++++ ++++++++ ++++++++ ++++++++ ++++++++ ++++++++   +;;+++;; ++++;;++ +++;;;;+ +++;;;;+ +;;++;;+ ++++++;; +;;;;;;+ ++++;;++ ++;;;;++ ++;;;;;;.+;;+++;;.+;;;;;;+.+;;+++++.+;;+++;;.++;;;;;+.+;;;;;;+.++++++;; ;;;;;;;; ;;++++++ ++++;;;; ;;;;;;;; ;;;;++++   +**+++** ++++**++ +++****+ +++****+ +**++**+ ++++++** +******+ ++++**++ ++****++ ++******.+**+++**.+******+.+**+++++.+**+++**.++*****+.+******+.++++++** ******** **++++++ ++++**** ******** ****++++   +==+++== ++++==++ +++====+ +++====+ +==++==+ ++++++== +======+ ++++==++ ++====++ ++======.+==+++==.+======+.+==+++++.+==+++==.++=====+.+======+.++++++== ======== ==++++++ ++++==== ======== ====++++  ",
" +@@+++@@ ++++@@++ ++@@@@++ ++++++@@ +@@@@@@@ ++++++@@ +@@+++@@ +++@@+++ +@++@@@@ ++++++@@.+@@@@@@@.+@@+++@@.+@@+++++.+@@+++@@.++@@++++.+@@+++++.+++++@== ======== ==@+++++ ++++@=== ======== ===@++++   ++++++++ ++++++++ ++++++++ ++++++++ ++++++++ ++++++++ ++++++++ ++++++++ ++++++++ ++++++++.++++++++.++++++++.++++++++.++++++++.++++++++.++++++++.++++++** ******** **++++++ +++++*** ******** ***+++++   +;;+++;; ++++;;++ ++;;;;++ ++++++;; +;;;;;;; ++++++;; +;;+++;; +++;;+++ +;++;;;; ++++++;;.+;;;;;;;.+;;+++;;.+;;+++++.+;;+++;;.++;;++++.+;;+++++.+++++;## ######## ##;+++++ ++++;### ######## ###;++++   +**+++** ++++**++ ++****++ ++++++** +******* ++++++** +**+++** +++**+++ +*++**** ++++++**.+*******.+**+++**.+**+++++.+**+++**.++**++++.+**+++++.+++++*++ ++++++++ ++*+++++ ++++*+++ ++++++++ +++*++++   +==+++== ++++==++ ++====++ ++++++== +======= ++++++== +==+++== +++==+++ +=++==== ++++++==.+=======.+==+++==.+==+++++.+==+++==.++==++++.+==+++++.+++++=++ ++++++++ ++=+++++ ++++=+++ ++++++++ +++=++++  ",
" ++@@++@+ ++++@@++ +@@@++++ +@@+++@@ +++++@@+ +@@+++@@ +@@+++@@ +++@@+++ +@++++@@ +++++@@+.+@@+++@@.+@@+++@@.++@@++@@.+@@++@@+.++@@++++.+@@+++++.++++@=== ======== ===@++++ ++++@=== ======== ===@++++   ++++++++ ++++++++ ++++++++ ++++++++ ++++++++ ++++++++ ++++++++ ++++++++ ++++++++ ++++++++.++++++++.++++++++.++++++++.++++++++.++++++++.++++++++.+++++*** ******** ***+++++ +++++*** ******** ***+++++   ++;;++;+ ++++;;++ +;;;++++ +;;+++;; +++++;;+ +;;+++;; +;;+++;; +++;;+++ +;++++;; +++++;;+.+;;+++;;.+;;+++;;.++;;++;;.+;;++;;+.++;;++++.+;;+++++.++++;### ######## ###;++++ ++++;### ######## ###;++++   ++**++*+ ++++**++ +***++++ +**+++** +++++**+ +**+++** +**+++** +++**+++ +*++++** +++++**+.+**+++**.+**+++**.++**++**.+**++**+.++**++++.+**+++++.++++*+++ ++++++++ +++*++++ ++++*+++ ++++++++ +++*++++   ++==++=+ ++++==++ +===++++ +==+++== +++++==+ +==+++== +==+++== +++==+++ +=++++== +++++==+.+==+++==.+==+++==.++==++==.+==++==+.++==++++.+==+++++.++++=+++ ++++++++ +++=++++ ++++=+++ ++++++++ +++=++++  ",
" +++@@@++ ++@@@@@@ +@@@@@@@ ++@@@@@+ +++++@@+ ++@@@@@+ ++@@@@@+ +++@@+++ ++@@@@@+ ++@@@@++.+@@+++@@.+@@@@@@+.+++@@@@+.+@@@@@++.++@@@@@@.+@@+++++.++++@=== ======== ===@++++ ++++@==@ @@@@@@@@ @==@++++   ++++++++ ++++++++ ++++++++ ++++++++ ++++++++ ++++++++ ++++++++ ++++++++ ++++++++ ++++++++.++++++++.++++++++.++++++++.++++++++.++++++++.++++++++.+++++*** ******** ***+++++ +++++**+ ++++++++ +**+++++   +++;;;++ ++;;;;;; +;;;;;;; ++;;;;;+ +++++;;+ ++;;;;;+ ++;;;;;+ +++;;+++ ++;;;;;+ ++;;;;++.+;;+++;;.+;;;;;;+.+++;;;;+.+;;;;;++.++;;;;;;.+;;+++++.++++;### ######## ###;++++ ++++;##; ;;;;;;;; ;##;++++   +++***++ ++****** +******* ++*****+ +++++**+ ++*****+ ++*****+ +++**+++ ++*****+ ++****++.+**+++**.+******+.+++****+.+*****++.++******.+**+++++.++++*+++ ++++++++ +++*++++ ++++*++* ******** *++*++++   +++===++ ++====== +======= ++=====+ +++++==+ ++=====+ ++=====+ +++==+++ ++=====+ ++====++.+==+++==.+======+.+++====+.+=====++.++======.+==+++++.++++=+++ ++++++++ +++=++++ ++++=++= ======== =++=++++  ",
"                                                                                          .......................................................                                                                                                                                                 .......................................................                                                                                                                                                 .......................................................                                                                                                                                                 .......................................................                                                                                                                                                 .......................................................                                                       ",
" @@@@@@@+ +++@@@@@ @+++@@@@ @@@@@+++ +@@@@@@@ +++@@@@@ @+++++++ ++++++++ ++++++++ ++++++++ +++++++@ ++++++++ ++++++++ ++++++++ ++++++++ ++++++++ ++++@=== ======== ===@++++ ++++@==@ ++++++++ @==@++++   ++++++++ ++++++++ ++++++++ ++++++++ ++++++++ ++++++++ ++++++++ ++++++++ ++++++++ ++++++++ ++++++++ ++++++++ ++++++++ ++++++++ ++++++++ ++++++++ +++++*** ******** ***+++++ +++++**+ ++++++++ +**+++++   ;;;;;;;+ +++;;;;; ;+++;;;; ;;;;;+++ +;;;;;;; +++;;;;; ;+++++++ ++++++++ ++++++++ ++++++++ +++++++; ++++++++ ++++++++ ++++++++ ++++++++ ++++++++ ++++;### ######## ###;++++ ++++;##; ++++++++ ;##;++++   *******+ +++***** *+++**** *****+++ +******* +++***** *+++++++ ++++++++ ++++++++ ++++++++ +++++++* ++++++++ ++++++++ ++++++++ ++++++++ ++++++++ ++++*+++ ++++++++ +++*++++ ++++*++* ++++++++ *++*++++   =======+ +++===== =+++==== =====+++ +======= +++===== =+++++++ ++++++++ ++++++++ ++++++++ +++++++= ++++++++ ++++++++ ++++++++ ++++++++ ++++++++ ++++=+++ ++++++++ +++=++++ ++++=++= ++++++++ =++=++++  ",
" @@@@@@@@ +++@@@@@ @@++@@@@ @@@@@@++ @@@@@@@@ ++@@@@@@ @@++++++ ++++++++ ++++++++ ++++++++ ++++++@+ ++++++++ ++++++++ ++++++++ ++++++++ ++++++++ ++++@=== ======== ===@++++ ++++@==@ ++++++++ @==@++++   ++++++++ ++++++++ ++++++++ ++++++++ ++++++++ ++++++++ ++++++++ ++++++++ ++++++++ ++++++++ ++++++++ ++++++++ ++++++++ ++++++++ ++++++++ ++++++++ +++++*** ******** ***+++++ +++++**+ ++++++++ +**+++++   ;;;;;;;; +++;;;;; ;;++;;;; ;;;;;;++ ;;;;;;;; ++;;;;;; ;;++++++ ++++++++ ++++++++ ++++++++ ++++++;+ ++++++++ ++++++++ ++++++++ ++++++++ ++++++++ ++++;### ######## ###;++++ ++++;##; ++++++++ ;##;++++   ******** +++***** **++**** ******++ ******** ++****** **++++++ ++++++++ ++++++++ ++++++++ ++++++*+ ++++++++ ++++++++ ++++++++ ++++++++ ++++++++ ++++*+++ ++++++++ +++*++++ ++++*++* ++++++++ *++*++++   ======== +++===== ==++==== ======++ ======== ++====== ==++++++ ++++++++ ++++++++ ++++++++ ++++++=+ ++++++++ ++++++++ ++++++++ ++++++++ ++++++++ ++++=+++ ++++++++ +++=++++ ++++=++= ++++++++ =++=++++  ",
" @@++++@@ ++++++++ @@++@@++ @@++@@++ @@++++++ ++@@++++ @@++++++ @@@@++@@ @@@++@@@ @+++++++ +++++@++ ++++++++ ++++++++ ++++++++ ++++++++ ++++++++ ++++@=== ======== ===@++++ ++++@==@ ++++++++ @==@++++   ++++++++ ++++++++ ++++++++ ++++++++ ++++++++ ++++++++ ++++++++ ++++++++ ++++++++ ++++++++ ++++++++ ++++++++ ++++++++ ++++++++ ++++++++ ++++++++ +++++*** ******** ***+++++ +++++**+ ++++++++ +**+++++   ;;++++;; ++++++++ ;;++;;++ ;;++;;++ ;;++++++ ++;;++++ ;;++++++ ;;;;++;; ;;;++;;; ;+++++++ +++++;++ ++++++++ ++++++++ ++++++++ ++++++++ ++++++++ ++++;### ######## ###;++++ ++++;##; ++++++++ ;##;++++   **++++** ++++++++ **++**++ **++**++ **++++++ ++**++++ **++++++ ****++** ***++*** *+++++++ +++++*++ ++++++++ ++++++++ ++++++++ ++++++++ ++++++++ ++++*+++ ++++++++ +++*++++ ++++*++* ++++++++ *++*++++   ==++++== ++++++++ ==++==++ ==++==++ ==++++++ ++==++++ ==++++++ ====++== ===++=== =+++++++ +++++=++ ++++++++ ++++++++ ++++++++ ++++++++ ++++++++ ++++=+++ ++++++++ +++=++++ ++++=++= ++++++++ =++=++++  ",
" @@++++@@ ++@@@@@@ @@++@@++ @@++@@++ @@++++++ ++@@++++ @@++++++ @+++@+++ @+++@+++ ++++++++ ++++@+++ +++@@@++ ++++++++ ++++++++ ++++++++ +++--+++ ++++@=== ======== ===@++++ ++++@==@ ++++++++ @==@++++   ++++++++ ++++++++ ++++++++ ++++++++ ++++++++ ++++++++ ++++++++ ++++++++ ++++++++ ++++++++ ++++++++ ++++++++ ++++++++ ++++++++ ++++++++ +++==+++ +++++*** ******** ***+++++ +++++**+ ++++++++ +**+++++   ;;++++;; ++;;;;;; ;;++;;++ ;;++;;++ ;;++++++ ++;;++++ ;;++++++ ;+++;+++ ;+++;+++ ++++++++ ++++;+++ +++;;;++ ++++++++ ++++++++ ++++++++ +++$$+++ ++++;### ######## ###;++++ ++++;##; ++++++++ ;##;++++   **++++** ++****** **++**++ **++**++ **++++++ ++**++++ **++++++ *+++*+++ *+++*+++ ++++++++ ++++*+++ +++***++ ++++++++ ++++++++ ++++++++ +++&&+++ ++++*+++ ++++++++ +++*++++ ++++*++* ++++++++ *++*++++   ==++++== ++====== ==++==++ ==++==++ ==++++++ ++==++++ ==++++++ =+++=+++ =+++=+++ ++++++++ ++++=+++ +++===++ ++++++++ ++++++++ ++++++++ +++&&+++ ++++=+++ ++++++++ +++=++++ ++++=++= ++++++++ =++=++++  ",
" @@++++@@ ++@@@@@@ @@++@@++ @@++@@++ @@++++++ ++@@++++ @@++++++ @@@@++++ @++++@@@ ++++++++ +++@++++ ++++++++ ++++++++ ++++++@@ @@++++++ +++--+++ ++++@=== ======== ===@++++ ++++@==@ ++++++++ @==@++++   ++++++++ ++++++++ ++++++++ ++++++++ ++++++++ ++++++++ ++++++++ ++++++++ ++++++++ ++++++++ ++++++++ ++++++++ ++++++++ ++++++++ ++++++++ +++==+++ +++++*** ******** ***+++++ +++++**+ ++++++++ +**+++++   ;;++++;; ++;;;;;; ;;++;;++ ;;++;;++ ;;++++++ ++;;++++ ;;++++++ ;;;;++++ ;++++;;; ++++++++ +++;++++ ++++++++ ++++++++ ++++++;; ;;++++++ +++$$+++ ++++;### ######## ###;++++ ++++;##; ++++++++ ;##;++++   **++++** ++****** **++**++ **++**++ **++++++ ++**++++ **++++++ ****++++ *++++*** ++++++++ +++*++++ ++++++++ ++++++++ ++++++** **++++++ +++&&+++ ++++*+++ ++++++++ +++*++++ ++++*++* ++++++++ *++*++++   ==++++== ++====== ==++==++ ==++==++ ==++++++ ++==++++ ==++++++ ====++++ =++++=== ++++++++ +++=++++ ++++++++ ++++++++ ++++++== ==++++++ +++&&+++ ++++=+++ ++++++++ +++=++++ ++++=++= ++++++++ =++=++++  ",
" @@++++@@ ++@@++++ @@++@@++ @@++@@++ @@++++++ ++@@++++ @@++++++ @+++++++ @+++++++ @+++++++ ++@+++++ ++++++++ +@@+++++ ++++@@@@ @@@@++++ ++++++++ ++++@=== ======== ===@++++ ++++@==@ ++++++++ @==@++++   ++++++++ ++++++++ ++++++++ ++++++++ ++++++++ ++++++++ ++++++++ ++++++++ ++++++++ ++++++++ ++++++++ ++++++++ ++++++++ ++++++++ ++++++++ ++++++++ +++++*** ******** ***+++++ +++++**+ ++++++++ +**+++++   ;;++++;; ++;;++++ ;;++;;++ ;;++;;++ ;;++++++ ++;;++++ ;;++++++ ;+++++++ ;+++++++ ;+++++++ ++;+++++ ++++++++ +;;+++++ ++++;;;; ;;;;++++ ++++++++ ++++;### ######## ###;++++ ++++;##; ++++++++ ;##;++++   **++++** ++**++++ **++**++ **++**++ **++++++ ++**++++ **++++++ *+++++++ *+++++++ *+++++++ ++*+++++ ++++++++ +**+++++ ++++**** ****++++ ++++++++ ++++*+++ ++++++++ +++*++++ ++++*++* ++++++++ *++*++++   ==++++== ++==++++ ==++==++ ==++==++ ==++++++ ++==++++ ==++++++ =+++++++ =+++++++ =+++++++ ++=+++++ ++++++++ +==+++++ ++++==== ====++++ ++++++++ ++++=+++ ++++++++ +++=++++ ++++=++= ++++++++ =++=++++  ",
" @@++++@@ ++@@@@@@ @@++@@++ @@++@@++ @@@@@@@@ ++@@@@@@ @@++++++ @+++++++ @+++@@@@ ++++++++ +@++++++ ++++++++ +@@+++++ +++@@@@@ @@@@@+++ ++++++++ ++++@=== ======== ===@++++ ++++@==@ ++++++++ @==@++++   ++++++++ ++++++++ ++++++++ ++++++++ ++++++++ ++++++++ ++++++++ ++++++++ ++++++++ ++++++++ ++++++++ ++++++++ ++++++++ ++++++++ ++++++++ ++++++++ +++++*** ******** ***+++++ +++++**+ ++++++++ +**+++++   ;;++++;; ++;;;;;; ;;++;;++ ;;++;;++ ;;;;;;;; ++;;;;;; ;;++++++ ;+++++++ ;+++;;;; ++++++++ +;++++++ ++++++++ +;;+++++ +++;;;;; ;;;;;+++ ++++++++ ++++;### ######## ###;++++ ++++;##; ++++++++ ;##;++++   **++++** ++****** **++**++ **++**++ ******** ++****** **++++++ *+++++++ *+++**** ++++++++ +*++++++ ++++++++ +**+++++ +++***** *****+++ ++++++++ ++++*+++ ++++++++ +++*++++ ++++*++* ++++++++ *++*++++   ==++++== ++====== ==++==++ ==++==++ ======== ++====== ==++++++ =+++++++ =+++==== ++++++++ +=++++++ ++++++++ +==+++++ +++===== =====+++ ++++++++ ++++=+++ ++++++++ +++=++++ ++++=++= ++++++++ =++=++++  ",
" @@++++@@ ++@@@@@@ @@++@@++ @@++@@++ +@@@@@@@ +++@@@@@ @+++++++ ++++++++ ++++++++ ++++++++ ++++++++ ++++++++ ++++++++ ++@@@--@ @@@--@++ ++++++++ ++++@=== ======== ===@++++ ++++@==@ ++++++++ @==@++++   ++++++++ ++++++++ ++++++++ ++++++++ ++++++++ ++++++++ ++++++++ ++++++++ ++++++++ ++++++++ ++++++++ ++++++++ ++++++++ +++++==+ +++==+++ ++++++++ +++++*** ******** ***+++++ +++++**+ ++++++++ +**+++++   ;;++++;; ++;;;;;; ;;++;;++ ;;++;;++ +;;;;;;; +++;;;;; ;+++++++ ++++++++ ++++++++ ++++++++ ++++++++ ++++++++ ++++++++ ++;;;$$; ;;;$$;++ ++++++++ ++++;### ######## ###;++++ ++++;##; ++++++++ ;##;++++   **++++** ++****** **++**++ **++**++ +******* +++***** *+++++++ ++++++++ ++++++++ ++++++++ ++++++++ ++++++++ ++++++++ ++***&&* ***&&*++ ++++++++ ++++*+++ ++++++++ +++*++++ ++++*++* ++++++++ *++*++++   ==++++== ++====== ==++==++ ==++==++ +======= +++===== =+++++++ ++++++++ ++++++++ ++++++++ ++++++++ ++++++++ ++++++++ ++===&&= ===&&=++ ++++++++ ++++=+++ ++++++++ +++=++++ ++++=++= ++++++++ =++=++++  ",
"                                                                                                                                       ..........                                                                                                                                                                                              ..........                                                                                                                                                                                              ..........                                                                                                                                                                                              ..........                                                                                                                                                                                              ..........                                                       ",
" +++@@@++ ++++@@++ ++@@@@@+ ++@@@@@@ ++++@@@+ +@@@@@@+ +++@@@@+ +@@@@@@@ ++@@@@++ ++@@@@@+ ++@@+@@+ ++@@@@++ ++++@@@+ ++@@---- @@----++.++++++++.++++@=== ======== ===@++++ ++++@==@ @@@@@@@@ @==@++++   ++++++++ ++++++++ ++++++++ ++++++++ ++++++++ ++++++++ ++++++++ ++++++++ ++++++++ ++++++++ ++++++++ ++++++++ ++++++++ ++++==== ++====++.++++++++.+++++*** ******** ***+++++ +++++**+ ++++++++ +**+++++   +++;;;++ ++++;;++ ++;;;;;+ ++;;;;;; ++++;;;+ +;;;;;;+ +++;;;;+ +;;;;;;; ++;;;;++ ++;;;;;+ ++;;+;;+ ++;;;;++ ++++;;;+ ++;;$$$$ ;;$$$$++.++++++++.++++;### ######## ###;++++ ++++;##; ;;;;;;;; ;##;++++   +++***++ ++++**++ ++*****+ ++****** ++++***+ +******+ +++****+ +******* ++****++ ++*****+ ++**+**+ ++****++ ++++***+ ++**&&&& **&&&&++.++++++++.++++*+++ ++++++++ +++*++++ ++++*++* ******** *++*++++   +++===++ ++++==++ ++=====+ ++====== ++++===+ +======+ +++====+ +======= ++====++ ++=====+ ++==+==+ ++====++ ++++===+ ++==&&&& ==&&&&++.++++++++.++++=+++ ++++++++ +++=++++ ++++=++= ======== =++=++++  ",
" ++@++@@+ +++@@@++ +@@+++@@ +++++@@+ +++@@@@+ +@@+++++ ++@@++++ +@@+++@@ +@@+++@+ +@@+++@@ ++@@+@@+ +@++++@+ ++++@@@+ ++@@--== @@--==++.++++++++.++++@=== ======== ===@++++ ++++@=== ======== ===@++++   ++++++++ ++++++++ ++++++++ ++++++++ ++++++++ ++++++++ ++++++++ ++++++++ ++++++++ ++++++++ ++++++++ ++++++++ ++++++++ ++++==** ++==**++.++++++++.+++++*** ******** ***+++++ +++++*** ******** ***+++++   ++;++;;+ +++;;;++ +;;+++;; +++++;;+ +++;;;;+ +;;+++++ ++;;++++ +;;+++;; +;;+++;+ +;;+++;; ++;;+;;+ +;++++;+ ++++;;;+ ++;;$$## ;;$$##++.++++++++.++++;### ######## ###;++++ ++++;### ######## ###;++++   ++*++**+ +++***++ +**+++** +++++**+ +++****+ +**+++++ ++**++++ +**+++** +**+++*+ +**+++** ++**+**+ +*++++*+ ++++***+ ++**&&++ **&&++++.++++++++.++++*+++ ++++++++ +++*++++ ++++*+++ ++++++++ +++*++++   ++=++==+ +++===++ +==+++== +++++==+ +++====+ +==+++++ ++==++++ +==+++== +==+++=+ +==+++== ++==+==+ +=++++=+ ++++===+ ++==&&++ ==&&++++.++++++++.++++=+++ ++++++++ +++=++++ ++++=+++ ++++++++ +++=++++  ",
" +@@+++@@ ++++@@++ +++++@@@ ++++@@++ ++@@+@@+ +@@@@@@+ +@@+++++ +++++@@+ +@@@++@+ +@@+++@@ +++@++@+ @++@@++@ +++@@@++ +@@@--== @@--==@+.+++--+++.+++++@== ======== ==@+++++ ++++@=== ======== ===@++++   ++++++++ ++++++++ ++++++++ ++++++++ ++++++++ ++++++++ ++++++++ ++++++++ ++++++++ ++++++++ ++++++++ ++++++++ ++++++++ ++++==** ++==**++.+++==+++.++++++** ******** **++++++ +++++*** ******** ***+++++   +;;+++;; ++++;;++ +++++;;; ++++;;++ ++;;+;;+ +;;;;;;+ +;;+++++ +++++;;+ +;;;++;+ +;;+++;; +++;++;+ ;++;;++; +++;;;++ +;;;$$## ;;$$##;+.+++$$+++.+++++;## ######## ##;+++++ ++++;### ######## ###;++++   +**+++** ++++**++ +++++*** ++++**++ ++**+**+ +******+ +**+++++ +++++**+ +***++*+ +**+++** +++*++*+ *++**++* +++***++ +***&&++ **&&++*+.+++&&+++.+++++*++ ++++++++ ++*+++++ ++++*+++ ++++++++ +++*++++   +==+++== ++++==++ +++++=== ++++==++ ++==+==+ +======+ +==+++++ +++++==+ +===++=+ +==+++== +++=++=+ =++==++= +++===++ +===&&++ ==&&++=+.+++&&+++.+++++=++ ++++++++ ++=+++++ ++++=+++ ++++++++ +++=++++  ",
" +@@+++@@ ++++@@++ +++@@@@+ +++@@@@+ +@@++@@+ ++++++@@ +@@@@@@+ ++++@@++ ++@@@@++ ++@@@@@@ ++@++@++ @+@++++@ +++@@+++ +@@@@--@ @@@--@@+.++----++.++++++@@ @@@@@@@@ @@++++++ ++++@@@@ @@@@@@@@ @@@@++++   ++++++++ ++++++++ ++++++++ ++++++++ ++++++++ ++++++++ ++++++++ ++++++++ ++++++++ ++++++++ ++++++++ ++++++++ ++++++++ +++++==+ +++==+++.++====++.++++++++ ++++++++ ++++++++ ++++++++ ++++++++ ++++++++   +;;+++;; ++++;;++ +++;;;;+ +++;;;;+ +;;++;;+ ++++++;; +;;;;;;+ ++++;;++ ++;;;;++ ++;;;;;; ++;++;++ ;+;++++; +++;;+++ +;;;;$$; ;;;$$;;+.++$$$$++.++++++;; ;;;;;;;; ;;++++++ ++++;;;; ;;;;;;;; ;;;;++++   +**+++** ++++**++ +++****+ +++****+ +**++**+ ++++++** +******+ ++++**++ ++****++ ++****** ++*++*++ *+*++++* +++**+++ +****&&* ***&&**+.++&&&&++.++++++** ******** **++++++ ++++**** ******** ****++++   +==+++== ++++==++ +++====+ +++====+ +==++==+ ++++++== +======+ ++++==++ ++====++ ++====== ++=++=++ =+=++++= +++==+++ +====&&= ===&&==+.++&&&&++.++++++== ======== ==++++++ ++++==== ======== ====++++  ",
" +@@+++@@ ++++@@++ ++@@@@++ ++++++@@ +@@@@@@@ ++++++@@ +@@+++@@ +++@@+++ +@++@@@@ ++++++@@ ++++++++ @+@++++@ +++@++++ +@@@@@@@ @@@@@@@+.++----++.++++++++ ++++++++ ++++++++ ++++++++ ++++++++ ++++++++   ++++++++ ++++++++ ++++++++ ++++++++ ++++++++ ++++++++ ++++++++ ++++++++ ++++++++ ++++++++ ++++++++ ++++++++ ++++++++ ++++++++ ++++++++.++====++.++++++++ ++++++++ ++++++++ ++++++++ ++++++++ ++++++++   +;;+++;; ++++;;++ ++;;;;++ ++++++;; +;;;;;;; ++++++;; +;;+++;; +++;;+++ +;++;;;; ++++++;; ++++++++ ;+;++++; +++;++++ +;;;;;;; ;;;;;;;+.++$$$$++.++++++++ ++++++++ ++++++++ ++++++++ ++++++++ ++++++++   +**+++** ++++**++ ++****++ ++++++** +******* ++++++** +**+++** +++**+++ +*++**** ++++++** ++++++++ *+*++++* +++*++++ +******* *******+.++&&&&++.++++++++ ++++++++ ++++++++ ++++++++ ++++++++ ++++++++   +==+++== ++++==++ ++====++ ++++++== +======= ++++++== +==+++== +++==+++ +=++==== ++++++== ++++++++ =+=++++= +++=++++ +======= =======+.++&&&&++.++++++++ ++++++++ ++++++++ ++++++++ ++++++++ ++++++++  ",
" ++@@++@+ ++++@@++ +@@@++++ +@@+++@@ +++++@@+ +@@+++@@ +@@+++@@ +++@@+++ +@++++@@ +++++@@+ ++++++++ @++@@++@ ++++++++ +@@@@@@@ @@@@@@@+.+++--+++.++++++++ ++++++++ ++++++++ ++++++++ ++++++++ ++++++++   ++++++++ ++++++++ ++++++++ ++++++++ ++++++++ ++++++++ ++++++++ ++++++++ ++++++++ ++++++++ ++++++++ ++++++++ ++++++++ ++++++++ ++++++++.+++==+++.++++++++ ++++++++ ++++++++ ++++++++ ++++++++ ++++++++   ++;;++;+ ++++;;++ +;;;++++ +;;+++;; +++++;;+ +;;+++;; +;;+++;; +++;;+++ +;++++;; +++++;;+ ++++++++ ;++;;++; ++++++++ +;;;;;;; ;;;;;;;+.+++$$+++.++++++++ ++++++++ ++++++++ ++++++++ ++++++++ ++++++++   ++**++*+ ++++**++ +***++++ +**+++** +++++**+ +**+++** +**+++** +++**+++ +*++++** +++++**+ ++++++++ *++**++* ++++++++ +******* *******+.+++&&+++.++++++++ ++++++++ ++++++++ ++++++++ ++++++++ ++++++++   ++==++=+ ++++==++ +===++++ +==+++== +++++==+ +==+++== +==+++== +++==+++ +=++++== +++++==+ ++++++++ =++==++= ++++++++ +======= =======+.+++&&+++.++++++++ ++++++++ ++++++++ ++++++++ ++++++++ ++++++++  ",
" +++@@@++ ++@@@@@@ +@@@@@@@ ++@@@@@+ +++++@@+ ++@@@@@+ ++@@@@@+ +++@@+++ ++@@@@@+ ++@@@@++ ++++++++ +@++++@+ ++@+++++ +@@@@@@@ @@@@@@@+.++++++++.++++++++ ++++++++ ++++++++ ++++++++ ++++++++ ++++++++   ++++++++ ++++++++ ++++++++ ++++++++ ++++++++ ++++++++ ++++++++ ++++++++ ++++++++ ++++++++ ++++++++ ++++++++ ++++++++ ++++++++ ++++++++.++++++++.++++++++ ++++++++ ++++++++ ++++++++ ++++++++ ++++++++   +++;;;++ ++;;;;;; +;;;;;;; ++;;;;;+ +++++;;+ ++;;;;;+ ++;;;;;+ +++;;+++ ++;;;;;+ ++;;;;++ ++++++++ +;++++;+ ++;+++++ +;;;;;;; ;;;;;;;+.++++++++.++++++++ ++++++++ ++++++++ ++++++++ ++++++++ ++++++++   +++***++ ++****** +******* ++*****+ +++++**+ ++*****+ ++*****+ +++**+++ ++*****+ ++****++ ++++++++ +*++++*+ ++*+++++ +******* *******+.++++++++.++++++++ ++++++++ ++++++++ ++++++++ ++++++++ ++++++++   +++===++ ++====== +======= ++=====+ +++++==+ ++=====+ ++=====+ +++==+++ ++=====+ ++====++ ++++++++ +=++++=+ ++=+++++ +======= =======+.++++++++.++++++++ ++++++++ ++++++++ ++++++++ ++++++++ ++++++++  ",
" ++++++++ ++++++++ ++++++++ ++++++++ ++++++++ ++++++++ ++++++++ ++++++++ ++++++++ ++++++++ ++++++++ ++@@@@++ ++++++++ +@@@@@@@ @@@@@@@+.++++++++.++++++++ ++++++++ ++++++++ ++++++++ ++++++++ ++++++++   ++++++++ ++++++++ ++++++++ ++++++++ ++++++++ ++++++++ ++++++++ ++++++++ ++++++++ ++++++++ ++++++++ ++++++++ ++++++++ ++++++++ ++++++++.++++++++.++++++++ ++++++++ ++++++++ ++++++++ ++++++++ ++++++++   ++++++++ ++++++++ ++++++++ ++++++++ ++++++++ ++++++++ ++++++++ ++++++++ ++++++++ ++++++++ ++++++++ ++;;;;++ ++++++++ +;;;;;;; ;;;;;;;+.++++++++.++++++++ ++++++++ ++++++++ ++++++++ ++++++++ ++++++++   ++++++++ ++++++++ ++++++++ ++++++++ ++++++++ ++++++++ ++++++++ ++++++++ ++++++++ ++++++++ ++++++++ ++****++ ++++++++ +******* *******+.++++++++.++++++++ ++++++++ ++++++++ ++++++++ ++++++++ ++++++++   ++++++++ ++++++++ ++++++++ ++++++++ ++++++++ ++++++++ ++++++++ ++++++++ ++++++++ ++++++++ ++++++++ ++====++ ++++++++ +======= =======+.++++++++.++++++++ ++++++++ ++++++++ ++++++++ ++++++++ ++++++++  ",
"                                                                                                                                       ..........                                   ...................                                                                                                                                        ..........                                   ...................                                                                                                                                        ..........                                   ...................                                                                                                                                        ..........                                   ...................                                                                                                                                        ..........                                   ................... ",
" +++@@@++ +@@@@@@+ +++@@@@+ +@@@@@++ ++@@@@@@ +@@@@@@@ +++@@@@@ +@@+++@@ ++@@@@@@ ++++++@@ +@@+++@@ ++@@++++ +@@+++@@ +@@+@@@+ +@@@+@@+ ++----++ ++++@@@@ @@@@@@@@ @@@@@@@@ @@@@++++.++++++++.++++++++.  ++++++++ ++++++++ ++++++++ ++++++++ ++++++++ ++++++++ ++++++++ ++++++++ ++++++++ ++++++++ ++++++++ ++++++++ ++++++++ ++++++++ ++++++++ ++====++ ++++++++ ++++++++ ++++++++ ++++++++.++++++++.++++++++.  +++;;;++ +;;;;;;+ +++;;;;+ +;;;;;++ ++;;;;;; +;;;;;;; +++;;;;; +;;+++;; ++;;;;;; ++++++;; +;;+++;; ++;;++++ +;;+++;; +;;+;;;+ +;;;+;;+ ++$$$$++ ++++;;;; ;;;;;;;; ;;;;;;;; ;;;;++++.++++++++.++++++++.  +++***++ +******+ +++****+ +*****++ ++****** +******* +++***** +**+++** ++****** ++++++** +**+++** ++**++++ +**+++** +**+***+ +***+**+ ++&&&&++ ++++**** ******** ******** ****++++.++++++++.++++++++.  +++===++ +======+ +++====+ +=====++ ++====== +======= +++===== +==+++== ++====== ++++++== +==+++== ++==++++ +==+++== +==+===+ +===+==+ ++&&&&++ ++++==== ======== ======== ====++++.++++++++.++++++++. ",
" ++@@+@@+ +@@+++@@ ++@@++@@ +@@++@@+ ++@@++++ +@@+++++ ++@@++++ +@@+++@@ ++++@@++ ++++++@@ +@@++@@+ ++@@++++ +@@@+@@@ +@+++@@+ +@@+++@+ +------+ ++@@==== ======== ======== ====@@++.++++++++.++++++++.  ++++++++ ++++++++ ++++++++ ++++++++ ++++++++ ++++++++ ++++++++ ++++++++ ++++++++ ++++++++ ++++++++ ++++++++ ++++++++ ++++++++ ++++++++ +======+ ++++**** ******** ******** ****++++.++++++++.++++++++.  ++;;+;;+ +;;+++;; ++;;++;; +;;++;;+ ++;;++++ +;;+++++ ++;;++++ +;;+++;; ++++;;++ ++++++;; +;;++;;+ ++;;++++ +;;;+;;; +;+++;;+ +;;+++;+ +$$$$$$+ ++;;#### ######## ######## ####;;++.++++++++.++++++++.  ++**+**+ +**+++** ++**++** +**++**+ ++**++++ +**+++++ ++**++++ +**+++** ++++**++ ++++++** +**++**+ ++**++++ +***+*** +*+++**+ +**+++*+ +&&&&&&+ ++**++++ ++++++++ ++++++++ ++++**++.++++++++.++++++++.  ++==+==+ +==+++== ++==++== +==++==+ ++==++++ +==+++++ ++==++++ +==+++== ++++==++ ++++++== +==++==+ ++==++++ +===+=== +=+++==+ +==+++=+ +&&&&&&+ ++==++++ ++++++++ ++++++++ ++++==++.++++++++.++++++++. ",
" +@@+++@@ +@@+++@@ +@@+++++ +@@+++@@ ++@@++++ +@@+++++ +@@+++++ +@@+++@@ ++++@@++ ++++++@@ +@@+@@++ ++@@++++ +@@@@@@@ ++++++++ ++++++++ -------- +@====== ======== ======== ======@+.++++++++.++++++++.  ++++++++ ++++++++ ++++++++ ++++++++ ++++++++ ++++++++ ++++++++ ++++++++ ++++++++ ++++++++ ++++++++ ++++++++ ++++++++ ++++++++ ++++++++ ======== ++****** ******** ******** ******++.++++++++.++++++++.  +;;+++;; +;;+++;; +;;+++++ +;;+++;; ++;;++++ +;;+++++ +;;+++++ +;;+++;; ++++;;++ ++++++;; +;;+;;++ ++;;++++ +;;;;;;; ++++++++ ++++++++ $$$$$$$$ +;###### ######## ######## ######;+.++++++++.++++++++.  +**+++** +**+++** +**+++++ +**+++** ++**++++ +**+++++ +**+++++ +**+++** ++++**++ ++++++** +**+**++ ++**++++ +******* ++++++++ ++++++++ &&&&&&&& +*++++++ ++++++++ ++++++++ ++++++*+.++++++++.++++++++.  +==+++== +==+++== +==+++++ +==+++== ++==++++ +==+++++ +==+++++ +==+++== ++++==++ ++++++== +==+==++ ++==++++ +======= ++++++++ ++++++++ &&&&&&&& +=++++++ ++++++++ ++++++++ ++++++=+.++++++++.++++++++. ",
" +@@+++@@ +@@@@@@+ +@@+++++ +@@+++@@ ++@@@@@+ +@@@@@@+ +@@++@@@ +@@@@@@@ ++++@@++ ++++++@@ +@@@@+++ ++@@++++ +@@@@@@@ ++++++++ ++++++++ -------- +@===@@@ @@@===== =====@@@ @@@===@+.++++++++.++++++++.  ++++++++ ++++++++ ++++++++ ++++++++ ++++++++ ++++++++ ++++++++ ++++++++ ++++++++ ++++++++ ++++++++ ++++++++ ++++++++ ++++++++ ++++++++ ======== ++***+++ +++***** *****+++ +++***++.++++++++.++++++++.  +;;+++;; +;;;;;;+ +;;+++++ +;;+++;; ++;;;;;+ +;;;;;;+ +;;++;;; +;;;;;;; ++++;;++ ++++++;; +;;;;+++ ++;;++++ +;;;;;;; ++++++++ ++++++++ $$$$$$$$ +;###;;; ;;;##### #####;;; ;;;###;+.++++++++.++++++++.  +**+++** +******+ +**+++++ +**+++** ++*****+ +******+ +**++*** +******* ++++**++ ++++++** +****+++ ++**++++ +******* ++++++++ ++++++++ &&&&&&&& +*+++*** ***+++++ +++++*** ***+++*+.++++++++.++++++++.  +==+++== +======+ +==+++++ +==+++== ++=====+ +======+ +==++=== +======= ++++==++ ++++++== +====+++ ++==++++ +======= ++++++++ ++++++++ &&&&&&&& +=+++=== ===+++++ +++++=== ===+++=+.++++++++.++++++++. ",
" +@@@@@@@ +@@+++@@ +@@+++++ +@@+++@@ ++@@++++ +@@+++++ +@@+++@@ +@@+++@@ ++++@@++ ++++++@@ +@@@@@++ ++@@++++ +@@+@+@@ ++++++++ ++++++++ -------- @===@+++ +++@==== ====@+++ +++@===@.++++@@@@.@@@@++++.  ++++++++ ++++++++ ++++++++ ++++++++ ++++++++ ++++++++ ++++++++ ++++++++ ++++++++ ++++++++ ++++++++ ++++++++ ++++++++ ++++++++ ++++++++ ======== +***++++ ++++**** ****++++ ++++***+.++++++++.++++++++.  +;;;;;;; +;;+++;; +;;+++++ +;;+++;; ++;;++++ +;;+++++ +;;+++;; +;;+++;; ++++;;++ ++++++;; +;;;;;++ ++;;++++ +;;+;+;; ++++++++ ++++++++ $$$$$$$$ ;###;+++ +++;#### ####;+++ +++;###;.++++;;;;.;;;;++++.  +******* +**+++** +**+++++ +**+++** ++**++++ +**+++++ +**+++** +**+++** ++++**++ ++++++** +*****++ ++**++++ +**+*+** ++++++++ ++++++++ &&&&&&&& *+++*+++ +++*++++ ++++*+++ +++*+++*.++++****.****++++.  +======= +==+++== +==+++++ +==+++== ++==++++ +==+++++ +==+++== +==+++== ++++==++ ++++++== +=====++ ++==++++ +==+=+== ++++++++ ++++++++ &&&&&&&& =+++=+++ +++=++++ ++++=+++ +++=+++=.++++====.====++++. ",
" +@@+++@@ +@@+++@@ ++@@++@@ +@@++@@+ ++@@++++ +@@+++++ ++@@++@@ +@@+++@@ ++++@@++ +@@+++@@ +@@+@@@+ ++@@++++ +@@+++@@ ++++++++ ++++++++ -------- @==@++++ ++++@=== ===@++++ ++++@==@.++@@====.====@@++.  ++++++++ ++++++++ ++++++++ ++++++++ ++++++++ ++++++++ ++++++++ ++++++++ ++++++++ ++++++++ ++++++++ ++++++++ ++++++++ ++++++++ ++++++++ ======== +**+++++ +++++*** ***+++++ +++++**+.++++****.****++++.  +;;+++;; +;;+++;; ++;;++;; +;;++;;+ ++;;++++ +;;+++++ ++;;++;; +;;+++;; ++++;;++ +;;+++;; +;;+;;;+ ++;;++++ +;;+++;; ++++++++ ++++++++ $$$$$$$$ ;##;++++ ++++;### ###;++++ ++++;##;.++;;####.####;;++.  +**+++** +**+++** ++**++** +**++**+ ++**++++ +**+++++ ++**++** +**+++** ++++**++ +**+++** +**+***+ ++**++++ +**+++** ++++++++ ++++++++ &&&&&&&& *++*++++ ++++*+++ +++*++++ ++++*++*.++**++++.++++**++.  +==+++== +==+++== ++==++== +==++==+ ++==++++ +==+++++ ++==++== +==+++== ++++==++ +==+++== +==+===+ ++==++++ +==+++== ++++++++ ++++++++ &&&&&&&& =++=++++ ++++=+++ +++=++++ ++++=++=.++==++++.++++==++. ",
" +@@+++@@ +@@@@@@+ +++@@@@+ +@@@@@++ ++@@@@@@ +@@+++++ +++@@@@@ +@@+++@@ ++@@@@@@ ++@@@@@+ +@@++@@@ ++@@@@@@ +@@+++@@ ++++++++ ++++++++ +------+ @==@++++ ++++@=== ===@++++ ++++@==@.+@======.======@+.  ++++++++ ++++++++ ++++++++ ++++++++ ++++++++ ++++++++ ++++++++ ++++++++ ++++++++ ++++++++ ++++++++ ++++++++ ++++++++ ++++++++ ++++++++ +======+ +**+++++ +++++*** ***+++++ +++++**+.++******.******++.  +;;+++;; +;;;;;;+ +++;;;;+ +;;;;;++ ++;;;;;; +;;+++++ +++;;;;; +;;+++;; ++;;;;;; ++;;;;;+ +;;++;;; ++;;;;;; +;;+++;; ++++++++ ++++++++ +$$$$$$+ ;##;++++ ++++;### ###;++++ ++++;##;.+;######.######;+.  +**+++** +******+ +++****+ +*****++ ++****** +**+++++ +++***** +**+++** ++****** ++*****+ +**++*** ++****** +**+++** ++++++++ ++++++++ +&&&&&&+ *++*++++ ++++*+++ +++*++++ ++++*++*.+*++++++.++++++*+.  +==+++== +======+ +++====+ +=====++ ++====== +==+++++ +++===== +==+++== ++====== ++=====+ +==++=== ++====== +==+++== ++++++++ ++++++++ +&&&&&&+ =++=++++ ++++=+++ +++=++++ ++++=++=.+=++++++.++++++=+. ",
" ++++++++ ++++++++ ++++++++ ++++++++ ++++++++ ++++++++ ++++++++ ++++++++ ++++++++ ++++++++ ++++++++ ++++++++ ++++++++ ++++++++ ++++++++ ++----++ @==@++++ ++++@=== ===@++++ ++++@==@.+@======.======@+.  ++++++++ ++++++++ ++++++++ ++++++++ ++++++++ ++++++++ ++++++++ ++++++++ ++++++++ ++++++++ ++++++++ ++++++++ ++++++++ ++++++++ ++++++++ ++====++ +**+++++ +++++*** ***+++++ +++++**+.++******.******++.  ++++++++ ++++++++ ++++++++ ++++++++ ++++++++ ++++++++ ++++++++ ++++++++ ++++++++ ++++++++ ++++++++ ++++++++ ++++++++ ++++++++ ++++++++ ++$$$$++ ;##;++++ ++++;### ###;++++ ++++;##;.+;######.######;+.  ++++++++ ++++++++ ++++++++ ++++++++ ++++++++ ++++++++ ++++++++ ++++++++ ++++++++ ++++++++ ++++++++ ++++++++ ++++++++ ++++++++ ++++++++ ++&&&&++ *++*++++ ++++*+++ +++*++++ ++++*++*.+*++++++.++++++*+.  ++++++++ ++++++++ ++++++++ ++++++++ ++++++++ ++++++++ ++++++++ ++++++++ ++++++++ ++++++++ ++++++++ ++++++++ ++++++++ ++++++++ ++++++++ ++&&&&++ =++=++++ ++++=+++ +++=++++ ++++=++=.+=++++++.++++++=+. ",
"                                                                                                                                                                                    ...................                                                                                                                                                                                     ...................                                                                                                                                                                                     ...................                                                                                                                                                                                     ...................                                                                                                                                                                                     ................... ",
" +@@+++@@ ++@@@@@+ +@@@@@@+ ++@@@@@+ +@@@@@@+ ++@@@@++ ++@@@@@@ +@@+++@@ +@@+++@@ +@@+++@@ +@@+++@@ ++@@++@@ +@@@@@@@ ++++++++ ++++++++ ++++++++ @==@++++ ++++@=== ===@++++ ++++@==@.+@======.======@+.  ++++++++ ++++++++ ++++++++ ++++++++ ++++++++ ++++++++ ++++++++ ++++++++ ++++++++ ++++++++ ++++++++ ++++++++ ++++++++ ++++++++ ++++++++ ++++++++ +**+++++ +++++*** ***+++++ +++++**+.++******.******++.  +;;+++;; ++;;;;;+ +;;;;;;+ ++;;;;;+ +;;;;;;+ ++;;;;++ ++;;;;;; +;;+++;; +;;+++;; +;;+++;; +;;+++;; ++;;++;; +;;;;;;; ++++++++ ++++++++ ++++++++ ;##;++++ ++++;### ###;++++ ++++;##;.+;######.######;+.  +**+++** ++*****+ +******+ ++*****+ +******+ ++****++ ++****** +**+++** +**+++** +**+++** +**+++** ++**++** +******* ++++++++ ++++++++ ++++++++ *++*++++ ++++*+++ +++*++++ ++++*++*.+*++++++.++++++*+.  +==+++== ++=====+ +======+ ++=====+ +======+ ++====++ ++====== +==+++== +==+++== +==+++== +==+++== ++==++== +======= ++++++++ ++++++++ ++++++++ =++=++++ ++++=+++ +++=++++ ++++=++=.+=++++++.++++++=+. ",
" +@@@++@@ +@@+++@@ +@@+++@@ +@@+++@@ +@@+++@@ +@@++@@+ ++++@@++ +@@+++@@ +@@+++@@ +@@+++@@ +@@@+@@@ ++@@++@@ +++++@@@ ++++++++ ++++++++ ++++++++ @==@++++ ++++@=== ===@++++ ++++@==@.+@======.======@+.  ++++++++ ++++++++ ++++++++ ++++++++ ++++++++ ++++++++ ++++++++ ++++++++ ++++++++ ++++++++ ++++++++ ++++++++ ++++++++ ++++++++ ++++++++ ++++++++ +**+++++ +++++*** ***+++++ +++++**+.++******.******++.  +;;;++;; +;;+++;; +;;+++;; +;;+++;; +;;+++;; +;;++;;+ ++++;;++ +;;+++;; +;;+++;; +;;+++;; +;;;+;;; ++;;++;; +++++;;; ++++++++ ++++++++ ++++++++ ;##;++++ ++++;### ###;++++ ++++;##;.+;######.######;+.  +***++** +**+++** +**+++** +**+++** +**+++** +**++**+ ++++**++ +**+++** +**+++** +**+++** +***+*** ++**++** +++++*** ++++++++ ++++++++ ++++++++ *++*++++ ++++*+++ +++*++++ ++++*++*.+*++++++.++++++*+.  +===++== +==+++== +==+++== +==+++== +==+++== +==++==+ ++++==++ +==+++== +==+++== +==+++== +===+=== ++==++== +++++=== ++++++++ ++++++++ ++++++++ =++=++++ ++++=+++ +++=++++ ++++=++=.+=++++++.++++++=+. ",
" +@@@@+@@ +@@+++@@ +@@+++@@ +@@+++@@ +@@+++@@ +@@+++++ ++++@@++ +@@+++@@ +@@+++@@ +@@+@+@@ ++@@@@@+ ++@@++@@ ++++@@@+ ++++++++ ++++++++ ++++++++ @==@++++ ++++@=== ===@++++ ++++@==@.++@@====.====@@++.  ++++++++ ++++++++ ++++++++ ++++++++ ++++++++ ++++++++ ++++++++ ++++++++ ++++++++ ++++++++ ++++++++ ++++++++ ++++++++ ++++++++ ++++++++ ++++++++ +**+++++ +++++*** ***+++++ +++++**+.++++****.****++++.  +;;;;+;; +;;+++;; +;;+++;; +;;+++;; +;;+++;; +;;+++++ ++++;;++ +;;+++;; +;;+++;; +;;+;+;; ++;;;;;+ ++;;++;; ++++;;;+ ++++++++ ++++++++ ++++++++ ;##;++++ ++++;### ###;++++ ++++;##;.++;;####.####;;++.  +****+** +**+++** +**+++** +**+++** +**+++** +**+++++ ++++**++ +**+++** +**+++** +**+*+** ++*****+ ++**++** ++++***+ ++++++++ ++++++++ ++++++++ *++*++++ ++++*+++ +++*++++ ++++*++*.++**++++.++++**++.  +====+== +==+++== +==+++== +==+++== +==+++== +==+++++ ++++==++ +==+++== +==+++== +==+=+== ++=====+ ++==++== ++++===+ ++++++++ ++++++++ ++++++++ =++=++++ ++++=+++ +++=++++ ++++=++=.++==++++.++++==++. ",
" +@@@@@@@ +@@+++@@ +@@+++@@ +@@+++@@ +@@++@@@ ++@@@@@+ ++++@@++ +@@+++@@ +@@@+@@@ +@@@@@@@ +++@@@++ +++@@@@+ +++@@@++ ++++++++ ++++++++ ++++++++ @===@+++ +++@==== ====@+++ +++@===@.++++@@@@.@@@@++++.  ++++++++ ++++++++ ++++++++ ++++++++ ++++++++ ++++++++ ++++++++ ++++++++ ++++++++ ++++++++ ++++++++ ++++++++ ++++++++ ++++++++ ++++++++ ++++++++ +***++++ ++++**** ****++++ ++++***+.++++++++.++++++++.  +;;;;;;; +;;+++;; +;;+++;; +;;+++;; +;;++;;; ++;;;;;+ ++++;;++ +;;+++;; +;;;+;;; +;;;;;;; +++;;;++ +++;;;;+ +++;;;++ ++++++++ ++++++++ ++++++++ ;###;+++ +++;#### ####;+++ +++;###;.++++;;;;.;;;;++++.  +******* +**+++** +**+++** +**+++** +**++*** ++*****+ ++++**++ +**+++** +***+*** +******* +++***++ +++****+ +++***++ ++++++++ ++++++++ ++++++++ *+++*+++ +++*++++ ++++*+++ +++*+++*.++++****.****++++.  +======= +==+++== +==+++== +==+++== +==++=== ++=====+ ++++==++ +==+++== +===+=== +======= +++===++ +++====+ +++===++ ++++++++ ++++++++ ++++++++ =+++=+++ +++=++++ ++++=+++ +++=+++=.++++====.====++++. ",
" +@@+@@@@ +@@+++@@ +@@@@@@+ +@@+@@@@ +@@@@@++ ++++++@@ ++++@@++ +@@+++@@ ++@@@@@+ +@@@@@@@ ++@@@@@+ ++++@@++ ++@@@+++ @@@@@@@@ ++++++++ @@@@@@@@ @====@@@ @@@===== =====@@@ @@@====@.++++++++.++++++++.  ++++++++ ++++++++ ++++++++ ++++++++ ++++++++ ++++++++ ++++++++ ++++++++ ++++++++ ++++++++ ++++++++ ++++++++ ++++++++ ++++++++ ++++++++ ++++++++ +****+++ +++***** *****+++ +++****+.++++++++.++++++++.  +;;+;;;; +;;+++;; +;;;;;;+ +;;+;;;; +;;;;;++ ++++++;; ++++;;++ +;;+++;; ++;;;;;+ +;;;;;;; ++;;;;;+ ++++;;++ ++;;;+++ ;;;;;;;; ++++++++ ;;;;;;;; ;####;;; ;;;##### #####;;; ;;;####;.++++++++.++++++++.  +**+**** +**+++** +******+ +**+**** +*****++ ++++++** ++++**++ +**+++** ++*****+ +******* ++*****+ ++++**++ ++***+++ ******** ++++++++ ******** *++++*** ***+++++ +++++*** ***++++*.++++++++.++++++++.  +==+==== +==+++== +======+ +==+==== +=====++ ++++++== ++++==++ +==+++== ++=====+ +======= ++=====+ ++++==++ ++===+++ ======== ++++++++ ======== =++++=== ===+++++ +++++=== ===++++=.++++++++.++++++++. ",
" +@@++@@@ +@@+++@@ +@@+++++ +@@++@@+ +@@+@@@+ +@@+++@@ ++++@@++ +@@+++@@ +++@@@++ +@@@+@@@ +@@@+@@@ ++++@@++ +@@@++++ =======@ ======== @======= @======= ======== ======== =======@.++++++++.++++++++.  ++++++++ ++++++++ ++++++++ ++++++++ ++++++++ ++++++++ ++++++++ ++++++++ ++++++++ ++++++++ ++++++++ ++++++++ ++++++++ *******+ ******** +******* +******* ******** ******** *******+.++++++++.++++++++.  +;;++;;; +;;+++;; +;;+++++ +;;++;;+ +;;+;;;+ +;;+++;; ++++;;++ +;;+++;; +++;;;++ +;;;+;;; +;;;+;;; ++++;;++ +;;;++++ #######; ######## ;####### ;####### ######## ######## #######;.++++++++.++++++++.  +**++*** +**+++** +**+++++ +**++**+ +**+***+ +**+++** ++++**++ +**+++** +++***++ +***+*** +***+*** ++++**++ +***++++ +++++++* ++++++++ *+++++++ *+++++++ ++++++++ ++++++++ +++++++*.++++++++.++++++++.  +==++=== +==+++== +==+++++ +==++==+ +==+===+ +==+++== ++++==++ +==+++== +++===++ +===+=== +===+=== ++++==++ +===++++ +++++++= ++++++++ =+++++++ =+++++++ ++++++++ ++++++++ +++++++=.++++++++.++++++++. ",
" +@@+++@@ ++@@@@@+ +@@+++++ ++@@@@+@ +@@++@@@ ++@@@@@+ ++++@@++ ++@@@@@+ ++++@+++ +@@+++@@ +@@+++@@ ++++@@++ +@@@@@@@ =======@ ======== @======= @======= ======== ======== =======@.++++++++.++++++++.  ++++++++ ++++++++ ++++++++ ++++++++ ++++++++ ++++++++ ++++++++ ++++++++ ++++++++ ++++++++ ++++++++ ++++++++ ++++++++ *******+ ******** +******* +******* ******** ******** *******+.++++++++.++++++++.  +;;+++;; ++;;;;;+ +;;+++++ ++;;;;+; +;;++;;; ++;;;;;+ ++++;;++ ++;;;;;+ ++++;+++ +;;+++;; +;;+++;; ++++;;++ +;;;;;;; #######; ######## ;####### ;####### ######## ######## #######;.++++++++.++++++++.  +**+++** ++*****+ +**+++++ ++****+* +**++*** ++*****+ ++++**++ ++*****+ ++++*+++ +**+++** +**+++** ++++**++ +******* +++++++* ++++++++ *+++++++ *+++++++ ++++++++ ++++++++ +++++++*.++++++++.++++++++.  +==+++== ++=====+ +==+++++ ++====+= +==++=== ++=====+ ++++==++ ++=====+ ++++=+++ +==+++== +==+++== ++++==++ +======= +++++++= ++++++++ =+++++++ =+++++++ ++++++++ ++++++++ +++++++=.++++++++.++++++++. ",
" ++++++++ ++++++++ ++++++++ ++++++++ ++++++++ ++++++++ ++++++++ ++++++++ ++++++++ ++++++++ ++++++++ ++++++++ ++++++++ @@@@@@@@ ++++++++ @@@@@@@@ @======= ======== ======== =======@.++++++++.++++++++.  ++++++++ ++++++++ ++++++++ ++++++++ ++++++++ ++++++++ ++++++++ ++++++++ ++++++++ ++++++++ ++++++++ ++++++++ ++++++++ ++++++++ ++++++++ ++++++++ +******* ******** ******** *******+.++++++++.++++++++.  ++++++++ ++++++++ ++++++++ ++++++++ ++++++++ ++++++++ ++++++++ ++++++++ ++++++++ ++++++++ ++++++++ ++++++++ ++++++++ ;;;;;;;; ++++++++ ;;;;;;;; ;####### ######## ######## #######;.++++++++.++++++++.  ++++++++ ++++++++ ++++++++ ++++++++ ++++++++ ++++++++ ++++++++ ++++++++ ++++++++ ++++++++ ++++++++ ++++++++ ++++++++ ******** ++++++++ ******** *+++++++ ++++++++ ++++++++ +++++++*.++++++++.++++++++.  ++++++++ ++++++++ ++++++++ ++++++++ ++++++++ ++++++++ ++++++++ ++++++++ ++++++++ ++++++++ ++++++++ ++++++++ ++++++++ ======== ++++++++ ======== =+++++++ ++++++++ ++++++++ +++++++=.++++++++.++++++++. ",
"                                                                                                                                                                                    ...................                                                                                                                                                                                     ...................                                                                                                                                                                                     ...................                                                                                                                                                                                     ...................                                                                                                                                                                                     ................... ",
" ++++++++ ++++++++ ++++++++ ++++++++ ++++++++ ++++++++ ++++++++ ++++++++ ++++++++ ++++++++ ++++++++ ++++++++ ++++++++ ++++++++ ++++++++ ++++++++ @======= ======== ======== =======@.@@@@@@@@.@@@@@@@@.  ++++++++ ++++++++ ++++++++ ++++++++ ++++++++ ++++++++ ++++++++ ++++++++ ++++++++ ++++++++ ++++++++ ++++++++ ++++++++ ++++++++ ++++++++ ++++++++ +******* ******** ******** *******+.++++++++.++++++++.  ++++++++ ++++++++ ++++++++ ++++++++ ++++++++ ++++++++ ++++++++ ++++++++ ++++++++ ++++++++ ++++++++ ++++++++ ++++++++ ++++++++ ++++++++ ++++++++ ;####### ######## ######## #######;.;;;;;;;;.;;;;;;;;.  ++++++++ ++++++++ ++++++++ ++++++++ ++++++++ ++++++++ ++++++++ ++++++++ ++++++++ ++++++++ ++++++++ ++++++++ ++++++++ ++++++++ ++++++++ ++++++++ *+++++++ ++++++++ ++++++++ +++++++*.********.********.  ++++++++ ++++++++ ++++++++ ++++++++ ++++++++ ++++++++ ++++++++ ++++++++ ++++++++ ++++++++ ++++++++ ++++++++ ++++++++ ++++++++ ++++++++ ++++++++ =+++++++ ++++++++ ++++++++ +++++++=.========.========. ",
" ++++++++ ++++++++ ++++++++ ++++++++ ++++++++ ++++++++ ++++++++ ++++++++ +++++-++ ++++++++ ++++++++ ++++++++ ++++++++ ++++++++ ++++++++ ++++++++ @======= ======== ======== =======@.@+++++++.+++++++@.  ++++++++ ++++++++ ++++++++ ++++++++ ++++++++ ++++++++ ++++++++ ++++++++ +++++=++ ++++++++ ++++++++ ++++++++ ++++++++ ++++++++ ++++++++ ++++++++ +******* ******** ******** *******+.++++++++.++++++++.  ++++++++ ++++++++ ++++++++ ++++++++ ++++++++ ++++++++ ++++++++ ++++++++ +++++$++ ++++++++ ++++++++ ++++++++ ++++++++ ++++++++ ++++++++ ++++++++ ;####### ######## ######## #######;.;+++++++.+++++++;.  ++++++++ ++++++++ ++++++++ ++++++++ ++++++++ ++++++++ ++++++++ ++++++++ +++++&++ ++++++++ ++++++++ ++++++++ ++++++++ ++++++++ ++++++++ ++++++++ *+++++++ ++++++++ ++++++++ +++++++*.*+++++++.+++++++*.  ++++++++ ++++++++ ++++++++ ++++++++ ++++++++ ++++++++ ++++++++ ++++++++ +++++&++ ++++++++ ++++++++ ++++++++ ++++++++ ++++++++ ++++++++ ++++++++ =+++++++ ++++++++ ++++++++ +++++++=.=+++++++.+++++++=. ",
" ++++++++ ++++==++ +++++++@ ++++++++ ++++++++ +==+++++ ++++++++ =+++++++ ++++++-- ---+++++ ++++++++ ++++++++ +++++++- -+++++++ ++++++== =+++++++ @======= ======== ======== =======@.@+++++++.+++++++@.  ++++++++ ++++**++ ++++++++ ++++++++ ++++++++ +**+++++ ++++++++ *+++++++ ++++++== ===+++++ ++++++++ ++++++++ +++++++= =+++++++ ++++++** *+++++++ +******* ******** ******** *******+.++++++++.++++++++.  ++++++++ ++++##++ +++++++; ++++++++ ++++++++ +##+++++ ++++++++ #+++++++ ++++++$$ $$$+++++ ++++++++ ++++++++ +++++++$ $+++++++ ++++++## #+++++++ ;####### ######## ######## #######;.;+++++++.+++++++;.  ++++++++ ++++++++ +++++++* ++++++++ ++++++++ ++++++++ ++++++++ ++++++++ ++++++&& &&&+++++ ++++++++ ++++++++ +++++++& &+++++++ ++++++++ ++++++++ *+++++++ ++++++++ ++++++++ +++++++*.*+++++++.+++++++*.  ++++++++ ++++++++ +++++++= ++++++++ ++++++++ ++++++++ ++++++++ ++++++++ ++++++&& &&&+++++ ++++++++ ++++++++ +++++++& &+++++++ ++++++++ ++++++++ =+++++++ ++++++++ ++++++++ +++++++=.=+++++++.+++++++=. ",
" ++++++++ ++====++ ++++===@ ===+++++ +++++++@ =====+++ +++---+= +---++++ ++++++++ -+++++++ +++++++= ++++++++ +++++--+ +--+++++ ++++==++ +==+++++ @====@@@ @@@===== =====@@@ @@@====@.@+++++++.+++++++@.  ++++++++ ++****++ ++++***+ ***+++++ ++++++++ *****+++ +++===+* +===++++ ++++++++ =+++++++ +++++++* ++++++++ +++++==+ +==+++++ ++++**++ +**+++++ +****+++ +++***** *****+++ +++****+.++++++++.++++++++.  ++++++++ ++####++ ++++###; ###+++++ +++++++; #####+++ +++$$$+# +$$$++++ ++++++++ $+++++++ +++++++# ++++++++ +++++$$+ +$$+++++ ++++##++ +##+++++ ;####;;; ;;;##### #####;;; ;;;####;.;+++++++.+++++++;.  ++++++++ ++++++++ +++++++* ++++++++ +++++++* ++++++++ +++&&&++ +&&&++++ ++++++++ &+++++++ ++++++++ ++++++++ +++++&&+ +&&+++++ ++++++++ ++++++++ *++++*** ***+++++ +++++*** ***++++*.*+++++++.+++++++*.  ++++++++ ++++++++ +++++++= ++++++++ +++++++= ++++++++ +++&&&++ +&&&++++ ++++++++ &+++++++ ++++++++ ++++++++ +++++&&+ +&&+++++ ++++++++ ++++++++ =++++=== ===+++++ +++++=== ===++++=.=+++++++.+++++++=. ",
" ++++++++ ==+=++++ +++--=== ==--++++ +++++++@ +===++++ ++-----= -----+++ +++++++= @=++++++ ++-+++== =+++-+++ ++++---- ----++++ ++++==== ===+++++ @===@+++ +++@==== ====@+++ +++@===@.@+++++++.+++++++@.  ++++++++ **+*++++ +++==*** **==++++ ++++++++ +***++++ ++=====* =====+++ +++++++* +*++++++ ++=+++** *+++=+++ ++++==== ====++++ ++++**** ***+++++ +***++++ ++++**** ****++++ ++++***+.++++++++.++++++++.  ++++++++ ##+#++++ +++$$### ##$$++++ +++++++; +###++++ ++$$$$$# $$$$$+++ +++++++# ;#++++++ ++$+++## #+++$+++ ++++$$$$ $$$$++++ ++++#### ###+++++ ;###;+++ +++;#### ####;+++ +++;###;.;+++++++.+++++++;.  ++++++++ ++++++++ +++&&+++ ++&&++++ +++++++* ++++++++ ++&&&&&+ &&&&&+++ ++++++++ *+++++++ ++&+++++ ++++&+++ ++++&&&& &&&&++++ ++++++++ ++++++++ *+++*+++ +++*++++ ++++*+++ +++*+++*.*+++++++.+++++++*.  ++++++++ ++++++++ +++&&+++ ++&&++++ +++++++= ++++++++ ++&&&&&+ &&&&&+++ ++++++++ =+++++++ ++&+++++ ++++&+++ ++++&&&& &&&&++++ ++++++++ ++++++++ =+++=+++ +++=++++ ++++=+++ +++=+++=.=+++++++.+++++++=. ",
" +++++++= +++=++++ ++-----= ---@-+++ ++++--@@ @---++++ ++------ ------++ +++++=== -===++++ ++-++=== ==++-+++ ++++--+- ----++++ ++++==== ===+++++ @==@++++ ++++@=== ===@++++ ++++@==@.@+++++++.+++++++@.  +++++++* +++*++++ ++=====* ===+=+++ ++++==++ +===++++ ++====== ======++ +++++*** =***++++ ++=++*** **++=+++ ++++==+= ====++++ ++++**** ***+++++ +**+++++ +++++*** ***+++++ +++++**+.++++++++.++++++++.  +++++++# +++#++++ ++$$$$$# $$$;$+++ ++++$$;; ;$$$++++ ++$$$$$$ $$$$$$++ +++++### $###++++ ++$++### ##++$+++ ++++$$+$ $$$$++++ ++++#### ###+++++ ;##;++++ ++++;### ###;++++ ++++;##;.;+++++++.+++++++;.  ++++++++ ++++++++ ++&&&&&+ &&&*&+++ ++++&&** *&&&++++ ++&&&&&& &&&&&&++ ++++++++ &+++++++ ++&+++++ ++++&+++ ++++&&+& &&&&++++ ++++++++ ++++++++ *++*++++ ++++*+++ +++*++++ ++++*++*.*+++++++.+++++++*.  ++++++++ ++++++++ ++&&&&&+ &&&=&+++ ++++&&== =&&&++++ ++&&&&&& &&&&&&++ ++++++++ &+++++++ ++&+++++ ++++&+++ ++++&&+& &&&&++++ ++++++++ ++++++++ =++=++++ ++++=+++ +++=++++ ++++=++=.=+++++++.+++++++=. ",
" +++---=+ ++=+++++ ++-@---- -@---+++ +++----@ -----+++ ++------ ------++ ++++=-@- ===-=+++ ++-@==@= @==@-+++ ++++-+-- ----++++ ++++==== ===+++++ @==@++++ ++++@=== ===@++++ ++++@==@.@+++++++.+++++++@.  +++===*+ ++*+++++ ++=+==== =+===+++ +++====+ =====+++ ++====== ======++ ++++*=+= ***=*+++ ++=+**+* +**+=+++ ++++=+== ====++++ ++++**** ***+++++ +**+++++ +++++*** ***+++++ +++++**+.++++++++.++++++++.  +++$$$#+ ++#+++++ ++$;$$$$ $;$$$+++ +++$$$$; $$$$$+++ ++$$$$$$ $$$$$$++ ++++#$;$ ###$#+++ ++$;##;# ;##;$+++ ++++$+$$ $$$$++++ ++++#### ###+++++ ;##;++++ ++++;### ###;++++ ++++;##;.;+++++++.+++++++;.  +++&&&++ ++++++++ ++&*&&&& &*&&&+++ +++&&&&* &&&&&+++ ++&&&&&& &&&&&&++ +++++&*& +++&++++ ++&*++*+ *++*&+++ ++++&+&& &&&&++++ ++++++++ ++++++++ *++*++++ ++++*+++ +++*++++ ++++*++*.*+++++++.+++++++*.  +++&&&++ ++++++++ ++&=&&&& &=&&&+++ +++&&&&= &&&&&+++ ++&&&&&& &&&&&&++ +++++&=& +++&++++ ++&=++=+ =++=&+++ ++++&+&& &&&&++++ ++++++++ ++++++++ =++=++++ ++++=+++ +++=++++ ++++=++=.=+++++++.+++++++=. ",
" ++---=-- +=++++++ ++---@-@ -----+++ ++------ ------++ ++------ ------++ ++++==-= =@-==+++ ++-@@@@= @@@@-+++ +++--+-- -----+++ ++++++@+ @+++++++ @==@++++ ++++@=== ===@++++ ++++@==@.@+++++++.+++++++@.  ++===*== +*++++++ ++===+=+ =====+++ ++====== ======++ ++====== ======++ ++++**=* *+=**+++ ++=++++* ++++=+++ +++==+== =====+++ ++++++++ ++++++++ +**+++++ +++++*** ***+++++ +++++**+.++++++++.++++++++.  ++$$$#$$ +#++++++ ++$$$;$; $$$$$+++ ++$$$$$$ $$$$$$++ ++$$$$$$ $$$$$$++ ++++##$# #;$##+++ ++$;;;;# ;;;;$+++ +++$$+$$ $$$$$+++ ++++++;+ ;+++++++ ;##;++++ ++++;### ###;++++ ++++;##;.;+++++++.+++++++;.  ++&&&+&& ++++++++ ++&&&*&* &&&&&+++ ++&&&&&& &&&&&&++ ++&&&&&& &&&&&&++ ++++++&+ +*&+++++ ++&****+ ****&+++ +++&&+&& &&&&&+++ ++++++*+ *+++++++ *++*++++ ++++*+++ +++*++++ ++++*++*.*+++++++.+++++++*.  ++&&&+&& ++++++++ ++&&&=&= &&&&&+++ ++&&&&&& &&&&&&++ ++&&&&&& &&&&&&++ ++++++&+ +=&+++++ ++&====+ ====&+++ +++&&+&& &&&&&+++ ++++++=+ =+++++++ =++=++++ ++++=+++ +++=++++ ++++=++=.=+++++++.+++++++=. ",
"                                                                                                                                                                                    ...................                                                                                                                                                                                     ...................                                                                                                                                                                                     ...................                                                                                                                                                                                     ...................                                                                                                                                                                                     ................... ",
" ++-----+ -=--++++ ++------ --@--+++ ++------ ------++ ++------ ---@--++ +++=@-== =-=-==++ ++--@@@@ @@@--+++ +++--+-- -----+++ ++++++@+ @@++++++ @==@++++                   ++++@==@.@+++++++.+++++++@.  ++=====+ =*==++++ ++====== ==+==+++ ++====== ======++ ++====== ===+==++ +++*+=** *=*=**++ ++==++++ +++==+++ +++==+== =====+++ ++++++++ ++++++++ +**+++++                   +++++**+.++++++++.++++++++.  ++$$$$$+ $#$$++++ ++$$$$$$ $$;$$+++ ++$$$$$$ $$$$$$++ ++$$$$$$ $$$;$$++ +++#;$## #$#$##++ ++$$;;;; ;;;$$+++ +++$$+$$ $$$$$+++ ++++++;+ ;;++++++ ;##;++++                   ++++;##;.;+++++++.+++++++;.  ++&&&&&+ &+&&++++ ++&&&&&& &&*&&+++ ++&&&&&& &&&&&&++ ++&&&&&& &&&*&&++ ++++*&++ +&+&++++ ++&&**** ***&&+++ +++&&+&& &&&&&+++ ++++++*+ **++++++ *++*++++                   ++++*++*.*+++++++.+++++++*.  ++&&&&&+ &+&&++++ ++&&&&&& &&=&&+++ ++&&&&&& &&&&&&++ ++&&&&&& &&&=&&++ ++++=&++ +&+&++++ ++&&==== ===&&+++ +++&&+&& &&&&&+++ ++++++=+ ==++++++ =++=++++                   ++++=++=.=+++++++.+++++++=. ",
" ++-@--+- -=---+++ +++-@--@ ----++++ ++------ ------++ ++------ ---@--++ +++=-==@ -==@-=++ +++--@+@ +@--++++ +++----- -----+++ ++++++@+ @+++++++ @==@++++                   ++++@==@.@+++++++.+++++++@.  ++=+==+= =*===+++ +++=+==+ ====++++ ++====== ======++ ++====== ===+==++ +++*=**+ =**+=*++ +++==+++ ++==++++ +++===== =====+++ ++++++++ ++++++++ +**+++++                   +++++**+.++++++++.++++++++.  ++$;$$+$ $#$$$+++ +++$;$$; $$$$++++ ++$$$$$$ $$$$$$++ ++$$$$$$ $$$;$$++ +++#$##; $##;$#++ +++$$;+; +;$$++++ +++$$$$$ $$$$$+++ ++++++;+ ;+++++++ ;##;++++                   ++++;##;.;+++++++.+++++++;.  ++&*&&+& &+&&&+++ +++&*&&* &&&&++++ ++&&&&&& &&&&&&++ ++&&&&&& &&&*&&++ ++++&++* &++*&+++ +++&&*+* +*&&++++ +++&&&&& &&&&&+++ ++++++*+ *+++++++ *++*++++                   ++++*++*.*+++++++.+++++++*.  ++&=&&+& &+&&&+++ +++&=&&= &&&&++++ ++&&&&&& &&&&&&++ ++&&&&&& &&&=&&++ ++++&++= &++=&+++ +++&&=+= +=&&++++ +++&&&&& &&&&&+++ ++++++=+ =+++++++ =++=++++                   ++++=++=.=+++++++.+++++++=. ",
" ++--@-+- -----+++ +++----- ----++++ ++------ ------++ +++----- --@--+++ +++=@-== =-====++ ++++--+@ +--+++++ ++--+--- ------++ ++++++@+ ++++++++ @==@++++                   ++++@==@.@+++++++.+++++++@.  ++==+=+= =====+++ +++===== ====++++ ++====== ======++ +++===== ==+==+++ +++*+=** *=****++ ++++==++ +==+++++ ++==+=== ======++ ++++++++ ++++++++ +**+++++                   +++++**+.++++++++.++++++++.  ++$$;$+$ $$$$$+++ +++$$$$$ $$$$++++ ++$$$$$$ $$$$$$++ +++$$$$$ $$;$$+++ +++#;$## #$####++ ++++$$+; +$$+++++ ++$$+$$$ $$$$$$++ ++++++;+ ++++++++ ;##;++++                   ++++;##;.;+++++++.+++++++;.  ++&&*&+& &&&&&+++ +++&&&&& &&&&++++ ++&&&&&& &&&&&&++ +++&&&&& &&*&&+++ ++++*&++ +&++++++ ++++&&+* +&&+++++ ++&&+&&& &&&&&&++ ++++++*+ ++++++++ *++*++++                   ++++*++*.*+++++++.+++++++*.  ++&&=&+& &&&&&+++ +++&&&&& &&&&++++ ++&&&&&& &&&&&&++ +++&&&&& &&=&&+++ ++++=&++ +&++++++ ++++&&+= +&&+++++ ++&&+&&& &&&&&&++ ++++++=+ ++++++++ =++=++++                   ++++=++=.=+++++++.+++++++=. ",
" +++---+- @----+++ ++++--@- -@++++++ +++----- -----+++ +++----- -----+++ ++++==-@ -@-==+++ +++++-+@ +-++++++ ++--+--- ------++ ++++++@+ @+++++++ @===@+++                   +++@===@.@+++++++.+++++++@.  +++===+= +====+++ ++++==+= =+++++++ +++===== =====+++ +++===== =====+++ ++++**=+ =+=**+++ +++++=++ +=++++++ ++==+=== ======++ ++++++++ ++++++++ +***++++                   ++++***+.++++++++.++++++++.  +++$$$+$ ;$$$$+++ ++++$$;$ $;++++++ +++$$$$$ $$$$$+++ +++$$$$$ $$$$$+++ ++++##$; $;$##+++ +++++$+; +$++++++ ++$$+$$$ $$$$$$++ ++++++;+ ;+++++++ ;###;+++                   +++;###;.;+++++++.+++++++;.  +++&&&+& *&&&&+++ ++++&&*& &*++++++ +++&&&&& &&&&&+++ +++&&&&& &&&&&+++ ++++++&* &*&+++++ +++++&+* +&++++++ ++&&+&&& &&&&&&++ ++++++*+ *+++++++ *+++*+++                   +++*+++*.*+++++++.+++++++*.  +++&&&+& =&&&&+++ ++++&&=& &=++++++ +++&&&&& &&&&&+++ +++&&&&& &&&&&+++ ++++++&= &=&+++++ +++++&+= +&++++++ ++&&+&&& &&&&&&++ ++++++=+ =+++++++ =+++=+++                   +++=+++=.=+++++++.+++++++=. ",
" +++++++- -@---+++ +++++--- --++++++ +++----- -----+++ ++++---- ----++++ ++++===- ===-=+++ +++++++@ ++++++++ ++------ ------++ ++++++@+ @@++++++ +@===@@@                   @@@===@+.@+++++++.+++++++@.  +++++++= =+===+++ +++++=== ==++++++ +++===== =====+++ ++++==== ====++++ ++++***= ***=*+++ ++++++++ ++++++++ ++====== ======++ ++++++++ ++++++++ ++***+++                   +++***++.++++++++.++++++++.  +++++++$ $;$$$+++ +++++$$$ $$++++++ +++$$$$$ $$$$$+++ ++++$$$$ $$$$++++ ++++###$ ###$#+++ +++++++; ++++++++ ++$$$$$$ $$$$$$++ ++++++;+ ;;++++++ +;###;;;                   ;;;###;+.;+++++++.+++++++;.  +++++++& &*&&&+++ +++++&&& &&++++++ +++&&&&& &&&&&+++ ++++&&&& &&&&++++ +++++++& +++&++++ +++++++* ++++++++ ++&&&&&& &&&&&&++ ++++++*+ **++++++ +*+++***                   ***+++*+.*+++++++.+++++++*.  +++++++& &=&&&+++ +++++&&& &&++++++ +++&&&&& &&&&&+++ ++++&&&& &&&&++++ +++++++& +++&++++ +++++++= ++++++++ ++&&&&&& &&&&&&++ ++++++=+ ==++++++ +=+++===                   ===+++=+.=+++++++.+++++++=. ",
" ++++++++ ----++++ +++++++- ++++++++ +++++--- ---+++++ +++++--+ ---+++++ +++++=-= ==-=++++ +++++++@ ++++++++ ++-===== @@===-++ ++++++@+ @+++++++ +@======                   ======@+.@+++++++.+++++++@.  ++++++++ ====++++ +++++++= ++++++++ +++++=== ===+++++ +++++==+ ===+++++ +++++*=* **=*++++ ++++++++ ++++++++ ++=***** ++***=++ ++++++++ ++++++++ ++******                   ******++.++++++++.++++++++.  ++++++++ $$$$++++ +++++++$ ++++++++ +++++$$$ $$$+++++ +++++$$+ $$$+++++ +++++#$# ##$#++++ +++++++; ++++++++ ++$##### ;;###$++ ++++++;+ ;+++++++ +;######                   ######;+.;+++++++.+++++++;.  ++++++++ &&&&++++ +++++++& ++++++++ +++++&&& &&&+++++ +++++&&+ &&&+++++ ++++++&+ ++&+++++ +++++++* ++++++++ ++&+++++ **+++&++ ++++++*+ *+++++++ +*++++++                   ++++++*+.*+++++++.+++++++*.  ++++++++ &&&&++++ +++++++& ++++++++ +++++&&& &&&+++++ +++++&&+ &&&+++++ ++++++&+ ++&+++++ +++++++= ++++++++ ++&+++++ ==+++&++ ++++++=+ =+++++++ +=++++++                   ++++++=+.=+++++++.+++++++=. ",
" ++++++++ ++++++++ ++++++++ ++++++++ ++++++++ ++++++++ ++++++++ ++++++++ +++++++= =-++++++ ++++++++ ++++++++ +++===== @@===+++ +++++++@ ++++++++ ++@@====                   ====@@++.@+++++++.+++++++@.  ++++++++ ++++++++ ++++++++ ++++++++ ++++++++ ++++++++ ++++++++ ++++++++ +++++++* *=++++++ ++++++++ ++++++++ +++***** ++***+++ ++++++++ ++++++++ ++++****                   ****++++.++++++++.++++++++.  ++++++++ ++++++++ ++++++++ ++++++++ ++++++++ ++++++++ ++++++++ ++++++++ +++++++# #$++++++ ++++++++ ++++++++ +++##### ;;###+++ +++++++; ++++++++ ++;;####                   ####;;++.;+++++++.+++++++;.  ++++++++ ++++++++ ++++++++ ++++++++ ++++++++ ++++++++ ++++++++ ++++++++ ++++++++ +&++++++ ++++++++ ++++++++ ++++++++ **++++++ +++++++* ++++++++ ++**++++                   ++++**++.*+++++++.+++++++*.  ++++++++ ++++++++ ++++++++ ++++++++ ++++++++ ++++++++ ++++++++ ++++++++ ++++++++ +&++++++ ++++++++ ++++++++ ++++++++ ==++++++ +++++++= ++++++++ ++==++++                   ++++==++.=+++++++.+++++++=. ",
" ++++++++ ++++++++ ++++++++ ++++++++ ++++++++ ++++++++ ++++++++ ++++++++ ++++++++ ++++++++ ++++++++ ++++++++ ++++++++ ++++++++ ++++++++ ++++++++ ++++@@@@                   @@@@++++.@@@@@@@@.@@@@@@@@.  ++++++++ ++++++++ ++++++++ ++++++++ ++++++++ ++++++++ ++++++++ ++++++++ ++++++++ ++++++++ ++++++++ ++++++++ ++++++++ ++++++++ ++++++++ ++++++++ ++++++++                   ++++++++.++++++++.++++++++.  ++++++++ ++++++++ ++++++++ ++++++++ ++++++++ ++++++++ ++++++++ ++++++++ ++++++++ ++++++++ ++++++++ ++++++++ ++++++++ ++++++++ ++++++++ ++++++++ ++++;;;;                   ;;;;++++.;;;;;;;;.;;;;;;;;.  ++++++++ ++++++++ ++++++++ ++++++++ ++++++++ ++++++++ ++++++++ ++++++++ ++++++++ ++++++++ ++++++++ ++++++++ ++++++++ ++++++++ ++++++++ ++++++++ ++++****                   ****++++.********.********.  ++++++++ ++++++++ ++++++++ ++++++++ ++++++++ ++++++++ ++++++++ ++++++++ ++++++++ ++++++++ ++++++++ ++++++++ ++++++++ ++++++++ ++++++++ ++++++++ ++++====                   ====++++.========.========. ",
"                                                                                                                                                                                    ...................                                                                                                                                                                                     ...................                                                                                                                                                                                     ...................                                                                                                                                                                                     ...................                                                                                                                                                                                     ................... ",
" ++++++++ ++++++++ ++++++++ ++++++++ ++++++++ ++++++++ ++++++++ ++++++++ ++++++++ ++++++++ ++++++++ ++++++++ ++++++++ +++@+++@ ++++++++ @@@@@++@ ++++++++ @@@@@++@ ++++++++ @@@@@++@ @+++@@++ ++++++++   ++++++++ ++++++++ ++++++++ ++++++++ ++++++++ ++++++++ ++++++++ ++++++++ ++++++++ ++++++++ ++++++++ ++++++++ ++++++++ ++++++++ ++++++++ ++++++++ ++++++++ ++++++++ ++++++++ ++++++++ ++++++++ ++++++++   ++++++++ ++++++++ ++++++++ ++++++++ ++++++++ ++++++++ ++++++++ ++++++++ ++++++++ ++++++++ ++++++++ ++++++++ ++++++++ +++;+++; ++++++++ ;;;;;++; ++++++++ ;;;;;++; ++++++++ ;;;;;++; ;+++;;++ ++++++++   ++++++++ ++++++++ ++++++++ ++++++++ ++++++++ ++++++++ ++++++++ ++++++++ ++++++++ ++++++++ ++++++++ ++++++++ ++++++++ +++*+++* ++++++++ *****++* ++++++++ *****++* ++++++++ *****++* *+++**++ ++++++++   ++++++++ ++++++++ ++++++++ ++++++++ ++++++++ ++++++++ ++++++++ ++++++++ ++++++++ ++++++++ ++++++++ ++++++++ ++++++++ +++=+++= ++++++++ =====++= ++++++++ =====++= ++++++++ =====++= =+++==++ ++++++++  ",
" ++++++++ ++++++++ ++++++++ ++++++++ ++++++++ ++++++++ ++++++++ ++++++++ ++++++++ ++++++++ ++++++++ ++++++++ ++++++++ ++@@++@+ ++++++++ +++@++@+ ++++++++ @+++++@+ ++++++++ @+++@+@+ +@+@++@+ ++++++++   ++++++++ ++++++++ ++++++++ ++++++++ ++++++++ ++++++++ ++++++++ ++++++++ ++++++++ ++++++++ ++++++++ ++++++++ ++++++++ ++++++++ ++++++++ ++++++++ ++++++++ ++++++++ ++++++++ ++++++++ ++++++++ ++++++++   ++++++++ ++++++++ ++++++++ ++++++++ ++++++++ ++++++++ ++++++++ ++++++++ ++++++++ ++++++++ ++++++++ ++++++++ ++++++++ ++;;++;+ ++++++++ +++;++;+ ++++++++ ;+++++;+ ++++++++ ;+++;+;+ +;+;++;+ ++++++++   ++++++++ ++++++++ ++++++++ ++++++++ ++++++++ ++++++++ ++++++++ ++++++++ ++++++++ ++++++++ ++++++++ ++++++++ ++++++++ ++**++*+ ++++++++ +++*++*+ ++++++++ *+++++*+ ++++++++ *+++*+*+ +*+*++*+ ++++++++   ++++++++ ++++++++ ++++++++ ++++++++ ++++++++ ++++++++ ++++++++ ++++++++ ++++++++ ++++++++ ++++++++ ++++++++ ++++++++ ++==++=+ ++++++++ +++=++=+ ++++++++ =+++++=+ ++++++++ =+++=+=+ +=+=++=+ ++++++++  ",
" +++++@@@ @@++++++ ++++++++ ++++++++ ++++++++ +@@@@+++ +++++@@@ @@++++++ +++@@@@+ ++++++++ ++++++++ ++++++++ ++++++++ +++@++@+ ++++++++ ++@+++@+ ++++++++ @@@@++@+ ++++++++ +++@++@+ +@+@++@+ ++++++++   ++++++++ ++++++++ ++++++++ ++++++++ ++++++++ ++++++++ ++++++++ ++++++++ ++++++++ ++++++++ ++++++++ ++++++++ ++++++++ ++++++++ ++++++++ ++++++++ ++++++++ ++++++++ ++++++++ ++++++++ ++++++++ ++++++++   +++++;;; ;;++++++ ++++++++ ++++++++ ++++++++ +;;;;+++ +++++;;; ;;++++++ +++;;;;+ ++++++++ ++++++++ ++++++++ ++++++++ +++;++;+ ++++++++ ++;+++;+ ++++++++ ;;;;++;+ ++++++++ +++;++;+ +;+;++;+ ++++++++   +++++*** **++++++ ++++++++ ++++++++ ++++++++ +****+++ +++++*** **++++++ +++****+ ++++++++ ++++++++ ++++++++ ++++++++ +++*++*+ ++++++++ ++*+++*+ ++++++++ ****++*+ ++++++++ +++*++*+ +*+*++*+ ++++++++   +++++=== ==++++++ ++++++++ ++++++++ ++++++++ +====+++ +++++=== ==++++++ +++====+ ++++++++ ++++++++ ++++++++ ++++++++ +++=++=+ ++++++++ ++=+++=+ ++++++++ ====++=+ ++++++++ +++=++=+ +=+=++=+ ++++++++  ",
" ++++@@@@ @@@+++++ ++++++++ ++++++++ ++++++++ +@@@@+++ +++++@@@ @@@+++++ +++@@@@@ ++++++++ ++++++++ ++++++++ ++++++++ +++@++@+ ++++++++ +++@++@+ ++++++++ ++++@+@+ ++++++++ +++@++@+ +@+@++@+ ++++++++   ++++++++ ++++++++ ++++++++ ++++++++ ++++++++ ++++++++ ++++++++ ++++++++ ++++++++ ++++++++ ++++++++ ++++++++ ++++++++ ++++++++ ++++++++ ++++++++ ++++++++ ++++++++ ++++++++ ++++++++ ++++++++ ++++++++   ++++;;;; ;;;+++++ ++++++++ ++++++++ ++++++++ +;;;;+++ +++++;;; ;;;+++++ +++;;;;; ++++++++ ++++++++ ++++++++ ++++++++ +++;++;+ ++++++++ +++;++;+ ++++++++ ++++;+;+ ++++++++ +++;++;+ +;+;++;+ ++++++++   ++++**** ***+++++ ++++++++ ++++++++ ++++++++ +****+++ +++++*** ***+++++ +++***** ++++++++ ++++++++ ++++++++ ++++++++ +++*++*+ ++++++++ +++*++*+ ++++++++ ++++*+*+ ++++++++ +++*++*+ +*+*++*+ ++++++++   ++++==== ===+++++ ++++++++ ++++++++ ++++++++ +====+++ +++++=== ===+++++ +++===== ++++++++ ++++++++ ++++++++ ++++++++ +++=++=+ ++++++++ +++=++=+ ++++++++ ++++=+=+ ++++++++ +++=++=+ +=+=++=+ ++++++++  ",
" +++@@@@@ @@@@++++ ++++++++ ++++++++ ++++++++ +@@@@@++ +++++@@@ @@@@++++ +++@@@@@ @+++++++ ++++++++ ++++++++ ++++++++ +++@++@+ ++++++++ ++++@+@+ ++++++++ ++++@+@+ ++++++++ ++@+++@+ +@+@++@+ ++++++++   ++++++++ ++++++++ ++++++++ ++++++++ ++++++++ ++++++++ ++++++++ ++++++++ ++++++++ ++++++++ ++++++++ ++++++++ ++++++++ ++++++++ ++++++++ ++++++++ ++++++++ ++++++++ ++++++++ ++++++++ ++++++++ ++++++++   +++;;;;; ;;;;++++ ++++++++ ++++++++ ++++++++ +;;;;;++ +++++;;; ;;;;++++ +++;;;;; ;+++++++ ++++++++ ++++++++ ++++++++ +++;++;+ ++++++++ ++++;+;+ ++++++++ ++++;+;+ ++++++++ ++;+++;+ +;+;++;+ ++++++++   +++***** ****++++ ++++++++ ++++++++ ++++++++ +*****++ +++++*** ****++++ +++***** *+++++++ ++++++++ ++++++++ ++++++++ +++*++*+ ++++++++ ++++*+*+ ++++++++ ++++*+*+ ++++++++ ++*+++*+ +*+*++*+ ++++++++   +++===== ====++++ ++++++++ ++++++++ ++++++++ +=====++ +++++=== ====++++ +++===== =+++++++ ++++++++ ++++++++ ++++++++ +++=++=+ ++++++++ ++++=+=+ ++++++++ ++++=+=+ ++++++++ ++=+++=+ +=+=++=+ ++++++++  ",
" +++++@@@ @@@@@+++ ++++++++ ++++++++ ++++++++ +@@@@@@+ +++++@@@ @@@@@@++ +++@@@@@ @@@+++++ ++++++++ ++++++++ ++++++++ +++@++@+ ++++++++ @+++@+@+ ++++++++ @+++@+@+ ++++++++ ++@+++@+ +@+@++@+ ++++++++   ++++++++ ++++++++ ++++++++ ++++++++ ++++++++ ++++++++ ++++++++ ++++++++ ++++++++ ++++++++ ++++++++ ++++++++ ++++++++ ++++++++ ++++++++ ++++++++ ++++++++ ++++++++ ++++++++ ++++++++ ++++++++ ++++++++   +++++;;; ;;;;;+++ ++++++++ ++++++++ ++++++++ +;;;;;;+ +++++;;; ;;;;;;++ +++;;;;; ;;;+++++ ++++++++ ++++++++ ++++++++ +++;++;+ ++++++++ ;+++;+;+ ++++++++ ;+++;+;+ ++++++++ ++;+++;+ +;+;++;+ ++++++++   +++++*** *****+++ ++++++++ ++++++++ ++++++++ +******+ +++++*** ******++ +++***** ***+++++ ++++++++ ++++++++ ++++++++ +++*++*+ ++++++++ *+++*+*+ ++++++++ *+++*+*+ ++++++++ ++*+++*+ +*+*++*+ ++++++++   +++++=== =====+++ ++++++++ ++++++++ ++++++++ +======+ +++++=== ======++ +++===== ===+++++ ++++++++ ++++++++ ++++++++ +++=++=+ ++++++++ =+++=+=+ ++++++++ =+++=+=+ ++++++++ ++=+++=+ +=+=++=+ ++++++++  ",
" +++++++@ @@@@@+++ ++++++++ ++++++++ ++++++++ +@@@@@@@ +++++@@@ @@@@@@@@ +++@@@@@ @@@@@@@@ ++++++++ +++++++@ ++++++++ ++@@@++@ ++++++++ +@@@+++@ ++++++++ +@@@+++@ ++++++++ ++@++++@ @+++@@++ ++++++++   ++++++++ ++++++++ ++++++++ ++++++++ ++++++++ ++++++++ ++++++++ ++++++++ ++++++++ ++++++++ ++++++++ ++++++++ ++++++++ ++++++++ ++++++++ ++++++++ ++++++++ ++++++++ ++++++++ ++++++++ ++++++++ ++++++++   +++++++; ;;;;;+++ ++++++++ ++++++++ ++++++++ +;;;;;;; +++++;;; ;;;;;;;; +++;;;;; ;;;;;;;; ++++++++ +++++++; ++++++++ ++;;;++; ++++++++ +;;;+++; ++++++++ +;;;+++; ++++++++ ++;++++; ;+++;;++ ++++++++   +++++++* *****+++ ++++++++ ++++++++ ++++++++ +******* +++++*** ******** +++***** ******** ++++++++ +++++++* ++++++++ ++***++* ++++++++ +***+++* ++++++++ +***+++* ++++++++ ++*++++* *+++**++ ++++++++   +++++++= =====+++ ++++++++ ++++++++ ++++++++ +======= +++++=== ======== +++===== ======== ++++++++ +++++++= ++++++++ ++===++= ++++++++ +===+++= ++++++++ +===+++= ++++++++ ++=++++= =+++==++ ++++++++  ",
" ++++++++ +@@@@+++ ++++++++ +++++++- ++++++++ +@@@@@@@ +++++@@@ @@@@@@@@ +++@@@@@ @@@@@@@@ ++++++++ ++++++@@ ++++++++ ++++++++ ++++++++ ++++++++ ++++++++ ++++++++ ++++++++ ++++++++ ++++++++ ++++++++   ++++++++ ++++++++ ++++++++ +++++++= ++++++++ ++++++++ ++++++++ ++++++++ ++++++++ ++++++++ ++++++++ ++++++++ ++++++++ ++++++++ ++++++++ ++++++++ ++++++++ ++++++++ ++++++++ ++++++++ ++++++++ ++++++++   ++++++++ +;;;;+++ ++++++++ +++++++$ ++++++++ +;;;;;;; +++++;;; ;;;;;;;; +++;;;;; ;;;;;;;; ++++++++ ++++++;; ++++++++ ++++++++ ++++++++ ++++++++ ++++++++ ++++++++ ++++++++ ++++++++ ++++++++ ++++++++   ++++++++ +****+++ ++++++++ +++++++& ++++++++ +******* +++++*** ******** +++***** ******** ++++++++ ++++++** ++++++++ ++++++++ ++++++++ ++++++++ ++++++++ ++++++++ ++++++++ ++++++++ ++++++++ ++++++++   ++++++++ +====+++ ++++++++ +++++++& ++++++++ +======= +++++=== ======== +++===== ======== ++++++++ ++++++== ++++++++ ++++++++ ++++++++ ++++++++ ++++++++ ++++++++ ++++++++ ++++++++ ++++++++ ++++++++  ",
"                                                                                                                                                                                                                                                                                                                                                                                                                                                                                                                                                                                                                                                                                                                                                                                                                                                                                                                                                                                                                                        ",
" +++++++@ @@@@@+++ ++++++++ +++++++- ++++++++ +@@@@@@@ +++++@@@ @@@@@@@@ +++@@@@@ @@@@@@@@ ++++++++ ++++@@@@ ++++++++ +@+++@@+ +++++++@ @@+++@@+ ++++++@@ @@@++@@+ ++++++@@ @@@++@@+ ++@@+++@ @+++++++   ++++++++ ++++++++ ++++++++ +++++++= ++++++++ ++++++++ ++++++++ ++++++++ ++++++++ ++++++++ ++++++++ ++++++++ ++++++++ ++++++++ ++++++++ ++++++++ ++++++++ ++++++++ ++++++++ ++++++++ ++++++++ ++++++++   +++++++; ;;;;;+++ ++++++++ +++++++$ ++++++++ +;;;;;;; +++++;;; ;;;;;;;; +++;;;;; ;;;;;;;; ++++++++ ++++;;;; ++++++++ +;+++;;+ +++++++; ;;+++;;+ ++++++;; ;;;++;;+ ++++++;; ;;;++;;+ ++;;+++; ;+++++++   +++++++* *****+++ ++++++++ +++++++& ++++++++ +******* +++++*** ******** +++***** ******** ++++++++ ++++**** ++++++++ +*+++**+ +++++++* **+++**+ ++++++** ***++**+ ++++++** ***++**+ ++**+++* *+++++++   +++++++= =====+++ ++++++++ +++++++& ++++++++ +======= +++++=== ======== +++===== ======== ++++++++ ++++==== ++++++++ +=+++==+ +++++++= ==+++==+ ++++++== ===++==+ ++++++== ===++==+ ++==+++= =+++++++  ",
" +++++@@@ @@@@@+++ ++++++++ +++++++- ++++++++ +@@@@@@@ +++++@@@ @@@@@@@@ +++@@@@@ @@@@@@@@ ++++++++ +++@@@@@ ++++++++ @@++@++@ ++++++@+ ++@+@++@ ++++++++ +@++@++@ ++++++@+ ++++@++@ +@++@+@+ +@++++++   ++++++++ ++++++++ ++++++++ +++++++= ++++++++ ++++++++ ++++++++ ++++++++ ++++++++ ++++++++ ++++++++ ++++++++ ++++++++ ++++++++ ++++++++ ++++++++ ++++++++ ++++++++ ++++++++ ++++++++ ++++++++ ++++++++   +++++;;; ;;;;;+++ ++++++++ +++++++$ ++++++++ +;;;;;;; +++++;;; ;;;;;;;; +++;;;;; ;;;;;;;; ++++++++ +++;;;;; ++++++++ ;;++;++; ++++++;+ ++;+;++; ++++++++ +;++;++; ++++++;+ ++++;++; +;++;+;+ +;++++++   +++++*** *****+++ ++++++++ +++++++& ++++++++ +******* +++++*** ******** +++***** ******** ++++++++ +++***** ++++++++ **++*++* ++++++*+ ++*+*++* ++++++++ +*++*++* ++++++*+ ++++*++* +*++*+*+ +*++++++   +++++=== =====+++ ++++++++ +++++++& ++++++++ +======= +++++=== ======== +++===== ======== ++++++++ +++===== ++++++++ ==++=++= ++++++=+ ++=+=++= ++++++++ +=++=++= ++++++=+ ++++=++= +=++=+=+ +=++++++  ",
" +++@@@@@ @@@@++++ ++++++++ +++++++- ++++++++ +@@@@@@@ +++++@@@ @@@@@@@@ +++@@@@@ @@@@@@@@ ++++++++ +@@@@@@- ++++++++ +@++@++@ ++++++@+ ++@+@++@ ++++++++ @+++@++@ ++++++@@ @@++@++@ +@++@+@+ +@++++++   ++++++++ ++++++++ ++++++++ +++++++= ++++++++ ++++++++ ++++++++ ++++++++ ++++++++ ++++++++ ++++++++ +++++++= ++++++++ ++++++++ ++++++++ ++++++++ ++++++++ ++++++++ ++++++++ ++++++++ ++++++++ ++++++++   +++;;;;; ;;;;++++ ++++++++ +++++++$ ++++++++ +;;;;;;; +++++;;; ;;;;;;;; +++;;;;; ;;;;;;;; ++++++++ +;;;;;;$ ++++++++ +;++;++; ++++++;+ ++;+;++; ++++++++ ;+++;++; ++++++;; ;;++;++; +;++;+;+ +;++++++   +++***** ****++++ ++++++++ +++++++& ++++++++ +******* +++++*** ******** +++***** ******** ++++++++ +******& ++++++++ +*++*++* ++++++*+ ++*+*++* ++++++++ *+++*++* ++++++** **++*++* +*++*+*+ +*++++++   +++===== ====++++ ++++++++ +++++++& ++++++++ +======= +++++=== ======== +++===== ======== ++++++++ +======& ++++++++ +=++=++= ++++++=+ ++=+=++= ++++++++ =+++=++= ++++++== ==++=++= +=++=+=+ +=++++++  ",
" ++++@@@@ @@@+++++ ++++++++ ++++++++ ++++++++ ++++++++ ++++++++ ++++++++ ++++++++ ++++++++ ++++++++ ++++++++ ++++++++ +@++@++@ ++++++++ +@++@++@ ++++++++ +@++@++@ ++++++++ ++@+@++@ +@++@+@+ +@++++++   ++++++++ ++++++++ ++++++++ ++++++++ ++++++++ ++++++++ ++++++++ ++++++++ ++++++++ ++++++++ ++++++++ ++++++++ ++++++++ ++++++++ ++++++++ ++++++++ ++++++++ ++++++++ ++++++++ ++++++++ ++++++++ ++++++++   ++++;;;; ;;;+++++ ++++++++ ++++++++ ++++++++ ++++++++ ++++++++ ++++++++ ++++++++ ++++++++ ++++++++ ++++++++ ++++++++ +;++;++; ++++++++ +;++;++; ++++++++ +;++;++; ++++++++ ++;+;++; +;++;+;+ +;++++++   ++++**** ***+++++ ++++++++ ++++++++ ++++++++ ++++++++ ++++++++ ++++++++ ++++++++ ++++++++ ++++++++ ++++++++ ++++++++ +*++*++* ++++++++ +*++*++* ++++++++ +*++*++* ++++++++ ++*+*++* +*++*+*+ +*++++++   ++++==== ===+++++ ++++++++ ++++++++ ++++++++ ++++++++ ++++++++ ++++++++ ++++++++ ++++++++ ++++++++ ++++++++ ++++++++ +=++=++= ++++++++ +=++=++= ++++++++ +=++=++= ++++++++ ++=+=++= +=++=+=+ +=++++++  ",
" +++++@@@ @@++++++ ++++++++ ++++++++ ++++++++ ++++++++ ++++++++ ++++++++ ++++++++ ++++++++ ++++++++ ++++++++ ++++++++ +@++@++@ ++++++++ @+++@++@ ++++++++ ++@+@++@ ++++++++ ++@+@++@ +@++@+@+ +@++++++   ++++++++ ++++++++ ++++++++ ++++++++ ++++++++ ++++++++ ++++++++ ++++++++ ++++++++ ++++++++ ++++++++ ++++++++ ++++++++ ++++++++ ++++++++ ++++++++ ++++++++ ++++++++ ++++++++ ++++++++ ++++++++ ++++++++   +++++;;; ;;++++++ ++++++++ ++++++++ ++++++++ ++++++++ ++++++++ ++++++++ ++++++++ ++++++++ ++++++++ ++++++++ ++++++++ +;++;++; ++++++++ ;+++;++; ++++++++ ++;+;++; ++++++++ ++;+;++; +;++;+;+ +;++++++   +++++*** **++++++ ++++++++ ++++++++ ++++++++ ++++++++ ++++++++ ++++++++ ++++++++ ++++++++ ++++++++ ++++++++ ++++++++ +*++*++* ++++++++ *+++*++* ++++++++ ++*+*++* ++++++++ ++*+*++* +*++*+*+ +*++++++   +++++=== ==++++++ ++++++++ ++++++++ ++++++++ ++++++++ ++++++++ ++++++++ ++++++++ ++++++++ ++++++++ ++++++++ ++++++++ +=++=++= ++++++++ =+++=++= ++++++++ ++=+=++= ++++++++ ++=+=++= +=++=+=+ +=++++++  ",
" ++++++++ ++++++++ ++++++++ ++++++++ ++++++++ ++++++++ ++++++++ ++++++++ ++++++++ ++++++++ ++++++++ ++++++++ ++++++++ +@++@++@ +++++++@ ++++@++@ ++++++@+ ++@+@++@ ++++++@+ ++@+@++@ +@++@+@+ +@++++++   ++++++++ ++++++++ ++++++++ ++++++++ ++++++++ ++++++++ ++++++++ ++++++++ ++++++++ ++++++++ ++++++++ ++++++++ ++++++++ ++++++++ ++++++++ ++++++++ ++++++++ ++++++++ ++++++++ ++++++++ ++++++++ ++++++++   ++++++++ ++++++++ ++++++++ ++++++++ ++++++++ ++++++++ ++++++++ ++++++++ ++++++++ ++++++++ ++++++++ ++++++++ ++++++++ +;++;++; +++++++; ++++;++; ++++++;+ ++;+;++; ++++++;+ ++;+;++; +;++;+;+ +;++++++   ++++++++ ++++++++ ++++++++ ++++++++ ++++++++ ++++++++ ++++++++ ++++++++ ++++++++ ++++++++ ++++++++ ++++++++ ++++++++ +*++*++* +++++++* ++++*++* ++++++*+ ++*+*++* ++++++*+ ++*+*++* +*++*+*+ +*++++++   ++++++++ ++++++++ ++++++++ ++++++++ ++++++++ ++++++++ ++++++++ ++++++++ ++++++++ ++++++++ ++++++++ ++++++++ ++++++++ +=++=++= +++++++= ++++=++= ++++++=+ ++=+=++= ++++++=+ ++=+=++= +=++=+=+ +=++++++  ",
" ++++++++ ++++++++ ++++++++ ++++++++ ++++++++ ++++++++ ++++++++ ++++++++ ++++++++ ++++++++ ++++++++ ++++++++ ++++++++ @@@++@@+ ++++++@@ @@@++@@+ +++++++@ @@+++@@+ +++++++@ @@+++@@+ ++@@+++@ @+++++++   ++++++++ ++++++++ ++++++++ ++++++++ ++++++++ ++++++++ ++++++++ ++++++++ ++++++++ ++++++++ ++++++++ ++++++++ ++++++++ ++++++++ ++++++++ ++++++++ ++++++++ ++++++++ ++++++++ ++++++++ ++++++++ ++++++++   ++++++++ ++++++++ ++++++++ ++++++++ ++++++++ ++++++++ ++++++++ ++++++++ ++++++++ ++++++++ ++++++++ ++++++++ ++++++++ ;;;++;;+ ++++++;; ;;;++;;+ +++++++; ;;+++;;+ +++++++; ;;+++;;+ ++;;+++; ;+++++++   ++++++++ ++++++++ ++++++++ ++++++++ ++++++++ ++++++++ ++++++++ ++++++++ ++++++++ ++++++++ ++++++++ ++++++++ ++++++++ ***++**+ ++++++** ***++**+ +++++++* **+++**+ +++++++* **+++**+ ++**+++* *+++++++   ++++++++ ++++++++ ++++++++ ++++++++ ++++++++ ++++++++ ++++++++ ++++++++ ++++++++ ++++++++ ++++++++ ++++++++ ++++++++ ===++==+ ++++++== ===++==+ +++++++= ==+++==+ +++++++= ==+++==+ ++==+++= =+++++++  ",
" ++++++++ ++++++++ ++++++++ ++++++++ ++++++++ ++++++++ ++++++++ ++++++++ ++++++++ ++++++++ ++++++++ ++++++++ ++++++++ ++++++++ ++++++++ ++++++++ ++++++++ ++++++++ ++++++++ ++++++++ ++++++++ ++++++++   ++++++++ ++++++++ ++++++++ ++++++++ ++++++++ ++++++++ ++++++++ ++++++++ ++++++++ ++++++++ ++++++++ ++++++++ ++++++++ ++++++++ ++++++++ ++++++++ ++++++++ ++++++++ ++++++++ ++++++++ ++++++++ ++++++++   ++++++++ ++++++++ ++++++++ ++++++++ ++++++++ ++++++++ ++++++++ ++++++++ ++++++++ ++++++++ ++++++++ ++++++++ ++++++++ ++++++++ ++++++++ ++++++++ ++++++++ ++++++++ ++++++++ ++++++++ ++++++++ ++++++++   ++++++++ ++++++++ ++++++++ ++++++++ ++++++++ ++++++++ ++++++++ ++++++++ ++++++++ ++++++++ ++++++++ ++++++++ ++++++++ ++++++++ ++++++++ ++++++++ ++++++++ ++++++++ ++++++++ ++++++++ ++++++++ ++++++++   ++++++++ ++++++++ ++++++++ ++++++++ ++++++++ ++++++++ ++++++++ ++++++++ ++++++++ ++++++++ ++++++++ ++++++++ ++++++++ ++++++++ ++++++++ ++++++++ ++++++++ ++++++++ ++++++++ ++++++++ ++++++++ ++++++++  ",
"                                                                                                                                                                                                                                                                                                                                                                                                                                                                                                                                                                                                                                                                                                                                                                                                                                                                                                                                                                                                                                        ",
"                                                                                                                                                                                                                                                                                                                                                                                                                                                                                                                                                                                                                                                                                                                                                                                                                                                                                                                                                                                                                                        ",
" ++++++++++++++++ ++++++++++++++++ ++++++++++++++++ ++++++++++++++++ ++++++++++++++++ ++++++++++++++++ ++++++++++++++++ ++++++++++++++++ ++++++++++++---- ----++++++++++++  +++++++++++++++++++++++++    ++++++++++++++++ ++++++++++++++++ ++++++++++++++++ ++++++++++++++++ ++++++++++++++++ ++++++++++++++++ ++++++++++++++++ ++++++++++++++++ ++++++++++++==== ====++++++++++++  +++++++++++++++++++++++++    ++++++++++++++++ ++++++++++++++++ ++++++++++++++++ ++++++++++++++++ ++++++++++++++++ ++++++++++++++++ ++++++++++++++++ ++++++++++++++++ ++++++++++++$$$$ $$$$++++++++++++  +++++++++++++++++++++++++    ++++++++++++++++ ++++++++++++++++ ++++++++++++++++ ++++++++++++++++ ++++++++++++++++ ++++++++++++++++ ++++++++++++++++ ++++++++++++++++ ++++++++++++&&&& &&&&++++++++++++  +++++++++++++++++++++++++    ++++++++++++++++ ++++++++++++++++ ++++++++++++++++ ++++++++++++++++ ++++++++++++++++ ++++++++++++++++ ++++++++++++++++ ++++++++++++++++ ++++++++++++&&&& &&&&++++++++++++  +++++++++++++++++++++++++   ",
" ++++++@@@@++++++ ++++++@@@@++++++ ++++++@@@@++++++ ++++++@@@@++++++ ++++++@@@@++++++ ++++++@@@@++++++ ++++++@@@@++++++ ++++++@@@@++++++ +++++++++------- -------+++++++++  +++++++++++++++++++++++++    ++++++++++++++++ ++++++++++++++++ ++++++++++++++++ ++++++++++++++++ ++++++++++++++++ ++++++++++++++++ ++++++++++++++++ ++++++++++++++++ +++++++++======= =======+++++++++  +++++++++++++++++++++++++    ++++++;;;;++++++ ++++++;;;;++++++ ++++++;;;;++++++ ++++++;;;;++++++ ++++++;;;;++++++ ++++++;;;;++++++ ++++++;;;;++++++ ++++++;;;;++++++ +++++++++$$$$$$$ $$$$$$$+++++++++  +++++++++++++++++++++++++    ++++++****++++++ ++++++****++++++ ++++++****++++++ ++++++****++++++ ++++++****++++++ ++++++****++++++ ++++++****++++++ ++++++****++++++ +++++++++&&&&&&& &&&&&&&+++++++++  +++++++++++++++++++++++++    ++++++====++++++ ++++++====++++++ ++++++====++++++ ++++++====++++++ ++++++====++++++ ++++++====++++++ ++++++====++++++ ++++++====++++++ +++++++++&&&&&&& &&&&&&&+++++++++  +++++++++++++++++++++++++   ",
" ++++@@@@@@@@++++ ++++@@@@@@@@++++ ++++@@@@@@@@++++ ++++@@@@@@@@++++ ++++@@@@@@@@++++ ++++@@@@@@@@++++ ++++==@@@@==++++ ++++==@@@@==++++ +++++++--------- ---------+++++++  +++++++++++++++++++++++++    ++++++++++++++++ ++++++++++++++++ ++++++++++++++++ ++++++++++++++++ ++++++++++++++++ ++++++++++++++++ ++++**++++**++++ ++++**++++**++++ +++++++========= =========+++++++  +++++++++++++++++++++++++    ++++;;;;;;;;++++ ++++;;;;;;;;++++ ++++;;;;;;;;++++ ++++;;;;;;;;++++ ++++;;;;;;;;++++ ++++;;;;;;;;++++ ++++##;;;;##++++ ++++##;;;;##++++ +++++++$$$$$$$$$ $$$$$$$$$+++++++  +++++++++++++++++++++++++    ++++********++++ ++++********++++ ++++********++++ ++++********++++ ++++********++++ ++++********++++ ++++++****++++++ ++++++****++++++ +++++++&&&&&&&&& &&&&&&&&&+++++++  +++++++++++++++++++++++++    ++++========++++ ++++========++++ ++++========++++ ++++========++++ ++++========++++ ++++========++++ ++++++====++++++ ++++++====++++++ +++++++&&&&&&&&& &&&&&&&&&+++++++  +++++++++++++++++++++++++   ",
" +++@@@@@@@@@@+++ +++@@@@@@@@@@+++ +++@@@@@@@@@@+++ +++@@@@@@@@@@+++ +++@@@@@@@@@@+++ +++@@@@@@@@@@+++ +++-==-@@-==-+++ +++-==-@@-==-+++ ++++++---------- ----------++++++  +++++++++++++++++++++++++    ++++++++++++++++ ++++++++++++++++ ++++++++++++++++ ++++++++++++++++ ++++++++++++++++ ++++++++++++++++ +++=**=++=**=+++ +++=**=++=**=+++ ++++++========== ==========++++++  +++++++++++++++++++++++++    +++;;;;;;;;;;+++ +++;;;;;;;;;;+++ +++;;;;;;;;;;+++ +++;;;;;;;;;;+++ +++;;;;;;;;;;+++ +++;;;;;;;;;;+++ +++$##$;;$##$+++ +++$##$;;$##$+++ ++++++$$$$$$$$$$ $$$$$$$$$$++++++  +++++++++++++++++++++++++    +++**********+++ +++**********+++ +++**********+++ +++**********+++ +++**********+++ +++**********+++ +++&++&**&++&+++ +++&++&**&++&+++ ++++++&&&&&&&&&& &&&&&&&&&&++++++  +++++++++++++++++++++++++    +++==========+++ +++==========+++ +++==========+++ +++==========+++ +++==========+++ +++==========+++ +++&++&==&++&+++ +++&++&==&++&+++ ++++++&&&&&&&&&& &&&&&&&&&&++++++  +++++++++++++++++++++++++   ",
" ++@@@--@@@@--@++ ++@@@--@@@@--@++ ++@@@@@@@@@@@@++ ++@@@@@@@@@@@@++ ++@--@@@@--@@@++ ++@--@@@@--@@@++ ++@----@@----@++ ++@----@@----@++ +++++----------- -----------+++++  +++++++++++++++++++++++++    +++++==++++==+++ +++++==++++==+++ ++++++++++++++++ ++++++++++++++++ +++==++++==+++++ +++==++++==+++++ +++====++====+++ +++====++====+++ +++++=========== ===========+++++  +++++++++++++++++++++++++    ++;;;$$;;;;$$;++ ++;;;$$;;;;$$;++ ++;;;;;;;;;;;;++ ++;;;;;;;;;;;;++ ++;$$;;;;$$;;;++ ++;$$;;;;$$;;;++ ++;$$$$;;$$$$;++ ++;$$$$;;$$$$;++ +++++$$$$$$$$$$$ $$$$$$$$$$$+++++  +++++++++++++++++++++++++    ++***&&****&&*++ ++***&&****&&*++ ++************++ ++************++ ++*&&****&&***++ ++*&&****&&***++ ++*&&&&**&&&&*++ ++*&&&&**&&&&*++ +++++&&&&&&&&&&& &&&&&&&&&&&+++++  +++++++++++++++++++++++++    ++===&&====&&=++ ++===&&====&&=++ ++============++ ++============++ ++=&&====&&===++ ++=&&====&&===++ ++=&&&&==&&&&=++ ++=&&&&==&&&&=++ +++++&&&&&&&&&&& &&&&&&&&&&&+++++  +++++++++++++++++++++++++   ",
" ++@@----@@----++ ++@@----@@----++ ++@@--@@@@--@@++ ++@@--@@@@--@@++ ++----@@----@@++ ++----@@----@@++ ++@----@@----@++ ++@----@@----@++ ++++------------ ------------++++  +++++++++++++++++++++++++    ++++====++====++ ++++====++====++ ++++==++++==++++ ++++==++++==++++ ++====++====++++ ++====++====++++ +++====++====+++ +++====++====+++ ++++============ ============++++  +++++++++++++++++++++++++    ++;;$$$$;;$$$$++ ++;;$$$$;;$$$$++ ++;;$$;;;;$$;;++ ++;;$$;;;;$$;;++ ++$$$$;;$$$$;;++ ++$$$$;;$$$$;;++ ++;$$$$;;$$$$;++ ++;$$$$;;$$$$;++ ++++$$$$$$$$$$$$ $$$$$$$$$$$$++++  +++++++++++++++++++++++++    ++**&&&&**&&&&++ ++**&&&&**&&&&++ ++**&&****&&**++ ++**&&****&&**++ ++&&&&**&&&&**++ ++&&&&**&&&&**++ ++*&&&&**&&&&*++ ++*&&&&**&&&&*++ ++++&&&&&&&&&&&& &&&&&&&&&&&&++++  +++++++++++++++++++++++++    ++==&&&&==&&&&++ ++==&&&&==&&&&++ ++==&&====&&==++ ++==&&====&&==++ ++&&&&==&&&&==++ ++&&&&==&&&&==++ ++=&&&&==&&&&=++ ++=&&&&==&&&&=++ ++++&&&&&&&&&&&& &&&&&&&&&&&&++++  +++++++++++++++++++++++++   ",
" ++@@--==@@--==++ ++@@--==@@--==++ ++@----@@----@++ ++@----@@----@++ ++==--@@==--@@++ ++==--@@==--@@++ ++@@--@@@@--@@++ ++@@--@@@@--@@++ +++------------- -------------+++  +++++++++++++++++++++++++    ++++==**++==**++ ++++==**++==**++ +++====++====+++ +++====++====+++ ++**==++**==++++ ++**==++**==++++ ++++==++++==++++ ++++==++++==++++ +++============= =============+++  +++++++++++++++++++++++++    ++;;$$##;;$$##++ ++;;$$##;;$$##++ ++;$$$$;;$$$$;++ ++;$$$$;;$$$$;++ ++##$$;;##$$;;++ ++##$$;;##$$;;++ ++;;$$;;;;$$;;++ ++;;$$;;;;$$;;++ +++$$$$$$$$$$$$$ $$$$$$$$$$$$$+++  +++++++++++++++++++++++++    ++**&&++**&&++++ ++**&&++**&&++++ ++*&&&&**&&&&*++ ++*&&&&**&&&&*++ ++++&&**++&&**++ ++++&&**++&&**++ ++**&&****&&**++ ++**&&****&&**++ +++&&&&&&&&&&&&& &&&&&&&&&&&&&+++  +++++++++++++++++++++++++    ++==&&++==&&++++ ++==&&++==&&++++ ++=&&&&==&&&&=++ ++=&&&&==&&&&=++ ++++&&==++&&==++ ++++&&==++&&==++ ++==&&====&&==++ ++==&&====&&==++ +++&&&&&&&&&&&&& &&&&&&&&&&&&&+++  +++++++++++++++++++++++++   ",
" +@@@--==@@--==@+ +@@@--==@@--==@+ +@@----@@----@@+ +@@----@@----@@+ +@==--@@==--@@@+ +@==--@@==--@@@+ +@@@@@@@@@@@@@@+ +@@@@@@@@@@@@@@+ ++-------------- --------------++  +++++++++++++++++++++++++    ++++==**++==**++ ++++==**++==**++ +++====++====+++ +++====++====+++ ++**==++**==++++ ++**==++**==++++ ++++++++++++++++ ++++++++++++++++ ++============== ==============++  +++++++++++++++++++++++++    +;;;$$##;;$$##;+ +;;;$$##;;$$##;+ +;;$$$$;;$$$$;;+ +;;$$$$;;$$$$;;+ +;##$$;;##$$;;;+ +;##$$;;##$$;;;+ +;;;;;;;;;;;;;;+ +;;;;;;;;;;;;;;+ ++$$$$$$$$$$$$$$ $$$$$$$$$$$$$$++  +++++++++++++++++++++++++    +***&&++**&&++*+ +***&&++**&&++*+ +**&&&&**&&&&**+ +**&&&&**&&&&**+ +*++&&**++&&***+ +*++&&**++&&***+ +**************+ +**************+ ++&&&&&&&&&&&&&& &&&&&&&&&&&&&&++  +++++++++++++++++++++++++    +===&&++==&&++=+ +===&&++==&&++=+ +==&&&&==&&&&==+ +==&&&&==&&&&==+ +=++&&==++&&===+ +=++&&==++&&===+ +==============+ +==============+ ++&&&&&&&&&&&&&& &&&&&&&&&&&&&&++  +++++++++++++++++++++++++   ",
" +@@@@--@@@@--@@+ +@@@@--@@@@--@@+ +@@-==-@@-==-@@+ +@@-==-@@-==-@@+ +@@--@@@@--@@@@+ +@@--@@@@--@@@@+ +@@@@@@@@@@@@@@+ +@@@@@@@@@@@@@@+ ++-------------- --------------++  +++++++++++++++++++++++++    +++++==++++==+++ +++++==++++==+++ +++=**=++=**=+++ +++=**=++=**=+++ +++==++++==+++++ +++==++++==+++++ ++++++++++++++++ ++++++++++++++++ ++============== ==============++  +++++++++++++++++++++++++    +;;;;$$;;;;$$;;+ +;;;;$$;;;;$$;;+ +;;$##$;;$##$;;+ +;;$##$;;$##$;;+ +;;$$;;;;$$;;;;+ +;;$$;;;;$$;;;;+ +;;;;;;;;;;;;;;+ +;;;;;;;;;;;;;;+ ++$$$$$$$$$$$$$$ $$$$$$$$$$$$$$++  +++++++++++++++++++++++++    +****&&****&&**+ +****&&****&&**+ +**&++&**&++&**+ +**&++&**&++&**+ +**&&****&&****+ +**&&****&&****+ +**************+ +**************+ ++&&&&&&&&&&&&&& &&&&&&&&&&&&&&++  +++++++++++++++++++++++++    +====&&====&&==+ +====&&====&&==+ +==&++&==&++&==+ +==&++&==&++&==+ +==&&====&&====+ +==&&====&&====+ +==============+ +==============+ ++&&&&&&&&&&&&&& &&&&&&&&&&&&&&++  +++++++++++++++++++++++++   ",
" +@@@@@@@@@@@@@@+ +@@@@@@@@@@@@@@+ +@@@==@@@@==@@@+ +@@@==@@@@==@@@+ +@@@@@@@@@@@@@@+ +@@@@@@@@@@@@@@+ +@@@@@@@@@@@@@@+ +@@@@@@@@@@@@@@+ +--------------- ---------------+  +++++++++++++++++++++++++    ++++++++++++++++ ++++++++++++++++ ++++**++++**++++ ++++**++++**++++ ++++++++++++++++ ++++++++++++++++ ++++++++++++++++ ++++++++++++++++ +=============== ===============+  +++++++++++++++++++++++++    +;;;;;;;;;;;;;;+ +;;;;;;;;;;;;;;+ +;;;##;;;;##;;;+ +;;;##;;;;##;;;+ +;;;;;;;;;;;;;;+ +;;;;;;;;;;;;;;+ +;;;;;;;;;;;;;;+ +;;;;;;;;;;;;;;+ +$$$$$$$$$$$$$$$ $$$$$$$$$$$$$$$+  +++++++++++++++++++++++++    +**************+ +**************+ +***++****++***+ +***++****++***+ +**************+ +**************+ +**************+ +**************+ +&&&&&&&&&&&&&&& &&&&&&&&&&&&&&&+  +++++++++++++++++++++++++    +==============+ +==============+ +===++====++===+ +===++====++===+ +==============+ +==============+ +==============+ +==============+ +&&&&&&&&&&&&&&& &&&&&&&&&&&&&&&+  +++++++++++++++++++++++++   ",
" +@@@@@@@@@@@@@@+ +@@@@@@@@@@@@@@+ +@@@@@@@@@@@@@@+ +@@@@@@@@@@@@@@+ +@@@@@@@@@@@@@@+ +@@@@@@@@@@@@@@+ +@@@@@@@@@@@@@@+ +@@@@@@@@@@@@@@+ +--------------- ---------------+  +++++++++++++++++++++++++    ++++++++++++++++ ++++++++++++++++ ++++++++++++++++ ++++++++++++++++ ++++++++++++++++ ++++++++++++++++ ++++++++++++++++ ++++++++++++++++ +=============== ===============+  +++++++++++++++++++++++++    +;;;;;;;;;;;;;;+ +;;;;;;;;;;;;;;+ +;;;;;;;;;;;;;;+ +;;;;;;;;;;;;;;+ +;;;;;;;;;;;;;;+ +;;;;;;;;;;;;;;+ +;;;;;;;;;;;;;;+ +;;;;;;;;;;;;;;+ +$$$$$$$$$$$$$$$ $$$$$$$$$$$$$$$+  +++++++++++++++++++++++++    +**************+ +**************+ +**************+ +**************+ +**************+ +**************+ +**************+ +**************+ +&&&&&&&&&&&&&&& &&&&&&&&&&&&&&&+  +++++++++++++++++++++++++    +==============+ +==============+ +==============+ +==============+ +==============+ +==============+ +==============+ +==============+ +&&&&&&&&&&&&&&& &&&&&&&&&&&&&&&+  +++++++++++++++++++++++++   ",
" +@@@@@@@@@@@@@@+ +@@@@@@@@@@@@@@+ +@@@@@@@@@@@@@@+ +@@@@@@@@@@@@@@+ +@@@@@@@@@@@@@@+ +@@@@@@@@@@@@@@+ +@@@@@@@@@@@@@@+ +@@@@@@@@@@@@@@+ +--------------- ---------------+  +++++++++++++++++++++++++    ++++++++++++++++ ++++++++++++++++ ++++++++++++++++ ++++++++++++++++ ++++++++++++++++ ++++++++++++++++ ++++++++++++++++ ++++++++++++++++ +=============== ===============+  +++++++++++++++++++++++++    +;;;;;;;;;;;;;;+ +;;;;;;;;;;;;;;+ +;;;;;;;;;;;;;;+ +;;;;;;;;;;;;;;+ +;;;;;;;;;;;;;;+ +;;;;;;;;;;;;;;+ +;;;;;;;;;;;;;;+ +;;;;;;;;;;;;;;+ +$$$$$$$$$$$$$$$ $$$$$$$$$$$$$$$+  +++++++++++++++++++++++++    +**************+ +**************+ +**************+ +**************+ +**************+ +**************+ +**************+ +**************+ +&&&&&&&&&&&&&&& &&&&&&&&&&&&&&&+  +++++++++++++++++++++++++    +==============+ +==============+ +==============+ +==============+ +==============+ +==============+ +==============+ +==============+ +&&&&&&&&&&&&&&& &&&&&&&&&&&&&&&+  +++++++++++++++++++++++++   ",
" +@@@@@@@@@@@@@@+ +@@@@@@@@@@@@@@+ +@@@@@@@@@@@@@@+ +@@@@@@@@@@@@@@+ +@@@@@@@@@@@@@@+ +@@@@@@@@@@@@@@+ +@@@@@@@@@@@@@@+ +@@@@@@@@@@@@@@+ ---------------- ----------------  +++++++++++++++++++++++++    ++++++++++++++++ ++++++++++++++++ ++++++++++++++++ ++++++++++++++++ ++++++++++++++++ ++++++++++++++++ ++++++++++++++++ ++++++++++++++++ ================ ================  +++++++++++++++++++++++++    +;;;;;;;;;;;;;;+ +;;;;;;;;;;;;;;+ +;;;;;;;;;;;;;;+ +;;;;;;;;;;;;;;+ +;;;;;;;;;;;;;;+ +;;;;;;;;;;;;;;+ +;;;;;;;;;;;;;;+ +;;;;;;;;;;;;;;+ $$$$$$$$$$$$$$$$ $$$$$$$$$$$$$$$$  +++++++++++++++++++++++++    +**************+ +**************+ +**************+ +**************+ +**************+ +**************+ +**************+ +**************+ &&&&&&&&&&&&&&&& &&&&&&&&&&&&&&&&  +++++++++++++++++++++++++    +==============+ +==============+ +==============+ +==============+ +==============+ +==============+ +==============+ +==============+ &&&&&&&&&&&&&&&& &&&&&&&&&&&&&&&&  +++++++++++++++++++++++++   ",
" +@@+@@@++@@@+@@+ +@@@@+@@@@+@@@@+ +@@+@@@++@@@+@@+ +@@@@+@@@@+@@@@+ +@@+@@@++@@@+@@+ +@@@@+@@@@+@@@@+ +@@+@@@++@@@+@@+ +@@@@+@@@@+@@@@+ ---------------- ----------------  +++++++++++++++++++++++++    ++++++++++++++++ ++++++++++++++++ ++++++++++++++++ ++++++++++++++++ ++++++++++++++++ ++++++++++++++++ ++++++++++++++++ ++++++++++++++++ ================ ================  +++++++++++++++++++++++++    +;;+;;;++;;;+;;+ +;;;;+;;;;+;;;;+ +;;+;;;++;;;+;;+ +;;;;+;;;;+;;;;+ +;;+;;;++;;;+;;+ +;;;;+;;;;+;;;;+ +;;+;;;++;;;+;;+ +;;;;+;;;;+;;;;+ $$$$$$$$$$$$$$$$ $$$$$$$$$$$$$$$$  +++++++++++++++++++++++++    +**+***++***+**+ +****+****+****+ +**+***++***+**+ +****+****+****+ +**+***++***+**+ +****+****+****+ +**+***++***+**+ +****+****+****+ &&&&&&&&&&&&&&&& &&&&&&&&&&&&&&&&  +++++++++++++++++++++++++    +==+===++===+==+ +====+====+====+ +==+===++===+==+ +====+====+====+ +==+===++===+==+ +====+====+====+ +==+===++===+==+ +====+====+====+ &&&&&&&&&&&&&&&& &&&&&&&&&&&&&&&&  +++++++++++++++++++++++++   ",
" +@+++@@++@@+++@+ ++@@+++@@+++@@++ +@+++@@++@@+++@+ ++@@+++@@+++@@++ +@+++@@++@@+++@+ ++@@+++@@+++@@++ +@+++@@++@@+++@+ ++@@+++@@+++@@++ ---------------- ----------------  +++++++++++++++++++++++++    ++++++++++++++++ ++++++++++++++++ ++++++++++++++++ ++++++++++++++++ ++++++++++++++++ ++++++++++++++++ ++++++++++++++++ ++++++++++++++++ ================ ================  +++++++++++++++++++++++++    +;+++;;++;;+++;+ ++;;+++;;+++;;++ +;+++;;++;;+++;+ ++;;+++;;+++;;++ +;+++;;++;;+++;+ ++;;+++;;+++;;++ +;+++;;++;;+++;+ ++;;+++;;+++;;++ $$$$$$$$$$$$$$$$ $$$$$$$$$$$$$$$$  +++++++++++++++++++++++++    +*+++**++**+++*+ ++**+++**+++**++ +*+++**++**+++*+ ++**+++**+++**++ +*+++**++**+++*+ ++**+++**+++**++ +*+++**++**+++*+ ++**+++**+++**++ &&&&&&&&&&&&&&&& &&&&&&&&&&&&&&&&  +++++++++++++++++++++++++    +=+++==++==+++=+ ++==+++==+++==++ +=+++==++==+++=+ ++==+++==+++==++ +=+++==++==+++=+ ++==+++==+++==++ +=+++==++==+++=+ ++==+++==+++==++ &&&&&&&&&&&&&&&& &&&&&&&&&&&&&&&&  +++++++++++++++++++++++++   ",
" ++++++++++++++++ ++++++++++++++++ ++++++++++++++++ ++++++++++++++++ ++++++++++++++++ ++++++++++++++++ ++++++++++++++++ ++++++++++++++++ ---------------- ----------------  +++++++++++++++++++++++++    ++++++++++++++++ ++++++++++++++++ ++++++++++++++++ ++++++++++++++++ ++++++++++++++++ ++++++++++++++++ ++++++++++++++++ ++++++++++++++++ ================ ================  +++++++++++++++++++++++++    ++++++++++++++++ ++++++++++++++++ ++++++++++++++++ ++++++++++++++++ ++++++++++++++++ ++++++++++++++++ ++++++++++++++++ ++++++++++++++++ $$$$$$$$$$$$$$$$ $$$$$$$$$$$$$$$$  +++++++++++++++++++++++++    ++++++++++++++++ ++++++++++++++++ ++++++++++++++++ ++++++++++++++++ ++++++++++++++++ ++++++++++++++++ ++++++++++++++++ ++++++++++++++++ &&&&&&&&&&&&&&&& &&&&&&&&&&&&&&&&  +++++++++++++++++++++++++    ++++++++++++++++ ++++++++++++++++ ++++++++++++++++ ++++++++++++++++ ++++++++++++++++ ++++++++++++++++ ++++++++++++++++ ++++++++++++++++ &&&&&&&&&&&&&&&& &&&&&&&&&&&&&&&&  +++++++++++++++++++++++++   ",
"                                                                                                                                                                            +++++++++++++++++++++++++                                                                                                                                                                               +++++++++++++++++++++++++                                                                                                                                                                               +++++++++++++++++++++++++                                                                                                                                                                               +++++++++++++++++++++++++                                                                                                                                                                               +++++++++++++++++++++++++   ",
" ++++++++++++++++ ++++++++++++++++ ++++++++++++++++ ++++++++++++++++ ++++++++++++++++ ++++++++++++++++ ++++++++++++++++ ++++++++++++++++ ---------------- ----------------  +++++++++++++++++++++++++    ++++++++++++++++ ++++++++++++++++ ++++++++++++++++ ++++++++++++++++ ++++++++++++++++ ++++++++++++++++ ++++++++++++++++ ++++++++++++++++ ================ ================  +++++++++++++++++++++++++    ++++++++++++++++ ++++++++++++++++ ++++++++++++++++ ++++++++++++++++ ++++++++++++++++ ++++++++++++++++ ++++++++++++++++ ++++++++++++++++ $$$$$$$$$$$$$$$$ $$$$$$$$$$$$$$$$  +++++++++++++++++++++++++    ++++++++++++++++ ++++++++++++++++ ++++++++++++++++ ++++++++++++++++ ++++++++++++++++ ++++++++++++++++ ++++++++++++++++ ++++++++++++++++ &&&&&&&&&&&&&&&& &&&&&&&&&&&&&&&&  +++++++++++++++++++++++++    ++++++++++++++++ ++++++++++++++++ ++++++++++++++++ ++++++++++++++++ ++++++++++++++++ ++++++++++++++++ ++++++++++++++++ ++++++++++++++++ &&&&&&&&&&&&&&&& &&&&&&&&&&&&&&&&  +++++++++++++++++++++++++   ",
" ++++++@@@@++++++ ++++++@@@@++++++ ++++++@@@@++++++ ++++++@@@@++++++ ++++++++++++++++ ++++++++++++++++ ++++++++++++++++ ++++++++++++++++ ---------------- ----------------  +++++++++++++++++++++++++    ++++++++++++++++ ++++++++++++++++ ++++++++++++++++ ++++++++++++++++ ++++++++++++++++ ++++++++++++++++ ++++++++++++++++ ++++++++++++++++ ================ ================  +++++++++++++++++++++++++    ++++++;;;;++++++ ++++++;;;;++++++ ++++++;;;;++++++ ++++++;;;;++++++ ++++++++++++++++ ++++++++++++++++ ++++++++++++++++ ++++++++++++++++ $$$$$$$$$$$$$$$$ $$$$$$$$$$$$$$$$  +++++++++++++++++++++++++    ++++++****++++++ ++++++****++++++ ++++++****++++++ ++++++****++++++ ++++++++++++++++ ++++++++++++++++ ++++++++++++++++ ++++++++++++++++ &&&&&&&&&&&&&&&& &&&&&&&&&&&&&&&&  +++++++++++++++++++++++++    ++++++====++++++ ++++++====++++++ ++++++====++++++ ++++++====++++++ ++++++++++++++++ ++++++++++++++++ ++++++++++++++++ ++++++++++++++++ &&&&&&&&&&&&&&&& &&&&&&&&&&&&&&&&  +++++++++++++++++++++++++   ",
" ++++++@@@@++++++ ++++@@@@@@@@++++ ++++@@@@@@@@++++ ++++@@@@@@@@++++ ++++++++++++++++ ++++++++++++++++ ++++++++++++++++ ++++++++++++++++ ---------------- ----------------  +++++++++++++++++++++++++    ++++++++++++++++ ++++++++++++++++ ++++++++++++++++ ++++++++++++++++ ++++++++++++++++ ++++++++++++++++ ++++++++++++++++ ++++++++++++++++ ================ ================  +++++++++++++++++++++++++    ++++++;;;;++++++ ++++;;;;;;;;++++ ++++;;;;;;;;++++ ++++;;;;;;;;++++ ++++++++++++++++ ++++++++++++++++ ++++++++++++++++ ++++++++++++++++ $$$$$$$$$$$$$$$$ $$$$$$$$$$$$$$$$  +++++++++++++++++++++++++    ++++++****++++++ ++++********++++ ++++********++++ ++++********++++ ++++++++++++++++ ++++++++++++++++ ++++++++++++++++ ++++++++++++++++ &&&&&&&&&&&&&&&& &&&&&&&&&&&&&&&&  +++++++++++++++++++++++++    ++++++====++++++ ++++========++++ ++++========++++ ++++========++++ ++++++++++++++++ ++++++++++++++++ ++++++++++++++++ ++++++++++++++++ &&&&&&&&&&&&&&&& &&&&&&&&&&&&&&&&  +++++++++++++++++++++++++   ",
" +++-++-@@-++-+++ +++@--@@@@--@+++ +++@@@@@@@@@@+++ +++@@@@@@@@@@+++ ++++++++++++++++ ++++++++++++++++ ++++++++++++++++ ++++++++++++++++ ---------------- ----------------  +++++++++++++++++++++++++    +++=++=++=++=+++ ++++==++++==++++ ++++++++++++++++ ++++++++++++++++ ++++++++++++++++ ++++++++++++++++ ++++++++++++++++ ++++++++++++++++ ================ ================  +++++++++++++++++++++++++    +++$++$;;$++$+++ +++;$$;;;;$$;+++ +++;;;;;;;;;;+++ +++;;;;;;;;;;+++ ++++++++++++++++ ++++++++++++++++ ++++++++++++++++ ++++++++++++++++ $$$$$$$$$$$$$$$$ $$$$$$$$$$$$$$$$  +++++++++++++++++++++++++    +++&++&**&++&+++ +++*&&****&&*+++ +++**********+++ +++**********+++ ++++++++++++++++ ++++++++++++++++ ++++++++++++++++ ++++++++++++++++ &&&&&&&&&&&&&&&& &&&&&&&&&&&&&&&&  +++++++++++++++++++++++++    +++&++&==&++&+++ +++=&&====&&=+++ +++==========+++ +++==========+++ ++++++++++++++++ ++++++++++++++++ ++++++++++++++++ ++++++++++++++++ &&&&&&&&&&&&&&&& &&&&&&&&&&&&&&&&  +++++++++++++++++++++++++   ",
" ++@----@@----@++ ++@----@@----@++ ++@--@@@@--@@@++ ++@--@@@@--@@@++ +++++++++--+--++ +++++++++--+--++ ++++++++++++++++ ++++++++++++++++ +--------------- ---------------+  +++++++++++++++++++++++++    +++====++====+++ +++====++====+++ +++==++++==+++++ +++==++++==+++++ +++++++++==+==++ +++++++++==+==++ ++++++++++++++++ ++++++++++++++++ +=============== ===============+  +++++++++++++++++++++++++    ++;$$$$;;$$$$;++ ++;$$$$;;$$$$;++ ++;$$;;;;$$;;;++ ++;$$;;;;$$;;;++ +++++++++$$+$$++ +++++++++$$+$$++ ++++++++++++++++ ++++++++++++++++ +$$$$$$$$$$$$$$$ $$$$$$$$$$$$$$$+  +++++++++++++++++++++++++    ++*&&&&**&&&&*++ ++*&&&&**&&&&*++ ++*&&****&&***++ ++*&&****&&***++ +++++++++&&+&&++ +++++++++&&+&&++ ++++++++++++++++ ++++++++++++++++ +&&&&&&&&&&&&&&& &&&&&&&&&&&&&&&+  +++++++++++++++++++++++++    ++=&&&&==&&&&=++ ++=&&&&==&&&&=++ ++=&&====&&===++ ++=&&====&&===++ +++++++++&&+&&++ +++++++++&&+&&++ ++++++++++++++++ ++++++++++++++++ +&&&&&&&&&&&&&&& &&&&&&&&&&&&&&&+  +++++++++++++++++++++++++   ",
" ++@----@@----@++ ++@----@@----@++ ++----@@----@@++ ++----@@----@@++ ++++++++--==-==+ ++++++++--==-==+ ++++++++++++++++ ++++++++++++++++ +--------------- ---------------+  +++++++++++++++++++++++++    +++====++====+++ +++====++====+++ ++====++====++++ ++====++====++++ ++++++++==**=**+ ++++++++==**=**+ ++++++++++++++++ ++++++++++++++++ +=============== ===============+  +++++++++++++++++++++++++    ++;$$$$;;$$$$;++ ++;$$$$;;$$$$;++ ++$$$$;;$$$$;;++ ++$$$$;;$$$$;;++ ++++++++$$##$##+ ++++++++$$##$##+ ++++++++++++++++ ++++++++++++++++ +$$$$$$$$$$$$$$$ $$$$$$$$$$$$$$$+  +++++++++++++++++++++++++    ++*&&&&**&&&&*++ ++*&&&&**&&&&*++ ++&&&&**&&&&**++ ++&&&&**&&&&**++ ++++++++&&++&+++ ++++++++&&++&+++ ++++++++++++++++ ++++++++++++++++ +&&&&&&&&&&&&&&& &&&&&&&&&&&&&&&+  +++++++++++++++++++++++++    ++=&&&&==&&&&=++ ++=&&&&==&&&&=++ ++&&&&==&&&&==++ ++&&&&==&&&&==++ ++++++++&&++&+++ ++++++++&&++&+++ ++++++++++++++++ ++++++++++++++++ +&&&&&&&&&&&&&&& &&&&&&&&&&&&&&&+  +++++++++++++++++++++++++   ",
" ++@@--@@@@--@@++ ++@--++@@--++@++ ++==--@@==--@@++ ++==--@@==--@@++ ++++++++--==-==+ ++++++++--==-==+ ++++++++++++++++ ++++++++++++++++ +--------------- ---------------+  +++++++++++++++++++++++++    ++++==++++==++++ +++==++++==+++++ ++**==++**==++++ ++**==++**==++++ ++++++++==**=**+ ++++++++==**=**+ ++++++++++++++++ ++++++++++++++++ +=============== ===============+  +++++++++++++++++++++++++    ++;;$$;;;;$$;;++ ++;$$++;;$$++;++ ++##$$;;##$$;;++ ++##$$;;##$$;;++ ++++++++$$##$##+ ++++++++$$##$##+ ++++++++++++++++ ++++++++++++++++ +$$$$$$$$$$$$$$$ $$$$$$$$$$$$$$$+  +++++++++++++++++++++++++    ++**&&****&&**++ ++*&&++**&&++*++ ++++&&**++&&**++ ++++&&**++&&**++ ++++++++&&++&+++ ++++++++&&++&+++ ++++++++++++++++ ++++++++++++++++ +&&&&&&&&&&&&&&& &&&&&&&&&&&&&&&+  +++++++++++++++++++++++++    ++==&&====&&==++ ++=&&++==&&++=++ ++++&&==++&&==++ ++++&&==++&&==++ ++++++++&&++&+++ ++++++++&&++&+++ ++++++++++++++++ ++++++++++++++++ +&&&&&&&&&&&&&&& &&&&&&&&&&&&&&&+  +++++++++++++++++++++++++   ",
" +@@@@@@@@@@@@@@+ +@@@-+@@@@-+@@@+ +@==--@@==--@@@+ +@==--@@==--@@@+ +++++++@@--@--++ +++++++@@--@--++ ++++++++++++++++ ++++++++++++++++ ++-------------- --------------++  +++++++++++++++++++++++++    ++++++++++++++++ ++++=+++++=+++++ ++**==++**==++++ ++**==++**==++++ +++++++++==+==++ +++++++++==+==++ ++++++++++++++++ ++++++++++++++++ ++============== ==============++  +++++++++++++++++++++++++    +;;;;;;;;;;;;;;+ +;;;$+;;;;$+;;;+ +;##$$;;##$$;;;+ +;##$$;;##$$;;;+ +++++++;;$$;$$++ +++++++;;$$;$$++ ++++++++++++++++ ++++++++++++++++ ++$$$$$$$$$$$$$$ $$$$$$$$$$$$$$++  +++++++++++++++++++++++++    +**************+ +***&+****&+***+ +*++&&**++&&***+ +*++&&**++&&***+ +++++++**&&*&&++ +++++++**&&*&&++ ++++++++++++++++ ++++++++++++++++ ++&&&&&&&&&&&&&& &&&&&&&&&&&&&&++  +++++++++++++++++++++++++    +==============+ +===&+====&+===+ +=++&&==++&&===+ +=++&&==++&&===+ +++++++==&&=&&++ +++++++==&&=&&++ ++++++++++++++++ ++++++++++++++++ ++&&&&&&&&&&&&&& &&&&&&&&&&&&&&++  +++++++++++++++++++++++++   ",
" +@@@@@@@@@@@@=++ +@@@@@@@@@@@@=++ +@@--@@@@--@-@-+ +@@--@@@@--@-@-+ +++++@@@@@@@@+++ +++++++@@@@@@+++ ++++++++++++++++ ++++++++++++++++ ++-------------- --------------++  -------------------------    +++++++++++++*++ +++++++++++++*++ +++==++++==+=+=+ +++==++++==+=+=+ ++++++++++++++++ ++++++++++++++++ ++++++++++++++++ ++++++++++++++++ ++============== ==============++  =========================    +;;;;;;;;;;;;#++ +;;;;;;;;;;;;#++ +;;$$;;;;$$;$;$+ +;;$$;;;;$$;$;$+ +++++;;;;;;;;+++ +++++++;;;;;;+++ ++++++++++++++++ ++++++++++++++++ ++$$$$$$$$$$$$$$ $$$$$$$$$$$$$$++  $$$$$$$$$$$$$$$$$$$$$$$$$    +************+++ +************+++ +**&&****&&*&*&+ +**&&****&&*&*&+ +++++********+++ +++++++******+++ ++++++++++++++++ ++++++++++++++++ ++&&&&&&&&&&&&&& &&&&&&&&&&&&&&++  &&&&&&&&&&&&&&&&&&&&&&&&&    +============+++ +============+++ +==&&====&&=&=&+ +==&&====&&=&=&+ +++++========+++ +++++++======+++ ++++++++++++++++ ++++++++++++++++ ++&&&&&&&&&&&&&& &&&&&&&&&&&&&&++  &&&&&&&&&&&&&&&&&&&&&&&&&   ",
" +@@@@@@@@@@@==++ +@@@@@@@@@@@==++ +@@@@@@@@@@-@-@+ +@@@@@@@@@@-@-@+ ++++@@@@@@@@++++ ++++++@@@@@@@+++ ++++++++++++++++ ++++++++++++++++ +++------------- -------------+++  -------------------------    ++++++++++++**++ ++++++++++++**++ +++++++++++=+=++ +++++++++++=+=++ ++++++++++++++++ ++++++++++++++++ ++++++++++++++++ ++++++++++++++++ +++============= =============+++  =========================    +;;;;;;;;;;;##++ +;;;;;;;;;;;##++ +;;;;;;;;;;$;$;+ +;;;;;;;;;;$;$;+ ++++;;;;;;;;++++ ++++++;;;;;;;+++ ++++++++++++++++ ++++++++++++++++ +++$$$$$$$$$$$$$ $$$$$$$$$$$$$+++  $$$$$$$$$$$$$$$$$$$$$$$$$    +***********++++ +***********++++ +**********&*&*+ +**********&*&*+ ++++********++++ ++++++*******+++ ++++++++++++++++ ++++++++++++++++ +++&&&&&&&&&&&&& &&&&&&&&&&&&&+++  &&&&&&&&&&&&&&&&&&&&&&&&&    +===========++++ +===========++++ +==========&=&=+ +==========&=&=+ ++++========++++ ++++++=======+++ ++++++++++++++++ ++++++++++++++++ +++&&&&&&&&&&&&& &&&&&&&&&&&&&+++  &&&&&&&&&&&&&&&&&&&&&&&&&   ",
" +@@@@@@@@@@===++ +@@@@@@@@@@===++ +@@@@@@@@@-@@@@+ +@@@@@@@@@-@@@@+ +++@@@@@@@@@++++ +++++@@@@@@@@+++ ++++++++++++++++ ++++++++++++++++ ++++------------ ------------++++  -------------------------    +++++++++++***++ +++++++++++***++ ++++++++++=+++++ ++++++++++=+++++ ++++++++++++++++ ++++++++++++++++ ++++++++++++++++ ++++++++++++++++ ++++============ ============++++  =========================    +;;;;;;;;;;###++ +;;;;;;;;;;###++ +;;;;;;;;;$;;;;+ +;;;;;;;;;$;;;;+ +++;;;;;;;;;++++ +++++;;;;;;;;+++ ++++++++++++++++ ++++++++++++++++ ++++$$$$$$$$$$$$ $$$$$$$$$$$$++++  $$$$$$$$$$$$$$$$$$$$$$$$$    +**********+++++ +**********+++++ +*********&****+ +*********&****+ +++*********++++ +++++********+++ ++++++++++++++++ ++++++++++++++++ ++++&&&&&&&&&&&& &&&&&&&&&&&&++++  &&&&&&&&&&&&&&&&&&&&&&&&&    +==========+++++ +==========+++++ +=========&====+ +=========&====+ +++=========++++ +++++========+++ ++++++++++++++++ ++++++++++++++++ ++++&&&&&&&&&&&& &&&&&&&&&&&&++++  &&&&&&&&&&&&&&&&&&&&&&&&&   ",
" +@@@@@@@@@@@==++ +@@@@@@@@@@@==++ +@@@@@@@@@@-@@@+ +@@@@@@@@@@-@@@+ +++@@@@@@@@+++++ +++++@@@@@@@@+++ +++++++++@@@++++ ++++++++++++++++ +++++----------- -----------+++++  -------------------------    ++++++++++++**++ ++++++++++++**++ +++++++++++=++++ +++++++++++=++++ ++++++++++++++++ ++++++++++++++++ ++++++++++++++++ ++++++++++++++++ +++++=========== ===========+++++  =========================    +;;;;;;;;;;;##++ +;;;;;;;;;;;##++ +;;;;;;;;;;$;;;+ +;;;;;;;;;;$;;;+ +++;;;;;;;;+++++ +++++;;;;;;;;+++ +++++++++;;;++++ ++++++++++++++++ +++++$$$$$$$$$$$ $$$$$$$$$$$+++++  $$$$$$$$$$$$$$$$$$$$$$$$$    +***********++++ +***********++++ +**********&***+ +**********&***+ +++********+++++ +++++********+++ +++++++++***++++ ++++++++++++++++ +++++&&&&&&&&&&& &&&&&&&&&&&+++++  &&&&&&&&&&&&&&&&&&&&&&&&&    +===========++++ +===========++++ +==========&===+ +==========&===+ +++========+++++ +++++========+++ +++++++++===++++ ++++++++++++++++ +++++&&&&&&&&&&& &&&&&&&&&&&+++++  &&&&&&&&&&&&&&&&&&&&&&&&&   ",
" +@@@@@@@@@@==+++ +@@@@@@@@@@==+++ +@@@@@@@@@-@@@@+ +@@@@@@@@@-@@@@+ ++@@@@@@@@@@@+++ +++@@@@@@@@@@@@+ ++@@@++@@@@@@+++ ++@@++++++@@@@++ ++++++---------- ----------++++++  -------------------------    +++++++++++**+++ +++++++++++**+++ ++++++++++=+++++ ++++++++++=+++++ ++++++++++++++++ ++++++++++++++++ ++++++++++++++++ ++++++++++++++++ ++++++========== ==========++++++  =========================    +;;;;;;;;;;##+++ +;;;;;;;;;;##+++ +;;;;;;;;;$;;;;+ +;;;;;;;;;$;;;;+ ++;;;;;;;;;;;+++ +++;;;;;;;;;;;;+ ++;;;++;;;;;;+++ ++;;++++++;;;;++ ++++++$$$$$$$$$$ $$$$$$$$$$++++++  $$$$$$$$$$$$$$$$$$$$$$$$$    +**********+++++ +**********+++++ +*********&****+ +*********&****+ ++***********+++ +++************+ ++***++******+++ ++**++++++****++ ++++++&&&&&&&&&& &&&&&&&&&&++++++  &&&&&&&&&&&&&&&&&&&&&&&&&    +==========+++++ +==========+++++ +=========&====+ +=========&====+ ++===========+++ +++============+ ++===++======+++ ++==++++++====++ ++++++&&&&&&&&&& &&&&&&&&&&++++++  &&&&&&&&&&&&&&&&&&&&&&&&&   ",
" +@@+@@@++@=====+ +@@+@@@++@=====+ +@@+@@@++@@-+@@+ +@@@@+@@@@+-@@@+ ++@@@@@@@@@@@+++ +++@@@@@@@@@@@@+ +@@@@@@@@@@@@@++ +@@@@@@@@@@@@@@+ +++++++--------- ---------+++++++  -------------------------    ++++++++++*****+ ++++++++++*****+ +++++++++++=++++ +++++++++++=++++ ++++++++++++++++ ++++++++++++++++ ++++++++++++++++ ++++++++++++++++ +++++++========= =========+++++++  =========================    +;;+;;;++;#####+ +;;+;;;++;#####+ +;;+;;;++;;$+;;+ +;;;;+;;;;+$;;;+ ++;;;;;;;;;;;+++ +++;;;;;;;;;;;;+ +;;;;;;;;;;;;;++ +;;;;;;;;;;;;;;+ +++++++$$$$$$$$$ $$$$$$$$$+++++++  $$$$$$$$$$$$$$$$$$$$$$$$$    +**+***++*++++++ +**+***++*++++++ +**+***++**&+**+ +****+****+&***+ ++***********+++ +++************+ +*************++ +**************+ +++++++&&&&&&&&& &&&&&&&&&+++++++  &&&&&&&&&&&&&&&&&&&&&&&&&    +==+===++=++++++ +==+===++=++++++ +==+===++==&+==+ +====+====+&===+ ++===========+++ +++============+ +=============++ +==============+ +++++++&&&&&&&&& &&&&&&&&&+++++++  &&&&&&&&&&&&&&&&&&&&&&&&&   ",
" +@+++@@+++=====+ +@+++@@+++=====+ +@+++@@++@-+++@+ ++@@+++@@+++@@++ ++@@@+++++@@@+++ +++@@@++++++@@@+ @@@@@@@@@@@@@+++ @@@@@@@@@@@@@@++ +++++++++------- -------+++++++++  -------------------------    ++++++++++*****+ ++++++++++*****+ ++++++++++=+++++ ++++++++++++++++ ++++++++++++++++ ++++++++++++++++ ++++++++++++++++ ++++++++++++++++ +++++++++======= =======+++++++++  =========================    +;+++;;+++#####+ +;+++;;+++#####+ +;+++;;++;$+++;+ ++;;+++;;+++;;++ ++;;;+++++;;;+++ +++;;;++++++;;;+ ;;;;;;;;;;;;;+++ ;;;;;;;;;;;;;;++ +++++++++$$$$$$$ $$$$$$$+++++++++  $$$$$$$$$$$$$$$$$$$$$$$$$    +*+++**+++++++++ +*+++**+++++++++ +*+++**++*&+++*+ ++**+++**+++**++ ++***+++++***+++ +++***++++++***+ *************+++ **************++ +++++++++&&&&&&& &&&&&&&+++++++++  &&&&&&&&&&&&&&&&&&&&&&&&&    +=+++==+++++++++ +=+++==+++++++++ +=+++==++=&+++=+ ++==+++==+++==++ ++===+++++===+++ +++===++++++===+ =============+++ ==============++ +++++++++&&&&&&& &&&&&&&+++++++++  &&&&&&&&&&&&&&&&&&&&&&&&&   ",
" ++++++++++++++++ ++++++++++++++++ ++++++++++++++++ ++++++++++++++++ ++++++++++++++++ ++++++++++++++++ ++++++++++++++++ ++++++++++++++++ ++++++++++++---- ----++++++++++++  -------------------------    ++++++++++++++++ ++++++++++++++++ ++++++++++++++++ ++++++++++++++++ ++++++++++++++++ ++++++++++++++++ ++++++++++++++++ ++++++++++++++++ ++++++++++++==== ====++++++++++++  =========================    ++++++++++++++++ ++++++++++++++++ ++++++++++++++++ ++++++++++++++++ ++++++++++++++++ ++++++++++++++++ ++++++++++++++++ ++++++++++++++++ ++++++++++++$$$$ $$$$++++++++++++  $$$$$$$$$$$$$$$$$$$$$$$$$    ++++++++++++++++ ++++++++++++++++ ++++++++++++++++ ++++++++++++++++ ++++++++++++++++ ++++++++++++++++ ++++++++++++++++ ++++++++++++++++ ++++++++++++&&&& &&&&++++++++++++  &&&&&&&&&&&&&&&&&&&&&&&&&    ++++++++++++++++ ++++++++++++++++ ++++++++++++++++ ++++++++++++++++ ++++++++++++++++ ++++++++++++++++ ++++++++++++++++ ++++++++++++++++ ++++++++++++&&&& &&&&++++++++++++  &&&&&&&&&&&&&&&&&&&&&&&&&   ",
"                                                                                                                                                                            -------------------------                                                                                                                                                                               =========================                                                                                                                                                                               $$$$$$$$$$$$$$$$$$$$$$$$$                                                                                                                                                                               &&&&&&&&&&&&&&&&&&&&&&&&&                                                                                                                                                                               &&&&&&&&&&&&&&&&&&&&&&&&&   ",
" ++++++++++++++++ ++++++++++++++++ ++++++++++++++++ ++++++++++++++++ ++++++++++++++++ ++++++++++++++++ ++++++++++++++++ ++++++++++++++++ ++++++++++++---- ----++++++++++++  -------------------------    ++++++++++++++++ ++++++++++++++++ ++++++++++++++++ ++++++++++++++++ ++++++++++++++++ ++++++++++++++++ ++++++++++++++++ ++++++++++++++++ ++++++++++++==== ====++++++++++++  =========================    ++++++++++++++++ ++++++++++++++++ ++++++++++++++++ ++++++++++++++++ ++++++++++++++++ ++++++++++++++++ ++++++++++++++++ ++++++++++++++++ ++++++++++++$$$$ $$$$++++++++++++  $$$$$$$$$$$$$$$$$$$$$$$$$    ++++++++++++++++ ++++++++++++++++ ++++++++++++++++ ++++++++++++++++ ++++++++++++++++ ++++++++++++++++ ++++++++++++++++ ++++++++++++++++ ++++++++++++&&&& &&&&++++++++++++  &&&&&&&&&&&&&&&&&&&&&&&&&    ++++++++++++++++ ++++++++++++++++ ++++++++++++++++ ++++++++++++++++ ++++++++++++++++ ++++++++++++++++ ++++++++++++++++ ++++++++++++++++ ++++++++++++&&&& &&&&++++++++++++  &&&&&&&&&&&&&&&&&&&&&&&&&   ",
" ++++++++++++++++ ++++++++++++++++ ++++++++++++++++ ++++++++++++++++ +++++-++++++++++ ++++++++++++++++ ++++++++++++++++ ++++++++++++++++ +++++++++------- -------+++++++++  -------------------------    ++++++++++++++++ ++++++++++++++++ ++++++++++++++++ ++++++++++++++++ +++++=++++++++++ ++++++++++++++++ ++++++++++++++++ ++++++++++++++++ +++++++++======= =======+++++++++  =========================    ++++++++++++++++ ++++++++++++++++ ++++++++++++++++ ++++++++++++++++ +++++$++++++++++ ++++++++++++++++ ++++++++++++++++ ++++++++++++++++ +++++++++$$$$$$$ $$$$$$$+++++++++  $$$$$$$$$$$$$$$$$$$$$$$$$    ++++++++++++++++ ++++++++++++++++ ++++++++++++++++ ++++++++++++++++ +++++&++++++++++ ++++++++++++++++ ++++++++++++++++ ++++++++++++++++ +++++++++&&&&&&& &&&&&&&+++++++++  &&&&&&&&&&&&&&&&&&&&&&&&&    ++++++++++++++++ ++++++++++++++++ ++++++++++++++++ ++++++++++++++++ +++++&++++++++++ ++++++++++++++++ ++++++++++++++++ ++++++++++++++++ +++++++++&&&&&&& &&&&&&&+++++++++  &&&&&&&&&&&&&&&&&&&&&&&&&   ",
" ++++++++++++==++ +++++++@++++++++ +++++++++==+++++ ++++++++=+++++++ ++++++-----+++++ ++++++++++++++++ +++++++--+++++++ ++++++===+++++++ +++++++--------- ---------+++++++  -------------------------    ++++++++++++**++ ++++++++++++++++ +++++++++**+++++ ++++++++*+++++++ ++++++=====+++++ ++++++++++++++++ +++++++==+++++++ ++++++***+++++++ +++++++========= =========+++++++  =========================    ++++++++++++##++ +++++++;++++++++ +++++++++##+++++ ++++++++#+++++++ ++++++$$$$$+++++ ++++++++++++++++ +++++++$$+++++++ ++++++###+++++++ +++++++$$$$$$$$$ $$$$$$$$$+++++++  $$$$$$$$$$$$$$$$$$$$$$$$$    ++++++++++++++++ +++++++*++++++++ ++++++++++++++++ ++++++++++++++++ ++++++&&&&&+++++ ++++++++++++++++ +++++++&&+++++++ ++++++++++++++++ +++++++&&&&&&&&& &&&&&&&&&+++++++  &&&&&&&&&&&&&&&&&&&&&&&&&    ++++++++++++++++ +++++++=++++++++ ++++++++++++++++ ++++++++++++++++ ++++++&&&&&+++++ ++++++++++++++++ +++++++&&+++++++ ++++++++++++++++ +++++++&&&&&&&&& &&&&&&&&&+++++++  &&&&&&&&&&&&&&&&&&&&&&&&&   ",
" ++++++++++====++ ++++===@===+++++ +++++++@=====+++ +++---+=+---++++ ++++++++-+++++++ +++++++=++++++++ +++++--++--+++++ ++++==+++==+++++ ++++++---------- ----------++++++  -------------------------    ++++++++++****++ ++++***+***+++++ ++++++++*****+++ +++===+*+===++++ ++++++++=+++++++ +++++++*++++++++ +++++==++==+++++ ++++**+++**+++++ ++++++========== ==========++++++  =========================    ++++++++++####++ ++++###;###+++++ +++++++;#####+++ +++$$$+#+$$$++++ ++++++++$+++++++ +++++++#++++++++ +++++$$++$$+++++ ++++##+++##+++++ ++++++$$$$$$$$$$ $$$$$$$$$$++++++  $$$$$$$$$$$$$$$$$$$$$$$$$    ++++++++++++++++ +++++++*++++++++ +++++++*++++++++ +++&&&+++&&&++++ ++++++++&+++++++ ++++++++++++++++ +++++&&++&&+++++ ++++++++++++++++ ++++++&&&&&&&&&& &&&&&&&&&&++++++  &&&&&&&&&&&&&&&&&&&&&&&&&    ++++++++++++++++ +++++++=++++++++ +++++++=++++++++ +++&&&+++&&&++++ ++++++++&+++++++ ++++++++++++++++ +++++&&++&&+++++ ++++++++++++++++ ++++++&&&&&&&&&& &&&&&&&&&&++++++  &&&&&&&&&&&&&&&&&&&&&&&&&   ",
" ++++++++==+=++++ +++--=====--++++ +++++++@+===++++ ++-----=-----+++ +++++++=@=++++++ ++-+++===+++-+++ ++++--------++++ ++++=======+++++ +++++----------- -----------+++++  -------------------------    ++++++++**+*++++ +++==*****==++++ +++++++++***++++ ++=====*=====+++ +++++++*+*++++++ ++=+++***+++=+++ ++++========++++ ++++*******+++++ +++++=========== ===========+++++  =========================    ++++++++##+#++++ +++$$#####$$++++ +++++++;+###++++ ++$$$$$#$$$$$+++ +++++++#;#++++++ ++$+++###+++$+++ ++++$$$$$$$$++++ ++++#######+++++ +++++$$$$$$$$$$$ $$$$$$$$$$$+++++  $$$$$$$$$$$$$$$$$$$$$$$$$    ++++++++++++++++ +++&&+++++&&++++ +++++++*++++++++ ++&&&&&+&&&&&+++ ++++++++*+++++++ ++&+++++++++&+++ ++++&&&&&&&&++++ ++++++++++++++++ +++++&&&&&&&&&&& &&&&&&&&&&&+++++  &&&&&&&&&&&&&&&&&&&&&&&&&    ++++++++++++++++ +++&&+++++&&++++ +++++++=++++++++ ++&&&&&+&&&&&+++ ++++++++=+++++++ ++&+++++++++&+++ ++++&&&&&&&&++++ ++++++++++++++++ +++++&&&&&&&&&&& &&&&&&&&&&&+++++  &&&&&&&&&&&&&&&&&&&&&&&&&   ",
" +++++++=+++=++++ ++-----=---@-+++ ++++--@@@---++++ ++------------++ +++++===-===++++ ++-++=====++-+++ ++++--+-----++++ ++++=======+++++ ++++------------ ------------++++  -------------------------    +++++++*+++*++++ ++=====*===+=+++ ++++==+++===++++ ++============++ +++++***=***++++ ++=++*****++=+++ ++++==+=====++++ ++++*******+++++ ++++============ ============++++  =========================    +++++++#+++#++++ ++$$$$$#$$$;$+++ ++++$$;;;$$$++++ ++$$$$$$$$$$$$++ +++++###$###++++ ++$++#####++$+++ ++++$$+$$$$$++++ ++++#######+++++ ++++$$$$$$$$$$$$ $$$$$$$$$$$$++++  $$$$$$$$$$$$$$$$$$$$$$$$$    ++++++++++++++++ ++&&&&&+&&&*&+++ ++++&&***&&&++++ ++&&&&&&&&&&&&++ ++++++++&+++++++ ++&+++++++++&+++ ++++&&+&&&&&++++ ++++++++++++++++ ++++&&&&&&&&&&&& &&&&&&&&&&&&++++  &&&&&&&&&&&&&&&&&&&&&&&&&    ++++++++++++++++ ++&&&&&+&&&=&+++ ++++&&===&&&++++ ++&&&&&&&&&&&&++ ++++++++&+++++++ ++&+++++++++&+++ ++++&&+&&&&&++++ ++++++++++++++++ ++++&&&&&&&&&&&& &&&&&&&&&&&&++++  &&&&&&&&&&&&&&&&&&&&&&&&&   ",
" +++---=+++=+++++ ++-@-----@---+++ +++----@-----+++ ++------------++ ++++=-@-===-=+++ ++-@==@=@==@-+++ ++++-+------++++ ++++=======+++++ +++------------- -------------+++  -------------------------    +++===*+++*+++++ ++=+=====+===+++ +++====+=====+++ ++============++ ++++*=+=***=*+++ ++=+**+*+**+=+++ ++++=+======++++ ++++*******+++++ +++============= =============+++  =========================    +++$$$#+++#+++++ ++$;$$$$$;$$$+++ +++$$$$;$$$$$+++ ++$$$$$$$$$$$$++ ++++#$;$###$#+++ ++$;##;#;##;$+++ ++++$+$$$$$$++++ ++++#######+++++ +++$$$$$$$$$$$$$ $$$$$$$$$$$$$+++  $$$$$$$$$$$$$$$$$$$$$$$$$    +++&&&++++++++++ ++&*&&&&&*&&&+++ +++&&&&*&&&&&+++ ++&&&&&&&&&&&&++ +++++&*&+++&++++ ++&*++*+*++*&+++ ++++&+&&&&&&++++ ++++++++++++++++ +++&&&&&&&&&&&&& &&&&&&&&&&&&&+++  &&&&&&&&&&&&&&&&&&&&&&&&&    +++&&&++++++++++ ++&=&&&&&=&&&+++ +++&&&&=&&&&&+++ ++&&&&&&&&&&&&++ +++++&=&+++&++++ ++&=++=+=++=&+++ ++++&+&&&&&&++++ ++++++++++++++++ +++&&&&&&&&&&&&& &&&&&&&&&&&&&+++  &&&&&&&&&&&&&&&&&&&&&&&&&   ",
" ++---=--+=++++++ ++---@-@-----+++ ++------------++ ++------------++ ++++==-==@-==+++ ++-@@@@=@@@@-+++ +++--+-------+++ ++++++@+@+++++++ ++-------------- --------------++  -------------------------    ++===*==+*++++++ ++===+=+=====+++ ++============++ ++============++ ++++**=**+=**+++ ++=++++*++++=+++ +++==+=======+++ ++++++++++++++++ ++============== ==============++  =========================    ++$$$#$$+#++++++ ++$$$;$;$$$$$+++ ++$$$$$$$$$$$$++ ++$$$$$$$$$$$$++ ++++##$##;$##+++ ++$;;;;#;;;;$+++ +++$$+$$$$$$$+++ ++++++;+;+++++++ ++$$$$$$$$$$$$$$ $$$$$$$$$$$$$$++  $$$$$$$$$$$$$$$$$$$$$$$$$    ++&&&+&&++++++++ ++&&&*&*&&&&&+++ ++&&&&&&&&&&&&++ ++&&&&&&&&&&&&++ ++++++&++*&+++++ ++&****+****&+++ +++&&+&&&&&&&+++ ++++++*+*+++++++ ++&&&&&&&&&&&&&& &&&&&&&&&&&&&&++  &&&&&&&&&&&&&&&&&&&&&&&&&    ++&&&+&&++++++++ ++&&&=&=&&&&&+++ ++&&&&&&&&&&&&++ ++&&&&&&&&&&&&++ ++++++&++=&+++++ ++&====+====&+++ +++&&+&&&&&&&+++ ++++++=+=+++++++ ++&&&&&&&&&&&&&& &&&&&&&&&&&&&&++  &&&&&&&&&&&&&&&&&&&&&&&&&   ",
" ++-----+-=--++++ ++--------@--+++ ++------------++ ++---------@--++ +++=@-===-=-==++ ++--@@@@@@@--+++ +++--+-------+++ ++++++@+@@++++++ ++-------------- --------------++  -------------------------    ++=====+=*==++++ ++========+==+++ ++============++ ++=========+==++ +++*+=***=*=**++ ++==+++++++==+++ +++==+=======+++ ++++++++++++++++ ++============== ==============++  =========================    ++$$$$$+$#$$++++ ++$$$$$$$$;$$+++ ++$$$$$$$$$$$$++ ++$$$$$$$$$;$$++ +++#;$###$#$##++ ++$$;;;;;;;$$+++ +++$$+$$$$$$$+++ ++++++;+;;++++++ ++$$$$$$$$$$$$$$ $$$$$$$$$$$$$$++  $$$$$$$$$$$$$$$$$$$$$$$$$    ++&&&&&+&+&&++++ ++&&&&&&&&*&&+++ ++&&&&&&&&&&&&++ ++&&&&&&&&&*&&++ ++++*&+++&+&++++ ++&&*******&&+++ +++&&+&&&&&&&+++ ++++++*+**++++++ ++&&&&&&&&&&&&&& &&&&&&&&&&&&&&++  &&&&&&&&&&&&&&&&&&&&&&&&&    ++&&&&&+&+&&++++ ++&&&&&&&&=&&+++ ++&&&&&&&&&&&&++ ++&&&&&&&&&=&&++ ++++=&+++&+&++++ ++&&=======&&+++ +++&&+&&&&&&&+++ ++++++=+==++++++ ++&&&&&&&&&&&&&& &&&&&&&&&&&&&&++  &&&&&&&&&&&&&&&&&&&&&&&&&   ",
" ++-@--+--=---+++ +++-@--@----++++ ++------------++ ++---------@--++ +++=-==@-==@-=++ +++--@+@+@--++++ +++----------+++ ++++++@+@+++++++ +--------------- ------------++++  -------------------------    ++=+==+==*===+++ +++=+==+====++++ ++============++ ++=========+==++ +++*=**+=**+=*++ +++==+++++==++++ +++==========+++ ++++++++++++++++ +=============== ============++++  =========================    ++$;$$+$$#$$$+++ +++$;$$;$$$$++++ ++$$$$$$$$$$$$++ ++$$$$$$$$$;$$++ +++#$##;$##;$#++ +++$$;+;+;$$++++ +++$$$$$$$$$$+++ ++++++;+;+++++++ +$$$$$$$$$$$$$$$ $$$$$$$$$$$$++++  $$$$$$$$$$$$$$$$$$$$$$$$$    ++&*&&+&&+&&&+++ +++&*&&*&&&&++++ ++&&&&&&&&&&&&++ ++&&&&&&&&&*&&++ ++++&++*&++*&+++ +++&&*+*+*&&++++ +++&&&&&&&&&&+++ ++++++*+*+++++++ +&&&&&&&&&&&&&&& &&&&&&&&&&&&++++  &&&&&&&&&&&&&&&&&&&&&&&&&    ++&=&&+&&+&&&+++ +++&=&&=&&&&++++ ++&&&&&&&&&&&&++ ++&&&&&&&&&=&&++ ++++&++=&++=&+++ +++&&=+=+=&&++++ +++&&&&&&&&&&+++ ++++++=+=+++++++ +&&&&&&&&&&&&&&& &&&&&&&&&&&&++++  &&&&&&&&&&&&&&&&&&&&&&&&&   ",
" ++--@-+------+++ +++---------++++ ++------------++ +++-------@--+++ +++=@-===-====++ ++++--+@+--+++++ ++--+---------++ ++++++@+++++++++ +--------------- ----------++++++  -------------------------    ++==+=+======+++ +++=========++++ ++============++ +++=======+==+++ +++*+=***=****++ ++++==+++==+++++ ++==+=========++ ++++++++++++++++ +=============== ==========++++++  =========================    ++$$;$+$$$$$$+++ +++$$$$$$$$$++++ ++$$$$$$$$$$$$++ +++$$$$$$$;$$+++ +++#;$###$####++ ++++$$+;+$$+++++ ++$$+$$$$$$$$$++ ++++++;+++++++++ +$$$$$$$$$$$$$$$ $$$$$$$$$$++++++  $$$$$$$$$$$$$$$$$$$$$$$$$    ++&&*&+&&&&&&+++ +++&&&&&&&&&++++ ++&&&&&&&&&&&&++ +++&&&&&&&*&&+++ ++++*&+++&++++++ ++++&&+*+&&+++++ ++&&+&&&&&&&&&++ ++++++*+++++++++ +&&&&&&&&&&&&&&& &&&&&&&&&&++++++  &&&&&&&&&&&&&&&&&&&&&&&&&    ++&&=&+&&&&&&+++ +++&&&&&&&&&++++ ++&&&&&&&&&&&&++ +++&&&&&&&=&&+++ ++++=&+++&++++++ ++++&&+=+&&+++++ ++&&+&&&&&&&&&++ ++++++=+++++++++ +&&&&&&&&&&&&&&& &&&&&&&&&&++++++  &&&&&&&&&&&&&&&&&&&&&&&&&   ",
" +++---+-@----+++ ++++--@--@++++++ +++----------+++ +++----------+++ ++++==-@-@-==+++ +++++-+@+-++++++ ++--+---------++ ++++++@+@+++++++ +--------------- --------++++++++  -------------------------    +++===+=+====+++ ++++==+==+++++++ +++==========+++ +++==========+++ ++++**=+=+=**+++ +++++=+++=++++++ ++==+=========++ ++++++++++++++++ +=============== ========++++++++  =========================    +++$$$+$;$$$$+++ ++++$$;$$;++++++ +++$$$$$$$$$$+++ +++$$$$$$$$$$+++ ++++##$;$;$##+++ +++++$+;+$++++++ ++$$+$$$$$$$$$++ ++++++;+;+++++++ +$$$$$$$$$$$$$$$ $$$$$$$$++++++++  $$$$$$$$$$$$$$$$$$$$$$$$$    +++&&&+&*&&&&+++ ++++&&*&&*++++++ +++&&&&&&&&&&+++ +++&&&&&&&&&&+++ ++++++&*&*&+++++ +++++&+*+&++++++ ++&&+&&&&&&&&&++ ++++++*+*+++++++ +&&&&&&&&&&&&&&& &&&&&&&&++++++++  &&&&&&&&&&&&&&&&&&&&&&&&&    +++&&&+&=&&&&+++ ++++&&=&&=++++++ +++&&&&&&&&&&+++ +++&&&&&&&&&&+++ ++++++&=&=&+++++ +++++&+=+&++++++ ++&&+&&&&&&&&&++ ++++++=+=+++++++ +&&&&&&&&&&&&&&& &&&&&&&&++++++++  &&&&&&&&&&&&&&&&&&&&&&&&&   ",
" +++++++--@---+++ +++++-----++++++ +++----------+++ ++++--------++++ ++++===-===-=+++ +++++++@++++++++ ++------------++ ++++++@+@@++++++ ---------------- -----+++++++++++  -------------------------    +++++++==+===+++ +++++=====++++++ +++==========+++ ++++========++++ ++++***=***=*+++ ++++++++++++++++ ++============++ ++++++++++++++++ ================ =====+++++++++++  =========================    +++++++$$;$$$+++ +++++$$$$$++++++ +++$$$$$$$$$$+++ ++++$$$$$$$$++++ ++++###$###$#+++ +++++++;++++++++ ++$$$$$$$$$$$$++ ++++++;+;;++++++ $$$$$$$$$$$$$$$$ $$$$$+++++++++++  $$$$$$$$$$$$$$$$$$$$$$$$$    +++++++&&*&&&+++ +++++&&&&&++++++ +++&&&&&&&&&&+++ ++++&&&&&&&&++++ +++++++&+++&++++ +++++++*++++++++ ++&&&&&&&&&&&&++ ++++++*+**++++++ &&&&&&&&&&&&&&&& &&&&&+++++++++++  &&&&&&&&&&&&&&&&&&&&&&&&&    +++++++&&=&&&+++ +++++&&&&&++++++ +++&&&&&&&&&&+++ ++++&&&&&&&&++++ +++++++&+++&++++ +++++++=++++++++ ++&&&&&&&&&&&&++ ++++++=+==++++++ &&&&&&&&&&&&&&&& &&&&&+++++++++++  &&&&&&&&&&&&&&&&&&&&&&&&&   ",
" ++++++++----++++ +++++++-++++++++ +++++------+++++ +++++--+---+++++ +++++=-===-=++++ +++++++@++++++++ ++-=====@@===-++ ++++++@+@+++++++ ---------------- --++++++++++++++  -------------------------    ++++++++====++++ +++++++=++++++++ +++++======+++++ +++++==+===+++++ +++++*=***=*++++ ++++++++++++++++ ++=*****++***=++ ++++++++++++++++ ================ ==++++++++++++++  =========================    ++++++++$$$$++++ +++++++$++++++++ +++++$$$$$$+++++ +++++$$+$$$+++++ +++++#$###$#++++ +++++++;++++++++ ++$#####;;###$++ ++++++;+;+++++++ $$$$$$$$$$$$$$$$ $$++++++++++++++  $$$$$$$$$$$$$$$$$$$$$$$$$    ++++++++&&&&++++ +++++++&++++++++ +++++&&&&&&+++++ +++++&&+&&&+++++ ++++++&+++&+++++ +++++++*++++++++ ++&+++++**+++&++ ++++++*+*+++++++ &&&&&&&&&&&&&&&& &&++++++++++++++  &&&&&&&&&&&&&&&&&&&&&&&&&    ++++++++&&&&++++ +++++++&++++++++ +++++&&&&&&+++++ +++++&&+&&&+++++ ++++++&+++&+++++ +++++++=++++++++ ++&+++++==+++&++ ++++++=+=+++++++ &&&&&&&&&&&&&&&& &&++++++++++++++  &&&&&&&&&&&&&&&&&&&&&&&&&   ",
" ++++++++++++++++ ++++++++++++++++ ++++++++++++++++ ++++++++++++++++ +++++++==-++++++ ++++++++++++++++ +++=====@@===+++ +++++++@++++++++ ---------------- ++++++++++++++++  -------------------------    ++++++++++++++++ ++++++++++++++++ ++++++++++++++++ ++++++++++++++++ +++++++**=++++++ ++++++++++++++++ +++*****++***+++ ++++++++++++++++ ================ ++++++++++++++++  =========================    ++++++++++++++++ ++++++++++++++++ ++++++++++++++++ ++++++++++++++++ +++++++##$++++++ ++++++++++++++++ +++#####;;###+++ +++++++;++++++++ $$$$$$$$$$$$$$$$ ++++++++++++++++  $$$$$$$$$$$$$$$$$$$$$$$$$    ++++++++++++++++ ++++++++++++++++ ++++++++++++++++ ++++++++++++++++ +++++++++&++++++ ++++++++++++++++ ++++++++**++++++ +++++++*++++++++ &&&&&&&&&&&&&&&& ++++++++++++++++  &&&&&&&&&&&&&&&&&&&&&&&&&    ++++++++++++++++ ++++++++++++++++ ++++++++++++++++ ++++++++++++++++ +++++++++&++++++ ++++++++++++++++ ++++++++==++++++ +++++++=++++++++ &&&&&&&&&&&&&&&& ++++++++++++++++  &&&&&&&&&&&&&&&&&&&&&&&&&   ",
" ++++++++++++++++ ++++++++++++++++ ++++++++++++++++ ++++++++++++++++ ++++++++++++++++ ++++++++++++++++ ++++++++++++++++ ++++++++++++++++ --------------++ ++++++++++++++++  -------------------------    ++++++++++++++++ ++++++++++++++++ ++++++++++++++++ ++++++++++++++++ ++++++++++++++++ ++++++++++++++++ ++++++++++++++++ ++++++++++++++++ ==============++ ++++++++++++++++  =========================    ++++++++++++++++ ++++++++++++++++ ++++++++++++++++ ++++++++++++++++ ++++++++++++++++ ++++++++++++++++ ++++++++++++++++ ++++++++++++++++ $$$$$$$$$$$$$$++ ++++++++++++++++  $$$$$$$$$$$$$$$$$$$$$$$$$    ++++++++++++++++ ++++++++++++++++ ++++++++++++++++ ++++++++++++++++ ++++++++++++++++ ++++++++++++++++ ++++++++++++++++ ++++++++++++++++ &&&&&&&&&&&&&&++ ++++++++++++++++  &&&&&&&&&&&&&&&&&&&&&&&&&    ++++++++++++++++ ++++++++++++++++ ++++++++++++++++ ++++++++++++++++ ++++++++++++++++ ++++++++++++++++ ++++++++++++++++ ++++++++++++++++ &&&&&&&&&&&&&&++ ++++++++++++++++  &&&&&&&&&&&&&&&&&&&&&&&&&   ",
"                                                                                                                                                                            =========================                                                                                                                                                                               *************************                                                                                                                                                                               #########################                                                                                                                                                                               +++++++++++++++++++++++++                                                                                                                                                                               +++++++++++++++++++++++++   ",
" ++++++++++++++++ ++++++++++++++++ ++++++++++++++++ ++++++++++++++++ ++++++++++++++++ ++++++++++++++++ ++++++++++++++++ ++++++++++++++++ --------------++ ++++++++++++++++  =========================    ++++++++++++++++ ++++++++++++++++ ++++++++++++++++ ++++++++++++++++ ++++++++++++++++ ++++++++++++++++ ++++++++++++++++ ++++++++++++++++ ==============++ ++++++++++++++++  *************************    ++++++++++++++++ ++++++++++++++++ ++++++++++++++++ ++++++++++++++++ ++++++++++++++++ ++++++++++++++++ ++++++++++++++++ ++++++++++++++++ $$$$$$$$$$$$$$++ ++++++++++++++++  #########################    ++++++++++++++++ ++++++++++++++++ ++++++++++++++++ ++++++++++++++++ ++++++++++++++++ ++++++++++++++++ ++++++++++++++++ ++++++++++++++++ &&&&&&&&&&&&&&++ ++++++++++++++++  +++++++++++++++++++++++++    ++++++++++++++++ ++++++++++++++++ ++++++++++++++++ ++++++++++++++++ ++++++++++++++++ ++++++++++++++++ ++++++++++++++++ ++++++++++++++++ &&&&&&&&&&&&&&++ ++++++++++++++++  +++++++++++++++++++++++++   ",
" ++++++++++++++++ ++++++++++++++++ ++++++++++++++++ ++++++++++++++++ ++++++++++++++++ ++++++++++++++++ +++++@@@@@++++++ +++++@@@@@++++++ ---------------- ++++++++++++++++  =========================    ++++++++++++++++ ++++++++++++++++ ++++++++++++++++ ++++++++++++++++ ++++++++++++++++ ++++++++++++++++ ++++++++++++++++ ++++++++++++++++ ================ ++++++++++++++++  *************************    ++++++++++++++++ ++++++++++++++++ ++++++++++++++++ ++++++++++++++++ ++++++++++++++++ ++++++++++++++++ +++++;;;;;++++++ +++++;;;;;++++++ $$$$$$$$$$$$$$$$ ++++++++++++++++  #########################    ++++++++++++++++ ++++++++++++++++ ++++++++++++++++ ++++++++++++++++ ++++++++++++++++ ++++++++++++++++ +++++*****++++++ +++++*****++++++ &&&&&&&&&&&&&&&& ++++++++++++++++  +++++++++++++++++++++++++    ++++++++++++++++ ++++++++++++++++ ++++++++++++++++ ++++++++++++++++ ++++++++++++++++ ++++++++++++++++ +++++=====++++++ +++++=====++++++ &&&&&&&&&&&&&&&& ++++++++++++++++  +++++++++++++++++++++++++   ",
" ++++++++++++++++ ++++++++++++++++ ++++++++++++++++ ++++++++++++++++ ++++++++++++++++ ++++++++++++++++ +++@@@@@@@++++++ +++@@@@@@@@@++++ ---------------- --++++++++++++++  =========================    ++++++++++++++++ ++++++++++++++++ ++++++++++++++++ ++++++++++++++++ ++++++++++++++++ ++++++++++++++++ ++++++++++++++++ ++++++++++++++++ ================ ==++++++++++++++  *************************    ++++++++++++++++ ++++++++++++++++ ++++++++++++++++ ++++++++++++++++ ++++++++++++++++ ++++++++++++++++ +++;;;;;;;++++++ +++;;;;;;;;;++++ $$$$$$$$$$$$$$$$ $$++++++++++++++  #########################    ++++++++++++++++ ++++++++++++++++ ++++++++++++++++ ++++++++++++++++ ++++++++++++++++ ++++++++++++++++ +++*******++++++ +++*********++++ &&&&&&&&&&&&&&&& &&++++++++++++++  +++++++++++++++++++++++++    ++++++++++++++++ ++++++++++++++++ ++++++++++++++++ ++++++++++++++++ ++++++++++++++++ ++++++++++++++++ +++=======++++++ +++=========++++ &&&&&&&&&&&&&&&& &&++++++++++++++  +++++++++++++++++++++++++   ",
" +@@+++++++++@@++ ++++++++++++++++ ++++++++++++++++ ++++++++++++++++ ++++++++++++++++ ++++++++++++++++ ++@@@@@@@+++++++ ++@@@@@@@@@@@+++ ---------------- -----+++++++++++  =========================    ++++++++++++++++ ++++++++++++++++ ++++++++++++++++ ++++++++++++++++ ++++++++++++++++ ++++++++++++++++ ++++++++++++++++ ++++++++++++++++ ================ =====+++++++++++  *************************    +;;+++++++++;;++ ++++++++++++++++ ++++++++++++++++ ++++++++++++++++ ++++++++++++++++ ++++++++++++++++ ++;;;;;;;+++++++ ++;;;;;;;;;;;+++ $$$$$$$$$$$$$$$$ $$$$$+++++++++++  #########################    +**+++++++++**++ ++++++++++++++++ ++++++++++++++++ ++++++++++++++++ ++++++++++++++++ ++++++++++++++++ ++*******+++++++ ++***********+++ &&&&&&&&&&&&&&&& &&&&&+++++++++++  +++++++++++++++++++++++++    +==+++++++++==++ ++++++++++++++++ ++++++++++++++++ ++++++++++++++++ ++++++++++++++++ ++++++++++++++++ ++=======+++++++ ++===========+++ &&&&&&&&&&&&&&&& &&&&&+++++++++++  +++++++++++++++++++++++++   ",
" +@@@+++++++@@@++ +@+++++++++++@++ ++++++++++++++++ ++++++++++++++++ ++++++++++++++++ ++++++++++++++++ ++@@@@@@++++++++ ++@@@@@@@@@@@+++ +--------------- --------++++++++  =========================    ++++++++++++++++ ++++++++++++++++ ++++++++++++++++ ++++++++++++++++ ++++++++++++++++ ++++++++++++++++ ++++++++++++++++ ++++++++++++++++ +=============== ========++++++++  *************************    +;;;+++++++;;;++ +;+++++++++++;++ ++++++++++++++++ ++++++++++++++++ ++++++++++++++++ ++++++++++++++++ ++;;;;;;++++++++ ++;;;;;;;;;;;+++ +$$$$$$$$$$$$$$$ $$$$$$$$++++++++  #########################    +***+++++++***++ +*+++++++++++*++ ++++++++++++++++ ++++++++++++++++ ++++++++++++++++ ++++++++++++++++ ++******++++++++ ++***********+++ +&&&&&&&&&&&&&&& &&&&&&&&++++++++  +++++++++++++++++++++++++    +===+++++++===++ +=+++++++++++=++ ++++++++++++++++ ++++++++++++++++ ++++++++++++++++ ++++++++++++++++ ++======++++++++ ++===========+++ +&&&&&&&&&&&&&&& &&&&&&&&++++++++  +++++++++++++++++++++++++   ",
" +@@@@+++++@@@@++ @@@@+++++++@@@@+ ++++++++++++++++ ++++++++++++++++ ++++++++++++++++ ++++++++++++++++ +@@@@@@+++++++++ +@@@@@@+@@@@@@++ +--------------- ----------++++++  =========================    ++++++++++++++++ ++++++++++++++++ ++++++++++++++++ ++++++++++++++++ ++++++++++++++++ ++++++++++++++++ ++++++++++++++++ ++++++++++++++++ +=============== ==========++++++  *************************    +;;;;+++++;;;;++ ;;;;+++++++;;;;+ ++++++++++++++++ ++++++++++++++++ ++++++++++++++++ ++++++++++++++++ +;;;;;;+++++++++ +;;;;;;+;;;;;;++ +$$$$$$$$$$$$$$$ $$$$$$$$$$++++++  #########################    +****+++++****++ ****+++++++****+ ++++++++++++++++ ++++++++++++++++ ++++++++++++++++ ++++++++++++++++ +******+++++++++ +******+******++ +&&&&&&&&&&&&&&& &&&&&&&&&&++++++  +++++++++++++++++++++++++    +====+++++====++ ====+++++++====+ ++++++++++++++++ ++++++++++++++++ ++++++++++++++++ ++++++++++++++++ +======+++++++++ +======+======++ +&&&&&&&&&&&&&&& &&&&&&&&&&++++++  +++++++++++++++++++++++++   ",
" +@@@@@+++@@@@@++ @@@@@+++++@@@@@+ @@@+++++++++@@@+ ++++++++++++++++ ++++++++++++++++ ++++++++++++++++ +@@@@@++++++++++ +@@@@@+++@@@@@++ +--------------- ------------++++  =========================    ++++++++++++++++ ++++++++++++++++ ++++++++++++++++ ++++++++++++++++ ++++++++++++++++ ++++++++++++++++ ++++++++++++++++ ++++++++++++++++ +=============== ============++++  *************************    +;;;;;+++;;;;;++ ;;;;;+++++;;;;;+ ;;;+++++++++;;;+ ++++++++++++++++ ++++++++++++++++ ++++++++++++++++ +;;;;;++++++++++ +;;;;;+++;;;;;++ +$$$$$$$$$$$$$$$ $$$$$$$$$$$$++++  #########################    +*****+++*****++ *****+++++*****+ ***+++++++++***+ ++++++++++++++++ ++++++++++++++++ ++++++++++++++++ +*****++++++++++ +*****+++*****++ +&&&&&&&&&&&&&&& &&&&&&&&&&&&++++  +++++++++++++++++++++++++    +=====+++=====++ =====+++++=====+ ===+++++++++===+ ++++++++++++++++ ++++++++++++++++ ++++++++++++++++ +=====++++++++++ +=====+++=====++ +&&&&&&&&&&&&&&& &&&&&&&&&&&&++++  +++++++++++++++++++++++++   ",
" +@@@@@@+@@@@@@++ @@@@@@@+@@@@@@@+ @@@@@@+++@@@@@@+ @@@@+++++++@@@@+ ++++++++++++++++ ++++++++++++++++ +@@@@+++++++++++ +@@@@+++++@@@@++ ++-------------- --------------++  =========================    ++++++++++++++++ ++++++++++++++++ ++++++++++++++++ ++++++++++++++++ ++++++++++++++++ ++++++++++++++++ ++++++++++++++++ ++++++++++++++++ ++============== ==============++  *************************    +;;;;;;+;;;;;;++ ;;;;;;;+;;;;;;;+ ;;;;;;+++;;;;;;+ ;;;;+++++++;;;;+ ++++++++++++++++ ++++++++++++++++ +;;;;+++++++++++ +;;;;+++++;;;;++ ++$$$$$$$$$$$$$$ $$$$$$$$$$$$$$++  #########################    +******+******++ *******+*******+ ******+++******+ ****+++++++****+ ++++++++++++++++ ++++++++++++++++ +****+++++++++++ +****+++++****++ ++&&&&&&&&&&&&&& &&&&&&&&&&&&&&++  +++++++++++++++++++++++++    +======+======++ =======+=======+ ======+++======+ ====+++++++====+ ++++++++++++++++ ++++++++++++++++ +====+++++++++++ +====+++++====++ ++&&&&&&&&&&&&&& &&&&&&&&&&&&&&++  +++++++++++++++++++++++++   ",
" ++@@@@@@@@@@@+++ +@@@@@@@@@@@@@++ @@@@@@@@@@@@@@@+ @@@@@@@@@@@@@@@+ ++++@@@@@@@+++++ ++++++@@@+++++++ +@@@@@++++++++++ +@@@+++++++@@@++ ++-------------- --------------++  =========================    ++++++++++++++++ ++++++++++++++++ ++++++++++++++++ ++++++++++++++++ ++++++++++++++++ ++++++++++++++++ ++++++++++++++++ ++++++++++++++++ ++============== ==============++  *************************    ++;;;;;;;;;;;+++ +;;;;;;;;;;;;;++ ;;;;;;;;;;;;;;;+ ;;;;;;;;;;;;;;;+ ++++;;;;;;;+++++ ++++++;;;+++++++ +;;;;;++++++++++ +;;;+++++++;;;++ ++$$$$$$$$$$$$$$ $$$$$$$$$$$$$$++  #########################    ++***********+++ +*************++ ***************+ ***************+ ++++*******+++++ ++++++***+++++++ +*****++++++++++ +***+++++++***++ ++&&&&&&&&&&&&&& &&&&&&&&&&&&&&++  +++++++++++++++++++++++++    ++===========+++ +=============++ ===============+ ===============+ ++++=======+++++ ++++++===+++++++ +=====++++++++++ +===+++++++===++ ++&&&&&&&&&&&&&& &&&&&&&&&&&&&&++  +++++++++++++++++++++++++   ",
" ++@@@@@@@@@@@+++ +@@@@@@@@@@@@@++ +@@@@@@@@@@@@@++ @@@@@@@@@@@@@@@+ @@@@@@@@@@@@@@@+ ++++@@@@@@@+++++ +@@@@@@+++++++++ +@@+++++++++@@++ +++------------- -------------+++  =========================    ++++++++++++++++ ++++++++++++++++ ++++++++++++++++ ++++++++++++++++ ++++++++++++++++ ++++++++++++++++ ++++++++++++++++ ++++++++++++++++ +++============= =============+++  *************************    ++;;;;;;;;;;;+++ +;;;;;;;;;;;;;++ +;;;;;;;;;;;;;++ ;;;;;;;;;;;;;;;+ ;;;;;;;;;;;;;;;+ ++++;;;;;;;+++++ +;;;;;;+++++++++ +;;+++++++++;;++ +++$$$$$$$$$$$$$ $$$$$$$$$$$$$+++  #########################    ++***********+++ +*************++ +*************++ ***************+ ***************+ ++++*******+++++ +******+++++++++ +**+++++++++**++ +++&&&&&&&&&&&&& &&&&&&&&&&&&&+++  +++++++++++++++++++++++++    ++===========+++ +=============++ +=============++ ===============+ ===============+ ++++=======+++++ +======+++++++++ +==+++++++++==++ +++&&&&&&&&&&&&& &&&&&&&&&&&&&+++  +++++++++++++++++++++++++   ",
" +++@@@@@@@@@++++ ++@@@@@@@@@@@+++ ++@@@@@@@@@@@+++ +@@@@@@@@@@@@@++ @@@@@@@@@@@@@@@+ +@@@@@@@@@@@@@++ ++@@@@@@++++++++ ++++++++++++++++ ++++------------ ------------++++  =========================    ++++++++++++++++ ++++++++++++++++ ++++++++++++++++ ++++++++++++++++ ++++++++++++++++ ++++++++++++++++ ++++++++++++++++ ++++++++++++++++ ++++============ ============++++  *************************    +++;;;;;;;;;++++ ++;;;;;;;;;;;+++ ++;;;;;;;;;;;+++ +;;;;;;;;;;;;;++ ;;;;;;;;;;;;;;;+ +;;;;;;;;;;;;;++ ++;;;;;;++++++++ ++++++++++++++++ ++++$$$$$$$$$$$$ $$$$$$$$$$$$++++  #########################    +++*********++++ ++***********+++ ++***********+++ +*************++ ***************+ +*************++ ++******++++++++ ++++++++++++++++ ++++&&&&&&&&&&&& &&&&&&&&&&&&++++  +++++++++++++++++++++++++    +++=========++++ ++===========+++ ++===========+++ +=============++ ===============+ +=============++ ++======++++++++ ++++++++++++++++ ++++&&&&&&&&&&&& &&&&&&&&&&&&++++  +++++++++++++++++++++++++   ",
" +++++@@@@@++++++ ++++@@@+@@@+++++ ++++@@@+@@@+++++ +++@@@@+@@@@++++ +@@@@@@@@@@@@@++ @@@@@@@@@@@@@@@+ ++@@@@@@@+++++++ ++++++++++++++++ +++++----------- -----------+++++  =========================    ++++++++++++++++ ++++++++++++++++ ++++++++++++++++ ++++++++++++++++ ++++++++++++++++ ++++++++++++++++ ++++++++++++++++ ++++++++++++++++ +++++=========== ===========+++++  *************************    +++++;;;;;++++++ ++++;;;+;;;+++++ ++++;;;+;;;+++++ +++;;;;+;;;;++++ +;;;;;;;;;;;;;++ ;;;;;;;;;;;;;;;+ ++;;;;;;;+++++++ ++++++++++++++++ +++++$$$$$$$$$$$ $$$$$$$$$$$+++++  #########################    +++++*****++++++ ++++***+***+++++ ++++***+***+++++ +++****+****++++ +*************++ ***************+ ++*******+++++++ ++++++++++++++++ +++++&&&&&&&&&&& &&&&&&&&&&&+++++  +++++++++++++++++++++++++    +++++=====++++++ ++++===+===+++++ ++++===+===+++++ +++====+====++++ +=============++ ===============+ ++=======+++++++ ++++++++++++++++ +++++&&&&&&&&&&& &&&&&&&&&&&+++++  +++++++++++++++++++++++++   ",
" ++++++++++++++++ ++++++++++++++++ ++++++++++++++++ ++++++++++++++++ +++@@@@+@@@@++++ +@@@@@@+@@@@@@++ +++@@@@@@@++++++ ++++++++++++++++ ++++++---------- ----------++++++  =========================    ++++++++++++++++ ++++++++++++++++ ++++++++++++++++ ++++++++++++++++ ++++++++++++++++ ++++++++++++++++ ++++++++++++++++ ++++++++++++++++ ++++++========== ==========++++++  *************************    ++++++++++++++++ ++++++++++++++++ ++++++++++++++++ ++++++++++++++++ +++;;;;+;;;;++++ +;;;;;;+;;;;;;++ +++;;;;;;;++++++ ++++++++++++++++ ++++++$$$$$$$$$$ $$$$$$$$$$++++++  #########################    ++++++++++++++++ ++++++++++++++++ ++++++++++++++++ ++++++++++++++++ +++****+****++++ +******+******++ +++*******++++++ ++++++++++++++++ ++++++&&&&&&&&&& &&&&&&&&&&++++++  +++++++++++++++++++++++++    ++++++++++++++++ ++++++++++++++++ ++++++++++++++++ ++++++++++++++++ +++====+====++++ +======+======++ +++=======++++++ ++++++++++++++++ ++++++&&&&&&&&&& &&&&&&&&&&++++++  +++++++++++++++++++++++++   ",
" ++++++++++++++++ ++++++++++++++++ ++++++++++++++++ ++++++++++++++++ ++++++++++++++++ +++@@@+++@@@++++ +++++@@@@@++++++ ++++++++++++++++ +++++++--------- ---------+++++++  =========================    ++++++++++++++++ ++++++++++++++++ ++++++++++++++++ ++++++++++++++++ ++++++++++++++++ ++++++++++++++++ ++++++++++++++++ ++++++++++++++++ +++++++========= =========+++++++  *************************    ++++++++++++++++ ++++++++++++++++ ++++++++++++++++ ++++++++++++++++ ++++++++++++++++ +++;;;+++;;;++++ +++++;;;;;++++++ ++++++++++++++++ +++++++$$$$$$$$$ $$$$$$$$$+++++++  #########################    ++++++++++++++++ ++++++++++++++++ ++++++++++++++++ ++++++++++++++++ ++++++++++++++++ +++***+++***++++ +++++*****++++++ ++++++++++++++++ +++++++&&&&&&&&& &&&&&&&&&+++++++  +++++++++++++++++++++++++    ++++++++++++++++ ++++++++++++++++ ++++++++++++++++ ++++++++++++++++ ++++++++++++++++ +++===+++===++++ +++++=====++++++ ++++++++++++++++ +++++++&&&&&&&&& &&&&&&&&&+++++++  +++++++++++++++++++++++++   ",
" ++++++++++++++++ ++++++++++++++++ ++++++++++++++++ ++++++++++++++++ ++++++++++++++++ ++++++++++++++++ ++++++++++++++++ ++++++++++++++++ +++++++++------- -------+++++++++  =========================    ++++++++++++++++ ++++++++++++++++ ++++++++++++++++ ++++++++++++++++ ++++++++++++++++ ++++++++++++++++ ++++++++++++++++ ++++++++++++++++ +++++++++======= =======+++++++++  *************************    ++++++++++++++++ ++++++++++++++++ ++++++++++++++++ ++++++++++++++++ ++++++++++++++++ ++++++++++++++++ ++++++++++++++++ ++++++++++++++++ +++++++++$$$$$$$ $$$$$$$+++++++++  #########################    ++++++++++++++++ ++++++++++++++++ ++++++++++++++++ ++++++++++++++++ ++++++++++++++++ ++++++++++++++++ ++++++++++++++++ ++++++++++++++++ +++++++++&&&&&&& &&&&&&&+++++++++  +++++++++++++++++++++++++    ++++++++++++++++ ++++++++++++++++ ++++++++++++++++ ++++++++++++++++ ++++++++++++++++ ++++++++++++++++ ++++++++++++++++ ++++++++++++++++ +++++++++&&&&&&& &&&&&&&+++++++++  +++++++++++++++++++++++++   ",
" ++++++++++++++++ ++++++++++++++++ ++++++++++++++++ ++++++++++++++++ ++++++++++++++++ ++++++++++++++++ ++++++++++++++++ ++++++++++++++++ ++++++++++++---- ----++++++++++++  =========================    ++++++++++++++++ ++++++++++++++++ ++++++++++++++++ ++++++++++++++++ ++++++++++++++++ ++++++++++++++++ ++++++++++++++++ ++++++++++++++++ ++++++++++++==== ====++++++++++++  *************************    ++++++++++++++++ ++++++++++++++++ ++++++++++++++++ ++++++++++++++++ ++++++++++++++++ ++++++++++++++++ ++++++++++++++++ ++++++++++++++++ ++++++++++++$$$$ $$$$++++++++++++  #########################    ++++++++++++++++ ++++++++++++++++ ++++++++++++++++ ++++++++++++++++ ++++++++++++++++ ++++++++++++++++ ++++++++++++++++ ++++++++++++++++ ++++++++++++&&&& &&&&++++++++++++  +++++++++++++++++++++++++    ++++++++++++++++ ++++++++++++++++ ++++++++++++++++ ++++++++++++++++ ++++++++++++++++ ++++++++++++++++ ++++++++++++++++ ++++++++++++++++ ++++++++++++&&&& &&&&++++++++++++  +++++++++++++++++++++++++   ",
"                                                                                                                                                                            =========================                                                                                                                                                                               *************************                                                                                                                                                                               #########################                                                                                                                                                                               +++++++++++++++++++++++++                                                                                                                                                                               +++++++++++++++++++++++++   ",
" ++++++++++++++++ ++++++++++++++++ ++++++++++++++++ ++++++++++++++++ ++++++++++++++++ ++++++++++++++++ ++++++++++++++++ ++++++++++++++++ ++++++++++++---- ----++++++++++++  =========================    ++++++++++++++++ ++++++++++++++++ ++++++++++++++++ ++++++++++++++++ ++++++++++++++++ ++++++++++++++++ ++++++++++++++++ ++++++++++++++++ ++++++++++++==== ====++++++++++++  *************************    ++++++++++++++++ ++++++++++++++++ ++++++++++++++++ ++++++++++++++++ ++++++++++++++++ ++++++++++++++++ ++++++++++++++++ ++++++++++++++++ ++++++++++++$$$$ $$$$++++++++++++  #########################    ++++++++++++++++ ++++++++++++++++ ++++++++++++++++ ++++++++++++++++ ++++++++++++++++ ++++++++++++++++ ++++++++++++++++ ++++++++++++++++ ++++++++++++&&&& &&&&++++++++++++  +++++++++++++++++++++++++    ++++++++++++++++ ++++++++++++++++ ++++++++++++++++ ++++++++++++++++ ++++++++++++++++ ++++++++++++++++ ++++++++++++++++ ++++++++++++++++ ++++++++++++&&&& &&&&++++++++++++  +++++++++++++++++++++++++   ",
" ++++++++++++++++ ++++++++++++++++ ++++++++++++++++ ++++++++++++++++ ++++++++++++++++ ++++++++++++++++ +++++@@@@@++++++ +++++@@@@@++++++ +++++++++------- -------+++++++++  =========================    ++++++++++++++++ ++++++++++++++++ ++++++++++++++++ ++++++++++++++++ ++++++++++++++++ ++++++++++++++++ ++++++++++++++++ ++++++++++++++++ +++++++++======= =======+++++++++  *************************    ++++++++++++++++ ++++++++++++++++ ++++++++++++++++ ++++++++++++++++ ++++++++++++++++ ++++++++++++++++ +++++;;;;;++++++ +++++;;;;;++++++ +++++++++$$$$$$$ $$$$$$$+++++++++  #########################    ++++++++++++++++ ++++++++++++++++ ++++++++++++++++ ++++++++++++++++ ++++++++++++++++ ++++++++++++++++ +++++*****++++++ +++++*****++++++ +++++++++&&&&&&& &&&&&&&+++++++++  +++++++++++++++++++++++++    ++++++++++++++++ ++++++++++++++++ ++++++++++++++++ ++++++++++++++++ ++++++++++++++++ ++++++++++++++++ +++++=====++++++ +++++=====++++++ +++++++++&&&&&&& &&&&&&&+++++++++  +++++++++++++++++++++++++   ",
" ++++++++++++++++ ++++++++++++++++ ++++++++++++++++ ++++++++++++++++ ++++++++++++++++ ++++++++++++++++ +++@@@@@@@@@++++ +++@@@@@@@@@++++ +++++++--------- --------++++++++  =========================    ++++++++++++++++ ++++++++++++++++ ++++++++++++++++ ++++++++++++++++ ++++++++++++++++ ++++++++++++++++ ++++++++++++++++ ++++++++++++++++ +++++++========= ========++++++++  *************************    ++++++++++++++++ ++++++++++++++++ ++++++++++++++++ ++++++++++++++++ ++++++++++++++++ ++++++++++++++++ +++;;;;;;;;;++++ +++;;;;;;;;;++++ +++++++$$$$$$$$$ $$$$$$$$++++++++  #########################    ++++++++++++++++ ++++++++++++++++ ++++++++++++++++ ++++++++++++++++ ++++++++++++++++ ++++++++++++++++ +++*********++++ +++*********++++ +++++++&&&&&&&&& &&&&&&&&++++++++  +++++++++++++++++++++++++    ++++++++++++++++ ++++++++++++++++ ++++++++++++++++ ++++++++++++++++ ++++++++++++++++ ++++++++++++++++ +++=========++++ +++=========++++ +++++++&&&&&&&&& &&&&&&&&++++++++  +++++++++++++++++++++++++   ",
" ++++++++++++++++ ++++++++++++++++ ++++++++++++++++ ++++++++++++++++ ++++++++++++++++ ++++++++++++++++ ++@@@@@@@@@@@+++ ++@@@@@@@@@@@+++ ++++++---------- --------++++++++  =========================    ++++++++++++++++ ++++++++++++++++ ++++++++++++++++ ++++++++++++++++ ++++++++++++++++ ++++++++++++++++ ++++++++++++++++ ++++++++++++++++ ++++++========== ========++++++++  *************************    ++++++++++++++++ ++++++++++++++++ ++++++++++++++++ ++++++++++++++++ ++++++++++++++++ ++++++++++++++++ ++;;;;;;;;;;;+++ ++;;;;;;;;;;;+++ ++++++$$$$$$$$$$ $$$$$$$$++++++++  #########################    ++++++++++++++++ ++++++++++++++++ ++++++++++++++++ ++++++++++++++++ ++++++++++++++++ ++++++++++++++++ ++***********+++ ++***********+++ ++++++&&&&&&&&&& &&&&&&&&++++++++  +++++++++++++++++++++++++    ++++++++++++++++ ++++++++++++++++ ++++++++++++++++ ++++++++++++++++ ++++++++++++++++ ++++++++++++++++ ++===========+++ ++===========+++ ++++++&&&&&&&&&& &&&&&&&&++++++++  +++++++++++++++++++++++++   ",
" ++++++++++++++++ ++++++++++++++++ ++++++++++++++++ ++++++++++++++++ ++++++++++++++++ ++++++++++++++++ ++@@@@@@@@@@@+++ ++@@@@@@@@@@@+++ +++++----------- -------+++++++++  =========================    ++++++++++++++++ ++++++++++++++++ ++++++++++++++++ ++++++++++++++++ ++++++++++++++++ ++++++++++++++++ ++++++++++++++++ ++++++++++++++++ +++++=========== =======+++++++++  *************************    ++++++++++++++++ ++++++++++++++++ ++++++++++++++++ ++++++++++++++++ ++++++++++++++++ ++++++++++++++++ ++;;;;;;;;;;;+++ ++;;;;;;;;;;;+++ +++++$$$$$$$$$$$ $$$$$$$+++++++++  #########################    ++++++++++++++++ ++++++++++++++++ ++++++++++++++++ ++++++++++++++++ ++++++++++++++++ ++++++++++++++++ ++***********+++ ++***********+++ +++++&&&&&&&&&&& &&&&&&&+++++++++  +++++++++++++++++++++++++    ++++++++++++++++ ++++++++++++++++ ++++++++++++++++ ++++++++++++++++ ++++++++++++++++ ++++++++++++++++ ++===========+++ ++===========+++ +++++&&&&&&&&&&& &&&&&&&+++++++++  +++++++++++++++++++++++++   ",
" ++++++++++++++++ ++++++++++++++++ ++++++++++++++++ ++++++++++++++++ ++++++++++++++++ ++++++++++++++++ +@@@@@@@@@@+++++ +@@@@@@@@@@@@@++ ++++------------ ------++++++++++  =========================    ++++++++++++++++ ++++++++++++++++ ++++++++++++++++ ++++++++++++++++ ++++++++++++++++ ++++++++++++++++ ++++++++++++++++ ++++++++++++++++ ++++============ ======++++++++++  *************************    ++++++++++++++++ ++++++++++++++++ ++++++++++++++++ ++++++++++++++++ ++++++++++++++++ ++++++++++++++++ +;;;;;;;;;;+++++ +;;;;;;;;;;;;;++ ++++$$$$$$$$$$$$ $$$$$$++++++++++  #########################    ++++++++++++++++ ++++++++++++++++ ++++++++++++++++ ++++++++++++++++ ++++++++++++++++ ++++++++++++++++ +**********+++++ +*************++ ++++&&&&&&&&&&&& &&&&&&++++++++++  +++++++++++++++++++++++++    ++++++++++++++++ ++++++++++++++++ ++++++++++++++++ ++++++++++++++++ ++++++++++++++++ ++++++++++++++++ +==========+++++ +=============++ ++++&&&&&&&&&&&& &&&&&&++++++++++  +++++++++++++++++++++++++   ",
" ++++++++++++++++ ++++++++++++++++ ++++++++++++++++ ++++++++++++++++ +++++@+++@++++++ ++++++++++++++++ +@@@@@@@++++++++ +@@@@@@+@@@@@@++ +++------------- -----+++++++++++  =========================    ++++++++++++++++ ++++++++++++++++ ++++++++++++++++ ++++++++++++++++ ++++++++++++++++ ++++++++++++++++ ++++++++++++++++ ++++++++++++++++ +++============= =====+++++++++++  *************************    ++++++++++++++++ ++++++++++++++++ ++++++++++++++++ ++++++++++++++++ +++++;+++;++++++ ++++++++++++++++ +;;;;;;;++++++++ +;;;;;;+;;;;;;++ +++$$$$$$$$$$$$$ $$$$$+++++++++++  #########################    ++++++++++++++++ ++++++++++++++++ ++++++++++++++++ ++++++++++++++++ +++++*+++*++++++ ++++++++++++++++ +*******++++++++ +******+******++ +++&&&&&&&&&&&&& &&&&&+++++++++++  +++++++++++++++++++++++++    ++++++++++++++++ ++++++++++++++++ ++++++++++++++++ ++++++++++++++++ +++++=+++=++++++ ++++++++++++++++ +=======++++++++ +======+======++ +++&&&&&&&&&&&&& &&&&&+++++++++++  +++++++++++++++++++++++++   ",
" ++++++++++++++++ ++++++++++++++++ ++++++++++++++++ ++++++++++++++++ +++@++@+@+++++++ ++++++++++++++++ +@@@@+++++++++++ +@@@@@@+@@@@@@++ ++-------------- ----++++++++++++  @@@@@@@@@@@@@@@@@@@@@@@@@    ++++++++++++++++ ++++++++++++++++ ++++++++++++++++ ++++++++++++++++ ++++++++++++++++ ++++++++++++++++ ++++++++++++++++ ++++++++++++++++ ++============== ====++++++++++++  +++++++++++++++++++++++++    ++++++++++++++++ ++++++++++++++++ ++++++++++++++++ ++++++++++++++++ +++;++;+;+++++++ ++++++++++++++++ +;;;;+++++++++++ +;;;;;;+;;;;;;++ ++$$$$$$$$$$$$$$ $$$$++++++++++++  ;;;;;;;;;;;;;;;;;;;;;;;;;    ++++++++++++++++ ++++++++++++++++ ++++++++++++++++ ++++++++++++++++ +++*++*+*+++++++ ++++++++++++++++ +****+++++++++++ +******+******++ ++&&&&&&&&&&&&&& &&&&++++++++++++  *************************    ++++++++++++++++ ++++++++++++++++ ++++++++++++++++ ++++++++++++++++ +++=++=+=+++++++ ++++++++++++++++ +====+++++++++++ +======+======++ ++&&&&&&&&&&&&&& &&&&++++++++++++  =========================   ",
" +++++++@++++++++ +++++++@++++++++ +++++++@++++++++ +++++++@++++++++ ++++@++++++@++++ ++++++++++++++++ +@@@@@@@++++++++ +@@@@@+++@@@@@++ ++-------------- ---+++++++++++++  @@@@@@@@@@@@@@@@@@@@@@@@@    ++++++++++++++++ ++++++++++++++++ ++++++++++++++++ ++++++++++++++++ ++++++++++++++++ ++++++++++++++++ ++++++++++++++++ ++++++++++++++++ ++============== ===+++++++++++++  +++++++++++++++++++++++++    +++++++;++++++++ +++++++;++++++++ +++++++;++++++++ +++++++;++++++++ ++++;++++++;++++ ++++++++++++++++ +;;;;;;;++++++++ +;;;;;+++;;;;;++ ++$$$$$$$$$$$$$$ $$$+++++++++++++  ;;;;;;;;;;;;;;;;;;;;;;;;;    +++++++*++++++++ +++++++*++++++++ +++++++*++++++++ +++++++*++++++++ ++++*++++++*++++ ++++++++++++++++ +*******++++++++ +*****+++*****++ ++&&&&&&&&&&&&&& &&&+++++++++++++  *************************    +++++++=++++++++ +++++++=++++++++ +++++++=++++++++ +++++++=++++++++ ++++=++++++=++++ ++++++++++++++++ +=======++++++++ +=====+++=====++ ++&&&&&&&&&&&&&& &&&+++++++++++++  =========================   ",
" ++++++@@@+++++++ ++++++@@@+++++++ +++++++@++++++++ +++++++@++++++++ ++++++++++@+++++ ++++++++++++++++ +@@@@@@@@@@+++++ +@@@@@+++@@@@@++ +--------------- --++++++++++++++  @@@@@@@@@@@@@@@@@@@@@@@@@    ++++++++++++++++ ++++++++++++++++ ++++++++++++++++ ++++++++++++++++ ++++++++++++++++ ++++++++++++++++ ++++++++++++++++ ++++++++++++++++ +=============== ==++++++++++++++  +++++++++++++++++++++++++    ++++++;;;+++++++ ++++++;;;+++++++ +++++++;++++++++ +++++++;++++++++ ++++++++++;+++++ ++++++++++++++++ +;;;;;;;;;;+++++ +;;;;;+++;;;;;++ +$$$$$$$$$$$$$$$ $$++++++++++++++  ;;;;;;;;;;;;;;;;;;;;;;;;;    ++++++***+++++++ ++++++***+++++++ +++++++*++++++++ +++++++*++++++++ ++++++++++*+++++ ++++++++++++++++ +**********+++++ +*****+++*****++ +&&&&&&&&&&&&&&& &&++++++++++++++  *************************    ++++++===+++++++ ++++++===+++++++ +++++++=++++++++ +++++++=++++++++ ++++++++++=+++++ ++++++++++++++++ +==========+++++ +=====+++=====++ +&&&&&&&&&&&&&&& &&++++++++++++++  =========================   ",
" ++++@@@@@@@+++++ +++++@@@@@++++++ ++++++@@@+++++++ +++++++@++++++++ ++@@++++++++++++ ++++++++++++++++ ++@@@@@@@@@@@+++ ++@@@@+++@@@@+++ +--------------- -+++++++++++++++  @@@@@@@@@@@@@@@@@@@@@@@@@    ++++++++++++++++ ++++++++++++++++ ++++++++++++++++ ++++++++++++++++ ++++++++++++++++ ++++++++++++++++ ++++++++++++++++ ++++++++++++++++ +=============== =+++++++++++++++  +++++++++++++++++++++++++    ++++;;;;;;;+++++ +++++;;;;;++++++ ++++++;;;+++++++ +++++++;++++++++ ++;;++++++++++++ ++++++++++++++++ ++;;;;;;;;;;;+++ ++;;;;+++;;;;+++ +$$$$$$$$$$$$$$$ $+++++++++++++++  ;;;;;;;;;;;;;;;;;;;;;;;;;    ++++*******+++++ +++++*****++++++ ++++++***+++++++ +++++++*++++++++ ++**++++++++++++ ++++++++++++++++ ++***********+++ ++****+++****+++ +&&&&&&&&&&&&&&& &+++++++++++++++  *************************    ++++=======+++++ +++++=====++++++ ++++++===+++++++ +++++++=++++++++ ++==++++++++++++ ++++++++++++++++ ++===========+++ ++====+++====+++ +&&&&&&&&&&&&&&& &+++++++++++++++  =========================   ",
" +++@@@@@@@@@++++ +++++@@@@@++++++ ++++++@@@+++++++ +++++++@++++++++ +++++++++++@@+++ ++++++++++++++++ ++@@@@@@@@@@@+++ ++@@@+++++@@@+++ +--------------- ++++++++++++++++  @@@@@@@@@@@@@@@@@@@@@@@@@    ++++++++++++++++ ++++++++++++++++ ++++++++++++++++ ++++++++++++++++ ++++++++++++++++ ++++++++++++++++ ++++++++++++++++ ++++++++++++++++ +=============== ++++++++++++++++  +++++++++++++++++++++++++    +++;;;;;;;;;++++ +++++;;;;;++++++ ++++++;;;+++++++ +++++++;++++++++ +++++++++++;;+++ ++++++++++++++++ ++;;;;;;;;;;;+++ ++;;;+++++;;;+++ +$$$$$$$$$$$$$$$ ++++++++++++++++  ;;;;;;;;;;;;;;;;;;;;;;;;;    +++*********++++ +++++*****++++++ ++++++***+++++++ +++++++*++++++++ +++++++++++**+++ ++++++++++++++++ ++***********+++ ++***+++++***+++ +&&&&&&&&&&&&&&& ++++++++++++++++  *************************    +++=========++++ +++++=====++++++ ++++++===+++++++ +++++++=++++++++ +++++++++++==+++ ++++++++++++++++ ++===========+++ ++===+++++===+++ +&&&&&&&&&&&&&&& ++++++++++++++++  =========================   ",
" +@@@@@@@@@@@@@++ ++++@@@@@@@+++++ ++++++@@@+++++++ +++++++@++++++++ ++++@+++++++++++ ++++++++++++++++ +++@@@@@@@@@++++ +++@@+++++@@++++ ---------------+ ++++++++++++++++  @@@@@@@@@@@@@@@@@@@@@@@@@    ++++++++++++++++ ++++++++++++++++ ++++++++++++++++ ++++++++++++++++ ++++++++++++++++ ++++++++++++++++ ++++++++++++++++ ++++++++++++++++ ===============+ ++++++++++++++++  +++++++++++++++++++++++++    +;;;;;;;;;;;;;++ ++++;;;;;;;+++++ ++++++;;;+++++++ +++++++;++++++++ ++++;+++++++++++ ++++++++++++++++ +++;;;;;;;;;++++ +++;;+++++;;++++ $$$$$$$$$$$$$$$+ ++++++++++++++++  ;;;;;;;;;;;;;;;;;;;;;;;;;    +*************++ ++++*******+++++ ++++++***+++++++ +++++++*++++++++ ++++*+++++++++++ ++++++++++++++++ +++*********++++ +++**+++++**++++ &&&&&&&&&&&&&&&+ ++++++++++++++++  *************************    +=============++ ++++=======+++++ ++++++===+++++++ +++++++=++++++++ ++++=+++++++++++ ++++++++++++++++ +++=========++++ +++==+++++==++++ &&&&&&&&&&&&&&&+ ++++++++++++++++  =========================   ",
" +@@@@@@+@@@@@@++ +++@@@@@@@@@++++ +++++@@@@@++++++ +++++++@++++++++ +++@++++++@+++++ ++++++++++++++++ +++++@@@@@++++++ ++++++++++++++++ --------------++ ++++++++++++++++  @@@@@@@@@@@@@@@@@@@@@@@@@    ++++++++++++++++ ++++++++++++++++ ++++++++++++++++ ++++++++++++++++ ++++++++++++++++ ++++++++++++++++ ++++++++++++++++ ++++++++++++++++ ==============++ ++++++++++++++++  +++++++++++++++++++++++++    +;;;;;;+;;;;;;++ +++;;;;;;;;;++++ +++++;;;;;++++++ +++++++;++++++++ +++;++++++;+++++ ++++++++++++++++ +++++;;;;;++++++ ++++++++++++++++ $$$$$$$$$$$$$$++ ++++++++++++++++  ;;;;;;;;;;;;;;;;;;;;;;;;;    +******+******++ +++*********++++ +++++*****++++++ +++++++*++++++++ +++*++++++*+++++ ++++++++++++++++ +++++*****++++++ ++++++++++++++++ &&&&&&&&&&&&&&++ ++++++++++++++++  *************************    +======+======++ +++=========++++ +++++=====++++++ +++++++=++++++++ +++=++++++=+++++ ++++++++++++++++ +++++=====++++++ ++++++++++++++++ &&&&&&&&&&&&&&++ ++++++++++++++++  =========================   ",
" ++@@@@+++@@@@+++ ++++@@@+@@@+++++ ++++++@+@+++++++ ++++++++++++++++ ++++++@+@++@++++ ++++++++++++++++ ++++++++++++++++ ++++++++++++++++ -------------+++ ++++++++++++++++  @@@@@@@@@@@@@@@@@@@@@@@@@    ++++++++++++++++ ++++++++++++++++ ++++++++++++++++ ++++++++++++++++ ++++++++++++++++ ++++++++++++++++ ++++++++++++++++ ++++++++++++++++ =============+++ ++++++++++++++++  +++++++++++++++++++++++++    ++;;;;+++;;;;+++ ++++;;;+;;;+++++ ++++++;+;+++++++ ++++++++++++++++ ++++++;+;++;++++ ++++++++++++++++ ++++++++++++++++ ++++++++++++++++ $$$$$$$$$$$$$+++ ++++++++++++++++  ;;;;;;;;;;;;;;;;;;;;;;;;;    ++****+++****+++ ++++***+***+++++ ++++++*+*+++++++ ++++++++++++++++ ++++++*+*++*++++ ++++++++++++++++ ++++++++++++++++ ++++++++++++++++ &&&&&&&&&&&&&+++ ++++++++++++++++  *************************    ++====+++====+++ ++++===+===+++++ ++++++=+=+++++++ ++++++++++++++++ ++++++=+=++=++++ ++++++++++++++++ ++++++++++++++++ ++++++++++++++++ &&&&&&&&&&&&&+++ ++++++++++++++++  =========================   ",
" ++++++++++++++++ ++++++++++++++++ ++++++++++++++++ ++++++++++++++++ +++++@+++@++++++ ++++++++++++++++ ++++++++++++++++ ++++++++++++++++ ------------++++ ++++++++++++++++  @@@@@@@@@@@@@@@@@@@@@@@@@    ++++++++++++++++ ++++++++++++++++ ++++++++++++++++ ++++++++++++++++ ++++++++++++++++ ++++++++++++++++ ++++++++++++++++ ++++++++++++++++ ============++++ ++++++++++++++++  +++++++++++++++++++++++++    ++++++++++++++++ ++++++++++++++++ ++++++++++++++++ ++++++++++++++++ +++++;+++;++++++ ++++++++++++++++ ++++++++++++++++ ++++++++++++++++ $$$$$$$$$$$$++++ ++++++++++++++++  ;;;;;;;;;;;;;;;;;;;;;;;;;    ++++++++++++++++ ++++++++++++++++ ++++++++++++++++ ++++++++++++++++ +++++*+++*++++++ ++++++++++++++++ ++++++++++++++++ ++++++++++++++++ &&&&&&&&&&&&++++ ++++++++++++++++  *************************    ++++++++++++++++ ++++++++++++++++ ++++++++++++++++ ++++++++++++++++ +++++=+++=++++++ ++++++++++++++++ ++++++++++++++++ ++++++++++++++++ &&&&&&&&&&&&++++ ++++++++++++++++  =========================   ",
"                                                                                                                       ..................                                   @@@@@@@@@@@@@@@@@@@@@@@@@                                                                                                                          ..................                                   +++++++++++++++++++++++++                                                                                                                          ..................                                   ;;;;;;;;;;;;;;;;;;;;;;;;;                                                                                                                          ..................                                   *************************                                                                                                                          ..................                                   =========================   ",
" ++++++++++++++++ ++++++++++++++++ ++++++++++++++++ ++++++++++++++++ ++++++++++++++++ ++++++++++++++++ ++++++++++++++++.+-+++++++++-++++.------------++++ ++++++++++++++++  @@@@@@@@@@@@@@@@@@@@@@@@@    ++++++++++++++++ ++++++++++++++++ ++++++++++++++++ ++++++++++++++++ ++++++++++++++++ ++++++++++++++++ ++++++++++++++++.+=+++++++++=++++.============++++ ++++++++++++++++  +++++++++++++++++++++++++    ++++++++++++++++ ++++++++++++++++ ++++++++++++++++ ++++++++++++++++ ++++++++++++++++ ++++++++++++++++ ++++++++++++++++.+$+++++++++$++++.$$$$$$$$$$$$++++ ++++++++++++++++  ;;;;;;;;;;;;;;;;;;;;;;;;;    ++++++++++++++++ ++++++++++++++++ ++++++++++++++++ ++++++++++++++++ ++++++++++++++++ ++++++++++++++++ ++++++++++++++++.+&+++++++++&++++.&&&&&&&&&&&&++++ ++++++++++++++++  *************************    ++++++++++++++++ ++++++++++++++++ ++++++++++++++++ ++++++++++++++++ ++++++++++++++++ ++++++++++++++++ ++++++++++++++++.+&+++++++++&++++.&&&&&&&&&&&&++++ ++++++++++++++++  =========================   ",
" ++++++====++++++ ++++++====++++++ ++++++++++++++++ ++++++++++++++++ ++++++++++++++++ ++++++++++++++++ +++++@@@@@++++++.++-+++++++-+++++.-------------+++ ++++++++++++++++  @@@@@@@@@@@@@@@@@@@@@@@@@    ++++++****++++++ ++++++****++++++ ++++++++++++++++ ++++++++++++++++ ++++++++++++++++ ++++++++++++++++ ++++++++++++++++.++=+++++++=+++++.=============+++ ++++++++++++++++  +++++++++++++++++++++++++    ++++++####++++++ ++++++####++++++ ++++++++++++++++ ++++++++++++++++ ++++++++++++++++ ++++++++++++++++ +++++;;;;;++++++.++$+++++++$+++++.$$$$$$$$$$$$$+++ ++++++++++++++++  ;;;;;;;;;;;;;;;;;;;;;;;;;    ++++++++++++++++ ++++++++++++++++ ++++++++++++++++ ++++++++++++++++ ++++++++++++++++ ++++++++++++++++ +++++*****++++++.++&+++++++&+++++.&&&&&&&&&&&&&+++ ++++++++++++++++  *************************    ++++++++++++++++ ++++++++++++++++ ++++++++++++++++ ++++++++++++++++ ++++++++++++++++ ++++++++++++++++ +++++=====++++++.++&+++++++&+++++.&&&&&&&&&&&&&+++ ++++++++++++++++  =========================   ",
" ++++========++++ ++++========++++ ++++++++++++++++ ++++++++++++++++ ++++++++++++++++ ++++++++++++++++ +++@@@@@@@@@++++.+++-+++++-++++++.--------------++ ++++++++++++++++  @@@@@@@@@@@@@@@@@@@@@@@@@    ++++********++++ ++++********++++ ++++++++++++++++ ++++++++++++++++ ++++++++++++++++ ++++++++++++++++ ++++++++++++++++.+++=+++++=++++++.==============++ ++++++++++++++++  +++++++++++++++++++++++++    ++++########++++ ++++########++++ ++++++++++++++++ ++++++++++++++++ ++++++++++++++++ ++++++++++++++++ +++;;;;;;;;;++++.+++$+++++$++++++.$$$$$$$$$$$$$$++ ++++++++++++++++  ;;;;;;;;;;;;;;;;;;;;;;;;;    ++++++++++++++++ ++++++++++++++++ ++++++++++++++++ ++++++++++++++++ ++++++++++++++++ ++++++++++++++++ +++*********++++.+++&+++++&++++++.&&&&&&&&&&&&&&++ ++++++++++++++++  *************************    ++++++++++++++++ ++++++++++++++++ ++++++++++++++++ ++++++++++++++++ ++++++++++++++++ ++++++++++++++++ +++=========++++.+++&+++++&++++++.&&&&&&&&&&&&&&++ ++++++++++++++++  =========================   ",
" +++==========+++ +++==========+++ ++++++++++++++++ ++++++++++++++++ ++++++++++++++++ ++++++++++++++++ ++@@@@@@@@@@@+++.+++----++---+++-.---------------+ ++++++++++++++++  @@@@@@@@@@@@@@@@@@@@@@@@@    +++**********+++ +++**********+++ ++++++++++++++++ ++++++++++++++++ ++++++++++++++++ ++++++++++++++++ ++++++++++++++++.+++====++===+++=.===============+ ++++++++++++++++  +++++++++++++++++++++++++    +++##########+++ +++##########+++ ++++++++++++++++ ++++++++++++++++ ++++++++++++++++ ++++++++++++++++ ++;;;;;;;;;;;+++.+++$$$$++$$$+++$.$$$$$$$$$$$$$$$+ ++++++++++++++++  ;;;;;;;;;;;;;;;;;;;;;;;;;    ++++++++++++++++ ++++++++++++++++ ++++++++++++++++ ++++++++++++++++ ++++++++++++++++ ++++++++++++++++ ++***********+++.+++&&&&++&&&+++&.&&&&&&&&&&&&&&&+ ++++++++++++++++  *************************    ++++++++++++++++ ++++++++++++++++ ++++++++++++++++ ++++++++++++++++ ++++++++++++++++ ++++++++++++++++ ++===========+++.+++&&&&++&&&+++&.&&&&&&&&&&&&&&&+ ++++++++++++++++  =========================   ",
" ++============++ ++============++ +---+++--+++--++ +++-+++--+++--++ +---+++--+++--++ -++---++--+++--+ ++@@@@@@@@@@@+++.++++-=-+-@=@-+-+.+--------------- ++++++++++++++++  @@@@@@@@@@@@@@@@@@@@@@@@@    ++************++ ++************++ +===+++==+++==++ +++=+++==+++==++ +===+++==+++==++ =++===++==+++==+ ++++++++++++++++.++++=*=+=+*+=+=+.+=============== ++++++++++++++++  +++++++++++++++++++++++++    ++############++ ++############++ +$$$+++$$+++$$++ +++$+++$$+++$$++ +$$$+++$$+++$$++ $++$$$++$$+++$$+ ++;;;;;;;;;;;+++.++++$#$+$;#;$+$+.+$$$$$$$$$$$$$$$ ++++++++++++++++  ;;;;;;;;;;;;;;;;;;;;;;;;;    ++++++++++++++++ ++++++++++++++++ +&&&+++&&+++&&++ +++&+++&&+++&&++ +&&&+++&&+++&&++ &++&&&++&&+++&&+ ++***********+++.++++&+&+&*+*&+&+.+&&&&&&&&&&&&&&& ++++++++++++++++  *************************    ++++++++++++++++ ++++++++++++++++ +&&&+++&&+++&&++ +++&+++&&+++&&++ +&&&+++&&+++&&++ &++&&&++&&+++&&+ ++===========+++.++++&+&+&=+=&+&+.+&&&&&&&&&&&&&&& ++++++++++++++++  =========================   ",
" ++============++ ++============++ -+++-+-++-+-++-+ ++--++-++-+-++-+ -+++-+-++-+-++-+ -+-++++-++-+-++- +@@@@@@@@@@@@@++.+++-@+@-==@==-++.+--------------- -+++++++++++++++  @@@@@@@@@@@@@@@@@@@@@@@@@    ++************++ ++************++ =+++=+=++=+=++=+ ++==++=++=+=++=+ =+++=+=++=+=++=+ =+=++++=++=+=++= ++++++++++++++++.+++=+++=**+**=++.+=============== =+++++++++++++++  +++++++++++++++++++++++++    ++############++ ++############++ $+++$+$++$+$++$+ ++$$++$++$+$++$+ $+++$+$++$+$++$+ $+$++++$++$+$++$ +;;;;;;;;;;;;;++.+++$;+;$##;##$++.+$$$$$$$$$$$$$$$ $+++++++++++++++  ;;;;;;;;;;;;;;;;;;;;;;;;;    ++++++++++++++++ ++++++++++++++++ &+++&+&++&+&++&+ ++&&++&++&+&++&+ &+++&+&++&+&++&+ &+&++++&++&+&++& +*************++.+++&*+*&++*++&++.+&&&&&&&&&&&&&&& &+++++++++++++++  *************************    ++++++++++++++++ ++++++++++++++++ &+++&+&++&+&++&+ ++&&++&++&+&++&+ &+++&+&++&+&++&+ &+&++++&++&+&++& +=============++.+++&=+=&++=++&++.+&&&&&&&&&&&&&&& &+++++++++++++++  =========================   ",
" ++===@@==@@===++ ++===@@==@@===++ -+++-+-++-+-++-+ +-+-++-++-+-++-+ -+++-+-++-+-++-+ -+-++++-++-+-++- +@@@@@@@@@@@@@++.+++-=@+@@@=@=-++.+--------------- --++++++++++++++  @@@@@@@@@@@@@@@@@@@@@@@@@    ++***++**++***++ ++***++**++***++ =+++=+=++=+=++=+ +=+=++=++=+=++=+ =+++=+=++=+=++=+ =+=++++=++=+=++= ++++++++++++++++.+++=*+++++*+*=++.+=============== ==++++++++++++++  +++++++++++++++++++++++++    ++###;;##;;###++ ++###;;##;;###++ $+++$+$++$+$++$+ +$+$++$++$+$++$+ $+++$+$++$+$++$+ $+$++++$++$+$++$ +;;;;;;;;;;;;;++.+++$#;+;;;#;#$++.+$$$$$$$$$$$$$$$ $$++++++++++++++  ;;;;;;;;;;;;;;;;;;;;;;;;;    +++++**++**+++++ +++++**++**+++++ &+++&+&++&+&++&+ +&+&++&++&+&++&+ &+++&+&++&+&++&+ &+&++++&++&+&++& +*************++.+++&+*+***+*+&++.+&&&&&&&&&&&&&&& &&++++++++++++++  *************************    +++++==++==+++++ +++++==++==+++++ &+++&+&++&+&++&+ +&+&++&++&+&++&+ &+++&+&++&+&++&+ &+&++++&++&+&++& +=============++.+++&+=+===+=+&++.+&&&&&&&&&&&&&&& &&++++++++++++++  =========================   ",
" +====@@==@@====+ +====@@==@@====+ +++-++-++-+-++-+ -++-++-++-+-++-+ +---++-++-+-++-+ -+----+-++-+-++- +@@@@@@@@@@@@@++.+++-==@+@+@==-++.++-------------- ---+++++++++++++  @@@@@@@@@@@@@@@@@@@@@@@@@    +****++**++****+ +****++**++****+ +++=++=++=+=++=+ =++=++=++=+=++=+ +===++=++=+=++=+ =+====+=++=+=++= ++++++++++++++++.+++=**+++++**=++.++============== ===+++++++++++++  +++++++++++++++++++++++++    +####;;##;;####+ +####;;##;;####+ +++$++$++$+$++$+ $++$++$++$+$++$+ +$$$++$++$+$++$+ $+$$$$+$++$+$++$ +;;;;;;;;;;;;;++.+++$##;+;+;##$++.++$$$$$$$$$$$$$$ $$$+++++++++++++  ;;;;;;;;;;;;;;;;;;;;;;;;;    +++++**++**+++++ +++++**++**+++++ +++&++&++&+&++&+ &++&++&++&+&++&+ +&&&++&++&+&++&+ &+&&&&+&++&+&++& +*************++.+++&++*+*+*++&++.++&&&&&&&&&&&&&& &&&+++++++++++++  *************************    +++++==++==+++++ +++++==++==+++++ +++&++&++&+&++&+ &++&++&++&+&++&+ +&&&++&++&+&++&+ &+&&&&+&++&+&++& +=============++.+++&++=+=+=++&++.++&&&&&&&&&&&&&& &&&+++++++++++++  =========================   ",
" +==============+ +==============+ ++-+++-++-+-++-+ -----+-++-+-++-+ -+++-+-++-+-++-+ -+-++-+-++-+-++- +@@@@@@@@@@@@@++.++-=@@=+++@=-+++.++-------------- ----++++++++++++  @@@@@@@@@@@@@@@@@@@@@@@@@    +**************+ +**************+ ++=+++=++=+=++=+ =====+=++=+=++=+ =+++=+=++=+=++=+ =+=++=+=++=+=++= ++++++++++++++++.++=*++*++++*=+++.++============== ====++++++++++++  +++++++++++++++++++++++++    +##############+ +##############+ ++$+++$++$+$++$+ $$$$$+$++$+$++$+ $+++$+$++$+$++$+ $+$++$+$++$+$++$ +;;;;;;;;;;;;;++.++$#;;#+++;#$+++.++$$$$$$$$$$$$$$ $$$$++++++++++++  ;;;;;;;;;;;;;;;;;;;;;;;;;    ++++++++++++++++ ++++++++++++++++ ++&+++&++&+&++&+ &&&&&+&++&+&++&+ &+++&+&++&+&++&+ &+&++&+&++&+&++& +*************++.++&+**++++*+&+++.++&&&&&&&&&&&&&& &&&&++++++++++++  *************************    ++++++++++++++++ ++++++++++++++++ ++&+++&++&+&++&+ &&&&&+&++&+&++&+ &+++&+&++&+&++&+ &+&++&+&++&+&++& +=============++.++&+==++++=+&+++.++&&&&&&&&&&&&&& &&&&++++++++++++  =========================   ",
" +==============+ +==============+ +-++++-++-+-++-+ +++-++-++-+-++-+ -+++-+-++-+-++-+ -+-++-+-++-+-++- +@@@@@@@@@@@@@++.++-=@@@=+@=-++++.+++------------- -----+++++++++++  @@@@@@@@@@@@@@@@@@@@@@@@@    +**************+ +**************+ +=++++=++=+=++=+ +++=++=++=+=++=+ =+++=+=++=+=++=+ =+=++=+=++=+=++= ++++++++++++++++.++=*+++*++*=++++.+++============= =====+++++++++++  +++++++++++++++++++++++++    +##############+ +##############+ +$++++$++$+$++$+ +++$++$++$+$++$+ $+++$+$++$+$++$+ $+$++$+$++$+$++$ +;;;;;;;;;;;;;++.++$#;;;#+;#$++++.+++$$$$$$$$$$$$$ $$$$$+++++++++++  ;;;;;;;;;;;;;;;;;;;;;;;;;    ++++++++++++++++ ++++++++++++++++ +&++++&++&+&++&+ +++&++&++&+&++&+ &+++&+&++&+&++&+ &+&++&+&++&+&++& +*************++.++&+***++*+&++++.+++&&&&&&&&&&&&& &&&&&+++++++++++  *************************    ++++++++++++++++ ++++++++++++++++ +&++++&++&+&++&+ +++&++&++&+&++&+ &+++&+&++&+&++&+ &+&++&+&++&+&++& +=============++.++&+===++=+&++++.+++&&&&&&&&&&&&& &&&&&+++++++++++  =========================   ",
" +==@@==@@==@@==+ +==@@==@@==@@==+ -----++--+++--++ +++-+++--+++--++ +---+++--+++--++ -++--+++--+++--+ ++@@@@@@@@@@@+++.++-@=+@@@@@=-+++.++++------------ ------++++++++++  @@@@@@@@@@@@@@@@@@@@@@@@@    +**++**++**++**+ +**++**++**++**+ =====++==+++==++ +++=+++==+++==++ +===+++==+++==++ =++==+++==+++==+ ++++++++++++++++.++=+*++++++*=+++.++++============ ======++++++++++  +++++++++++++++++++++++++    +##;;##;;##;;##+ +##;;##;;##;;##+ $$$$$++$$+++$$++ +++$+++$$+++$$++ +$$$+++$$+++$$++ $++$$+++$$+++$$+ ++;;;;;;;;;;;+++.++$;#+;;;;;#$+++.++++$$$$$$$$$$$$ $$$$$$++++++++++  ;;;;;;;;;;;;;;;;;;;;;;;;;    +++**++**++**+++ +++**++**++**+++ &&&&&++&&+++&&++ +++&+++&&+++&&++ +&&&+++&&+++&&++ &++&&+++&&+++&&+ ++***********+++.++&*++*****+&+++.++++&&&&&&&&&&&& &&&&&&++++++++++  *************************    +++==++==++==+++ +++==++==++==+++ &&&&&++&&+++&&++ +++&+++&&+++&&++ +&&&+++&&+++&&++ &++&&+++&&+++&&+ ++===========+++.++&=++=====+&+++.++++&&&&&&&&&&&& &&&&&&++++++++++  =========================   ",
" +=@==@@==@@==@=+ +=@==@@==@@==@=+ ++++++++++++++++ ++++++++++++++++ ++++++++++++++++ ++++++++++++++++ ++@@@@@@@@@@@+++.+++-=++==@+@-+++.+++++----------- -------+++++++++  @@@@@@@@@@@@@@@@@@@@@@@@@    +*+**++**++**+*+ +*+**++**++**+*+ ++++++++++++++++ ++++++++++++++++ ++++++++++++++++ ++++++++++++++++ ++++++++++++++++.+++=*++**+++=+++.+++++=========== =======+++++++++  +++++++++++++++++++++++++    +#;##;;##;;##;#+ +#;##;;##;;##;#+ ++++++++++++++++ ++++++++++++++++ ++++++++++++++++ ++++++++++++++++ ++;;;;;;;;;;;+++.+++$#++##;+;$+++.+++++$$$$$$$$$$$ $$$$$$$+++++++++  ;;;;;;;;;;;;;;;;;;;;;;;;;    ++*++**++**++*++ ++*++**++**++*++ ++++++++++++++++ ++++++++++++++++ ++++++++++++++++ ++++++++++++++++ ++***********+++.+++&+++++*+*&+++.+++++&&&&&&&&&&& &&&&&&&+++++++++  *************************    ++=++==++==++=++ ++=++==++==++=++ ++++++++++++++++ ++++++++++++++++ ++++++++++++++++ ++++++++++++++++ ++===========+++.+++&+++++=+=&+++.+++++&&&&&&&&&&& &&&&&&&+++++++++  =========================   ",
" +==============+ +==============+ ++++++++++++++++ ++++++++++++++++ ++++++++++++++++ ++++++++++++++++ +++@@@@@@@@@++++.+++--==--==--+++.++++++---------- --------++++++++  @@@@@@@@@@@@@@@@@@@@@@@@@    +**************+ +**************+ ++++++++++++++++ ++++++++++++++++ ++++++++++++++++ ++++++++++++++++ ++++++++++++++++.+++==**==**==+++.++++++========== ========++++++++  +++++++++++++++++++++++++    +##############+ +##############+ ++++++++++++++++ ++++++++++++++++ ++++++++++++++++ ++++++++++++++++ +++;;;;;;;;;++++.+++$$##$$##$$+++.++++++$$$$$$$$$$ $$$$$$$$++++++++  ;;;;;;;;;;;;;;;;;;;;;;;;;    ++++++++++++++++ ++++++++++++++++ ++++++++++++++++ ++++++++++++++++ ++++++++++++++++ ++++++++++++++++ +++*********++++.+++&&++&&++&&+++.++++++&&&&&&&&&& &&&&&&&&++++++++  *************************    ++++++++++++++++ ++++++++++++++++ ++++++++++++++++ ++++++++++++++++ ++++++++++++++++ ++++++++++++++++ +++=========++++.+++&&++&&++&&+++.++++++&&&&&&&&&& &&&&&&&&++++++++  =========================   ",
" +==+===++===+==+ +====+====+====+ ++++++++++++++++ ++++++++++++++++ ++++++++++++++++ ++++++++++++++++ +++++@@@@@++++++.++--+--++--+--++.+++++++--------- --------++++++++  @@@@@@@@@@@@@@@@@@@@@@@@@    +**+***++***+**+ +****+****+****+ ++++++++++++++++ ++++++++++++++++ ++++++++++++++++ ++++++++++++++++ ++++++++++++++++.++==+==++==+==++.+++++++========= ========++++++++  +++++++++++++++++++++++++    +##+###++###+##+ +####+####+####+ ++++++++++++++++ ++++++++++++++++ ++++++++++++++++ ++++++++++++++++ +++++;;;;;++++++.++$$+$$++$$+$$++.+++++++$$$$$$$$$ $$$$$$$$++++++++  ;;;;;;;;;;;;;;;;;;;;;;;;;    ++++++++++++++++ ++++++++++++++++ ++++++++++++++++ ++++++++++++++++ ++++++++++++++++ ++++++++++++++++ +++++*****++++++.++&&+&&++&&+&&++.+++++++&&&&&&&&& &&&&&&&&++++++++  *************************    ++++++++++++++++ ++++++++++++++++ ++++++++++++++++ ++++++++++++++++ ++++++++++++++++ ++++++++++++++++ +++++=====++++++.++&&+&&++&&+&&++.+++++++&&&&&&&&& &&&&&&&&++++++++  =========================   ",
" +=+++==++==+++=+ ++==+++==+++==++ ++++++++++++++++ ++++++++++++++++ ++++++++++++++++ ++++++++++++++++ ++++++++++++++++.+-++++++++++++-+.+++++++++------- -------+++++++++  @@@@@@@@@@@@@@@@@@@@@@@@@    +*+++**++**+++*+ ++**+++**+++**++ ++++++++++++++++ ++++++++++++++++ ++++++++++++++++ ++++++++++++++++ ++++++++++++++++.+=++++++++++++=+.+++++++++======= =======+++++++++  +++++++++++++++++++++++++    +#+++##++##+++#+ ++##+++##+++##++ ++++++++++++++++ ++++++++++++++++ ++++++++++++++++ ++++++++++++++++ ++++++++++++++++.+$++++++++++++$+.+++++++++$$$$$$$ $$$$$$$+++++++++  ;;;;;;;;;;;;;;;;;;;;;;;;;    ++++++++++++++++ ++++++++++++++++ ++++++++++++++++ ++++++++++++++++ ++++++++++++++++ ++++++++++++++++ ++++++++++++++++.+&++++++++++++&+.+++++++++&&&&&&& &&&&&&&+++++++++  *************************    ++++++++++++++++ ++++++++++++++++ ++++++++++++++++ ++++++++++++++++ ++++++++++++++++ ++++++++++++++++ ++++++++++++++++.+&++++++++++++&+.+++++++++&&&&&&& &&&&&&&+++++++++  =========================   ",
" ++++++++++++++++ ++++++++++++++++ ++++++++++++++++ ++++++++++++++++ ++++++++++++++++ ++++++++++++++++ ++++++++++++++++.-++++++++++++++-.++++++++++++---- ----++++++++++++                               ++++++++++++++++ ++++++++++++++++ ++++++++++++++++ ++++++++++++++++ ++++++++++++++++ ++++++++++++++++ ++++++++++++++++.=++++++++++++++=.++++++++++++==== ====++++++++++++                               ++++++++++++++++ ++++++++++++++++ ++++++++++++++++ ++++++++++++++++ ++++++++++++++++ ++++++++++++++++ ++++++++++++++++.$++++++++++++++$.++++++++++++$$$$ $$$$++++++++++++                               ++++++++++++++++ ++++++++++++++++ ++++++++++++++++ ++++++++++++++++ ++++++++++++++++ ++++++++++++++++ ++++++++++++++++.&++++++++++++++&.++++++++++++&&&& &&&&++++++++++++                               ++++++++++++++++ ++++++++++++++++ ++++++++++++++++ ++++++++++++++++ ++++++++++++++++ ++++++++++++++++ ++++++++++++++++.&++++++++++++++&.++++++++++++&&&& &&&&++++++++++++                              ",
"                                                                                                                       ..................                                                                                                                                                                                      ..................                                                                                                                                                                                      ..................                                                                                                                                                                                      ..................                                                                                                                                                                                      ..................                                                               ",
"                                                                                                                                                                                                                                                                                                                                                                                                                                                                                                                                                                                                                                                                                                                                                                                                                                                                                                                                                                                                                                        ",
"                                                                                          .......................................................                                                                                                                                                 .......................................................                                                                                                                                                 .......................................................                                                                                                                                                 .......................................................                                                                                                                                                 .......................................................                                                       ",
" ++++++++ ++++++++ ++++++++ ++++++++ ++++++++ ++++++++ ++++++++ ++++++++ ++++++++ ++++++++.++++++++.++++++++.++++++++.++++++++.++++++++.++++++++.++++++++ ++++++++ ++++++++ ++++++++ ++++++++ ++++++++   ++++++++ ++++++++ ++++++++ ++++++++ ++++++++ ++++++++ ++++++++ ++++++++ ++++++++ ++++++++.++++++++.++++++++.++++++++.++++++++.++++++++.++++++++.++++++++ ++++++++ ++++++++ ++++++++ ++++++++ ++++++++   ++++++++ ++++++++ ++++++++ ++++++++ ++++++++ ++++++++ ++++++++ ++++++++ ++++++++ ++++++++.++++++++.++++++++.++++++++.++++++++.++++++++.++++++++.++++++++ ++++++++ ++++++++ ++++++++ ++++++++ ++++++++   ++++++++ ++++++++ ++++++++ ++++++++ ++++++++ ++++++++ ++++++++ ++++++++ ++++++++ ++++++++.++++++++.++++++++.++++++++.++++++++.++++++++.++++++++.++++++++ ++++++++ ++++++++ ++++++++ ++++++++ ++++++++   ++++++++ ++++++++ ++++++++ ++++++++ ++++++++ ++++++++ ++++++++ ++++++++ ++++++++ ++++++++.++++++++.++++++++.++++++++.++++++++.++++++++.++++++++.++++++++ ++++++++ ++++++++ ++++++++ ++++++++ ++++++++  ",
" +++@@@++ ++++@@++ ++@@@@@+ ++@@@@@@ ++++@@@+ +@@@@@@+ +++@@@@+ +@@@@@@@ ++@@@@++ ++@@@@@+.+++@@@++.+@@@@@@+.+++@@@@+.+@@@@@++.++@@@@@@.+@@@@@@@.++++++++ ++++++++ ++++++++ ++++++++ ++++++++ ++++++++   +++&&&++ ++++&&++ ++&&&&&+ ++&&&&&& ++++&&&+ +&&&&&&+ +++&&&&+ +&&&&&&& ++&&&&++ ++&&&&&+.+++&&&++.+&&&&&&+.+++&&&&+.+&&&&&++.++&&&&&&.+&&&&&&&.++++++++ ++++++++ ++++++++ ++++++++ ++++++++ ++++++++   +++===++ ++++==++ ++=====+ ++====== ++++===+ +======+ +++====+ +======= ++====++ ++=====+.+++===++.+======+.+++====+.+=====++.++======.+=======.++++++++ ++++++++ ++++++++ ++++++++ ++++++++ ++++++++   +++===++ ++++==++ ++=====+ ++====== ++++===+ +======+ +++====+ +======= ++====++ ++=====+.+++===++.+======+.+++====+.+=====++.++======.+=======.++++++++ ++++++++ ++++++++ ++++++++ ++++++++ ++++++++   +++>>>++ ++++>>++ ++>>>>>+ ++>>>>>> ++++>>>+ +>>>>>>+ +++>>>>+ +>>>>>>> ++>>>>++ ++>>>>>+.+++>>>++.+>>>>>>+.+++>>>>+.+>>>>>++.++>>>>>>.+>>>>>>>.++++++++ ++++++++ ++++++++ ++++++++ ++++++++ ++++++++  ",
" ++@++@@+ +++@@@++ +@@+++@@ +++++@@+ +++@@@@+ +@@+++++ ++@@++++ +@@+++@@ +@@+++@+ +@@+++@@.++@@+@@+.+@@+++@@.++@@++@@.+@@++@@+.++@@++++.+@@+++++.++++++++ ++++++++ ++++++++ ++++++++ ++++++++ ++++++++   ++&++&&+ +++&&&++ +&&+++&& +++++&&+ +++&&&&+ +&&+++++ ++&&++++ +&&+++&& +&&+++&+ +&&+++&&.++&&+&&+.+&&+++&&.++&&++&&.+&&++&&+.++&&++++.+&&+++++.++++++++ ++++++++ ++++++++ ++++++++ ++++++++ ++++++++   ++=++==+ +++===++ +==+++== +++++==+ +++====+ +==+++++ ++==++++ +==+++== +==+++=+ +==+++==.++==+==+.+==+++==.++==++==.+==++==+.++==++++.+==+++++.++++++++ ++++++++ ++++++++ ++++++++ ++++++++ ++++++++   ++=++==+ +++===++ +==+++== +++++==+ +++====+ +==+++++ ++==++++ +==+++== +==+++=+ +==+++==.++==+==+.+==+++==.++==++==.+==++==+.++==++++.+==+++++.++++++++ ++++++++ ++++++++ ++++++++ ++++++++ ++++++++   ++>++>>+ +++>>>++ +>>+++>> +++++>>+ +++>>>>+ +>>+++++ ++>>++++ +>>+++>> +>>+++>+ +>>+++>>.++>>+>>+.+>>+++>>.++>>++>>.+>>++>>+.++>>++++.+>>+++++.++++++++ ++++++++ ++++++++ ++++++++ ++++++++ ++++++++  ",
" +@@+++@@ ++++@@++ +++++@@@ ++++@@++ ++@@+@@+ +@@@@@@+ +@@+++++ +++++@@+ +@@@++@+ +@@+++@@.+@@+++@@.+@@+++@@.+@@+++++.+@@+++@@.++@@++++.+@@+++++.++++++++ ++++++++ ++++++++ ++++++++ ++++++++ ++++++++   +&&+++&& ++++&&++ +++++&&& ++++&&++ ++&&+&&+ +&&&&&&+ +&&+++++ +++++&&+ +&&&++&+ +&&+++&&.+&&+++&&.+&&+++&&.+&&+++++.+&&+++&&.++&&++++.+&&+++++.++++++++ ++++++++ ++++++++ ++++++++ ++++++++ ++++++++   +==+++== ++++==++ +++++=== ++++==++ ++==+==+ +======+ +==+++++ +++++==+ +===++=+ +==+++==.+==+++==.+==+++==.+==+++++.+==+++==.++==++++.+==+++++.++++++++ ++++++++ ++++++++ ++++++++ ++++++++ ++++++++   +==+++== ++++==++ +++++=== ++++==++ ++==+==+ +======+ +==+++++ +++++==+ +===++=+ +==+++==.+==+++==.+==+++==.+==+++++.+==+++==.++==++++.+==+++++.++++++++ ++++++++ ++++++++ ++++++++ ++++++++ ++++++++   +>>+++>> ++++>>++ +++++>>> ++++>>++ ++>>+>>+ +>>>>>>+ +>>+++++ +++++>>+ +>>>++>+ +>>+++>>.+>>+++>>.+>>+++>>.+>>+++++.+>>+++>>.++>>++++.+>>+++++.++++++++ ++++++++ ++++++++ ++++++++ ++++++++ ++++++++  ",
" +@@+++@@ ++++@@++ +++@@@@+ +++@@@@+ +@@++@@+ ++++++@@ +@@@@@@+ ++++@@++ ++@@@@++ ++@@@@@@.+@@+++@@.+@@@@@@+.+@@+++++.+@@+++@@.++@@@@@+.+@@@@@@+.++++++@@ @@@@@@@@ @@++++++ ++++@@@@ @@@@@@@@ @@@@++++   +&&+++&& ++++&&++ +++&&&&+ +++&&&&+ +&&++&&+ ++++++&& +&&&&&&+ ++++&&++ ++&&&&++ ++&&&&&&.+&&+++&&.+&&&&&&+.+&&+++++.+&&+++&&.++&&&&&+.+&&&&&&+.++++++&& &&&&&&&& &&++++++ ++++&&&& &&&&&&&& &&&&++++   +==+++== ++++==++ +++====+ +++====+ +==++==+ ++++++== +======+ ++++==++ ++====++ ++======.+==+++==.+======+.+==+++++.+==+++==.++=====+.+======+.++++++== ======== ==++++++ ++++==== ======== ====++++   +==+++== ++++==++ +++====+ +++====+ +==++==+ ++++++== +======+ ++++==++ ++====++ ++======.+==+++==.+======+.+==+++++.+==+++==.++=====+.+======+.++++++== ======== ==++++++ ++++==== ======== ====++++   +>>+++>> ++++>>++ +++>>>>+ +++>>>>+ +>>++>>+ ++++++>> +>>>>>>+ ++++>>++ ++>>>>++ ++>>>>>>.+>>+++>>.+>>>>>>+.+>>+++++.+>>+++>>.++>>>>>+.+>>>>>>+.++++++>> >>>>>>>> >>++++++ ++++>>>> >>>>>>>> >>>>++++  ",
" +@@+++@@ ++++@@++ ++@@@@++ ++++++@@ +@@@@@@@ ++++++@@ +@@+++@@ +++@@+++ +@++@@@@ ++++++@@.+@@@@@@@.+@@+++@@.+@@+++++.+@@+++@@.++@@++++.+@@+++++.+++++@&& &&&&&&&& &&@+++++ ++++@&&& &&&&&&&& &&&@++++   +&&+++&& ++++&&++ ++&&&&++ ++++++&& +&&&&&&& ++++++&& +&&+++&& +++&&+++ +&++&&&& ++++++&&.+&&&&&&&.+&&+++&&.+&&+++++.+&&+++&&.++&&++++.+&&+++++.+++++&** ******** **&+++++ ++++&*** ******** ***&++++   +==+++== ++++==++ ++====++ ++++++== +======= ++++++== +==+++== +++==+++ +=++==== ++++++==.+=======.+==+++==.+==+++++.+==+++==.++==++++.+==+++++.+++++=>> >>>>>>>> >>=+++++ ++++=>>> >>>>>>>> >>>=++++   +==+++== ++++==++ ++====++ ++++++== +======= ++++++== +==+++== +++==+++ +=++==== ++++++==.+=======.+==+++==.+==+++++.+==+++==.++==++++.+==+++++.+++++=-- -------- --=+++++ ++++=--- -------- ---=++++   +>>+++>> ++++>>++ ++>>>>++ ++++++>> +>>>>>>> ++++++>> +>>+++>> +++>>+++ +>++>>>> ++++++>>.+>>>>>>>.+>>+++>>.+>>+++++.+>>+++>>.++>>++++.+>>+++++.+++++>-- -------- -->+++++ ++++>--- -------- --->++++  ",
" ++@@++@+ ++++@@++ +@@@++++ +@@+++@@ +++++@@+ +@@+++@@ +@@+++@@ +++@@+++ +@++++@@ +++++@@+.+@@+++@@.+@@+++@@.++@@++@@.+@@++@@+.++@@++++.+@@+++++.++++@&&& &&&&&&&& &&&@++++ ++++@&&& &&&&&&&& &&&@++++   ++&&++&+ ++++&&++ +&&&++++ +&&+++&& +++++&&+ +&&+++&& +&&+++&& +++&&+++ +&++++&& +++++&&+.+&&+++&&.+&&+++&&.++&&++&&.+&&++&&+.++&&++++.+&&+++++.++++&*** ******** ***&++++ ++++&*** ******** ***&++++   ++==++=+ ++++==++ +===++++ +==+++== +++++==+ +==+++== +==+++== +++==+++ +=++++== +++++==+.+==+++==.+==+++==.++==++==.+==++==+.++==++++.+==+++++.++++=>>> >>>>>>>> >>>=++++ ++++=>>> >>>>>>>> >>>=++++   ++==++=+ ++++==++ +===++++ +==+++== +++++==+ +==+++== +==+++== +++==+++ +=++++== +++++==+.+==+++==.+==+++==.++==++==.+==++==+.++==++++.+==+++++.++++=--- -------- ---=++++ ++++=--- -------- ---=++++   ++>>++>+ ++++>>++ +>>>++++ +>>+++>> +++++>>+ +>>+++>> +>>+++>> +++>>+++ +>++++>> +++++>>+.+>>+++>>.+>>+++>>.++>>++>>.+>>++>>+.++>>++++.+>>+++++.++++>--- -------- --->++++ ++++>--- -------- --->++++  ",
" +++@@@++ ++@@@@@@ +@@@@@@@ ++@@@@@+ +++++@@+ ++@@@@@+ ++@@@@@+ +++@@+++ ++@@@@@+ ++@@@@++.+@@+++@@.+@@@@@@+.+++@@@@+.+@@@@@++.++@@@@@@.+@@+++++.++++@&&& &&&&&&&& &&&@++++ ++++@&&@ @@@@@@@@ @&&@++++   +++&&&++ ++&&&&&& +&&&&&&& ++&&&&&+ +++++&&+ ++&&&&&+ ++&&&&&+ +++&&+++ ++&&&&&+ ++&&&&++.+&&+++&&.+&&&&&&+.+++&&&&+.+&&&&&++.++&&&&&&.+&&+++++.++++&*** ******** ***&++++ ++++&**& &&&&&&&& &**&++++   +++===++ ++====== +======= ++=====+ +++++==+ ++=====+ ++=====+ +++==+++ ++=====+ ++====++.+==+++==.+======+.+++====+.+=====++.++======.+==+++++.++++=>>> >>>>>>>> >>>=++++ ++++=>>= ======== =>>=++++   +++===++ ++====== +======= ++=====+ +++++==+ ++=====+ ++=====+ +++==+++ ++=====+ ++====++.+==+++==.+======+.+++====+.+=====++.++======.+==+++++.++++=--- -------- ---=++++ ++++=--= ======== =--=++++   +++>>>++ ++>>>>>> +>>>>>>> ++>>>>>+ +++++>>+ ++>>>>>+ ++>>>>>+ +++>>+++ ++>>>>>+ ++>>>>++.+>>+++>>.+>>>>>>+.+++>>>>+.+>>>>>++.++>>>>>>.+>>+++++.++++>--- -------- --->++++ ++++>--> >>>>>>>> >-->++++  ",
"                                                                                          .......................................................                                                                                                                                                 .......................................................                                                                                                                                                 .......................................................                                                                                                                                                 .......................................................                                                                                                                                                 .......................................................                                                       ",
" @@@@@@@+ +++@@@@@ @+++@@@@ @@@@@+++ +@@@@@@@ +++@@@@@ @+++++++ ++++++++ ++++++++ ++++++++ +++++++@ ++++++++ ++++++++ ++++++++ ++++++++ ++++++++ ++++@&&& &&&&&&&& &&&@++++ ++++@&&@ ++++++++ @&&@++++   &&&&&&&+ +++&&&&& &+++&&&& &&&&&+++ +&&&&&&& +++&&&&& &+++++++ ++++++++ ++++++++ ++++++++ +++++++& ++++++++ ++++++++ ++++++++ ++++++++ ++++++++ ++++&*** ******** ***&++++ ++++&**& ++++++++ &**&++++   =======+ +++===== =+++==== =====+++ +======= +++===== =+++++++ ++++++++ ++++++++ ++++++++ +++++++= ++++++++ ++++++++ ++++++++ ++++++++ ++++++++ ++++=>>> >>>>>>>> >>>=++++ ++++=>>= ++++++++ =>>=++++   =======+ +++===== =+++==== =====+++ +======= +++===== =+++++++ ++++++++ ++++++++ ++++++++ +++++++= ++++++++ ++++++++ ++++++++ ++++++++ ++++++++ ++++=--- -------- ---=++++ ++++=--= ++++++++ =--=++++   >>>>>>>+ +++>>>>> >+++>>>> >>>>>+++ +>>>>>>> +++>>>>> >+++++++ ++++++++ ++++++++ ++++++++ +++++++> ++++++++ ++++++++ ++++++++ ++++++++ ++++++++ ++++>--- -------- --->++++ ++++>--> ++++++++ >-->++++  ",
" @@@@@@@@ +++@@@@@ @@++@@@@ @@@@@@++ @@@@@@@@ ++@@@@@@ @@++++++ ++++++++ ++++++++ ++++++++ ++++++@+ ++++++++ ++++++++ ++++++++ ++++++++ ++++++++ ++++@&&& &&&&&&&& &&&@++++ ++++@&&@ ++++++++ @&&@++++   &&&&&&&& +++&&&&& &&++&&&& &&&&&&++ &&&&&&&& ++&&&&&& &&++++++ ++++++++ ++++++++ ++++++++ ++++++&+ ++++++++ ++++++++ ++++++++ ++++++++ ++++++++ ++++&*** ******** ***&++++ ++++&**& ++++++++ &**&++++   ======== +++===== ==++==== ======++ ======== ++====== ==++++++ ++++++++ ++++++++ ++++++++ ++++++=+ ++++++++ ++++++++ ++++++++ ++++++++ ++++++++ ++++=>>> >>>>>>>> >>>=++++ ++++=>>= ++++++++ =>>=++++   ======== +++===== ==++==== ======++ ======== ++====== ==++++++ ++++++++ ++++++++ ++++++++ ++++++=+ ++++++++ ++++++++ ++++++++ ++++++++ ++++++++ ++++=--- -------- ---=++++ ++++=--= ++++++++ =--=++++   >>>>>>>> +++>>>>> >>++>>>> >>>>>>++ >>>>>>>> ++>>>>>> >>++++++ ++++++++ ++++++++ ++++++++ ++++++>+ ++++++++ ++++++++ ++++++++ ++++++++ ++++++++ ++++>--- -------- --->++++ ++++>--> ++++++++ >-->++++  ",
" @@++++@@ ++++++++ @@++@@++ @@++@@++ @@++++++ ++@@++++ @@++++++ @@@@++@@ @@@++@@@ @+++++++ +++++@++ ++++++++ ++++++++ ++++++++ ++++++++ ++++++++ ++++@&&& &&&&&&&& &&&@++++ ++++@&&@ ++++++++ @&&@++++   &&++++&& ++++++++ &&++&&++ &&++&&++ &&++++++ ++&&++++ &&++++++ &&&&++&& &&&++&&& &+++++++ +++++&++ ++++++++ ++++++++ ++++++++ ++++++++ ++++++++ ++++&*** ******** ***&++++ ++++&**& ++++++++ &**&++++   ==++++== ++++++++ ==++==++ ==++==++ ==++++++ ++==++++ ==++++++ ====++== ===++=== =+++++++ +++++=++ ++++++++ ++++++++ ++++++++ ++++++++ ++++++++ ++++=>>> >>>>>>>> >>>=++++ ++++=>>= ++++++++ =>>=++++   ==++++== ++++++++ ==++==++ ==++==++ ==++++++ ++==++++ ==++++++ ====++== ===++=== =+++++++ +++++=++ ++++++++ ++++++++ ++++++++ ++++++++ ++++++++ ++++=--- -------- ---=++++ ++++=--= ++++++++ =--=++++   >>++++>> ++++++++ >>++>>++ >>++>>++ >>++++++ ++>>++++ >>++++++ >>>>++>> >>>++>>> >+++++++ +++++>++ ++++++++ ++++++++ ++++++++ ++++++++ ++++++++ ++++>--- -------- --->++++ ++++>--> ++++++++ >-->++++  ",
" @@++++@@ ++@@@@@@ @@++@@++ @@++@@++ @@++++++ ++@@++++ @@++++++ @+++@+++ @+++@+++ ++++++++ ++++@+++ +++@@@++ ++++++++ ++++++++ ++++++++ +++==+++ ++++@&&& &&&&&&&& &&&@++++ ++++@&&@ ++++++++ @&&@++++   &&++++&& ++&&&&&& &&++&&++ &&++&&++ &&++++++ ++&&++++ &&++++++ &+++&+++ &+++&+++ ++++++++ ++++&+++ +++&&&++ ++++++++ ++++++++ ++++++++ +++==+++ ++++&*** ******** ***&++++ ++++&**& ++++++++ &**&++++   ==++++== ++====== ==++==++ ==++==++ ==++++++ ++==++++ ==++++++ =+++=+++ =+++=+++ ++++++++ ++++=+++ +++===++ ++++++++ ++++++++ ++++++++ +++@@+++ ++++=>>> >>>>>>>> >>>=++++ ++++=>>= ++++++++ =>>=++++   ==++++== ++====== ==++==++ ==++==++ ==++++++ ++==++++ ==++++++ =+++=+++ =+++=+++ ++++++++ ++++=+++ +++===++ ++++++++ ++++++++ ++++++++ +++@@+++ ++++=--- -------- ---=++++ ++++=--= ++++++++ =--=++++   >>++++>> ++>>>>>> >>++>>++ >>++>>++ >>++++++ ++>>++++ >>++++++ >+++>+++ >+++>+++ ++++++++ ++++>+++ +++>>>++ ++++++++ ++++++++ ++++++++ +++%%+++ ++++>--- -------- --->++++ ++++>--> ++++++++ >-->++++  ",
" @@++++@@ ++@@@@@@ @@++@@++ @@++@@++ @@++++++ ++@@++++ @@++++++ @@@@++++ @++++@@@ ++++++++ +++@++++ ++++++++ ++++++++ ++++++@@ @@++++++ +++==+++ ++++@&&& &&&&&&&& &&&@++++ ++++@&&@ ++++++++ @&&@++++   &&++++&& ++&&&&&& &&++&&++ &&++&&++ &&++++++ ++&&++++ &&++++++ &&&&++++ &++++&&& ++++++++ +++&++++ ++++++++ ++++++++ ++++++&& &&++++++ +++==+++ ++++&*** ******** ***&++++ ++++&**& ++++++++ &**&++++   ==++++== ++====== ==++==++ ==++==++ ==++++++ ++==++++ ==++++++ ====++++ =++++=== ++++++++ +++=++++ ++++++++ ++++++++ ++++++== ==++++++ +++@@+++ ++++=>>> >>>>>>>> >>>=++++ ++++=>>= ++++++++ =>>=++++   ==++++== ++====== ==++==++ ==++==++ ==++++++ ++==++++ ==++++++ ====++++ =++++=== ++++++++ +++=++++ ++++++++ ++++++++ ++++++== ==++++++ +++@@+++ ++++=--- -------- ---=++++ ++++=--= ++++++++ =--=++++   >>++++>> ++>>>>>> >>++>>++ >>++>>++ >>++++++ ++>>++++ >>++++++ >>>>++++ >++++>>> ++++++++ +++>++++ ++++++++ ++++++++ ++++++>> >>++++++ +++%%+++ ++++>--- -------- --->++++ ++++>--> ++++++++ >-->++++  ",
" @@++++@@ ++@@++++ @@++@@++ @@++@@++ @@++++++ ++@@++++ @@++++++ @+++++++ @+++++++ @+++++++ ++@+++++ ++++++++ +@@+++++ ++++@@@@ @@@@++++ ++++++++ ++++@&&& &&&&&&&& &&&@++++ ++++@&&@ ++++++++ @&&@++++   &&++++&& ++&&++++ &&++&&++ &&++&&++ &&++++++ ++&&++++ &&++++++ &+++++++ &+++++++ &+++++++ ++&+++++ ++++++++ +&&+++++ ++++&&&& &&&&++++ ++++++++ ++++&*** ******** ***&++++ ++++&**& ++++++++ &**&++++   ==++++== ++==++++ ==++==++ ==++==++ ==++++++ ++==++++ ==++++++ =+++++++ =+++++++ =+++++++ ++=+++++ ++++++++ +==+++++ ++++==== ====++++ ++++++++ ++++=>>> >>>>>>>> >>>=++++ ++++=>>= ++++++++ =>>=++++   ==++++== ++==++++ ==++==++ ==++==++ ==++++++ ++==++++ ==++++++ =+++++++ =+++++++ =+++++++ ++=+++++ ++++++++ +==+++++ ++++==== ====++++ ++++++++ ++++=--- -------- ---=++++ ++++=--= ++++++++ =--=++++   >>++++>> ++>>++++ >>++>>++ >>++>>++ >>++++++ ++>>++++ >>++++++ >+++++++ >+++++++ >+++++++ ++>+++++ ++++++++ +>>+++++ ++++>>>> >>>>++++ ++++++++ ++++>--- -------- --->++++ ++++>--> ++++++++ >-->++++  ",
" @@++++@@ ++@@@@@@ @@++@@++ @@++@@++ @@@@@@@@ ++@@@@@@ @@++++++ @+++++++ @+++@@@@ ++++++++ +@++++++ ++++++++ +@@+++++ +++@@@@@ @@@@@+++ ++++++++ ++++@&&& &&&&&&&& &&&@++++ ++++@&&@ ++++++++ @&&@++++   &&++++&& ++&&&&&& &&++&&++ &&++&&++ &&&&&&&& ++&&&&&& &&++++++ &+++++++ &+++&&&& ++++++++ +&++++++ ++++++++ +&&+++++ +++&&&&& &&&&&+++ ++++++++ ++++&*** ******** ***&++++ ++++&**& ++++++++ &**&++++   ==++++== ++====== ==++==++ ==++==++ ======== ++====== ==++++++ =+++++++ =+++==== ++++++++ +=++++++ ++++++++ +==+++++ +++===== =====+++ ++++++++ ++++=>>> >>>>>>>> >>>=++++ ++++=>>= ++++++++ =>>=++++   ==++++== ++====== ==++==++ ==++==++ ======== ++====== ==++++++ =+++++++ =+++==== ++++++++ +=++++++ ++++++++ +==+++++ +++===== =====+++ ++++++++ ++++=--- -------- ---=++++ ++++=--= ++++++++ =--=++++   >>++++>> ++>>>>>> >>++>>++ >>++>>++ >>>>>>>> ++>>>>>> >>++++++ >+++++++ >+++>>>> ++++++++ +>++++++ ++++++++ +>>+++++ +++>>>>> >>>>>+++ ++++++++ ++++>--- -------- --->++++ ++++>--> ++++++++ >-->++++  ",
" @@++++@@ ++@@@@@@ @@++@@++ @@++@@++ +@@@@@@@ +++@@@@@ @+++++++ ++++++++ ++++++++ ++++++++ ++++++++ ++++++++ ++++++++ ++@@@==@ @@@==@++ ++++++++ ++++@&&& &&&&&&&& &&&@++++ ++++@&&@ ++++++++ @&&@++++   &&++++&& ++&&&&&& &&++&&++ &&++&&++ +&&&&&&& +++&&&&& &+++++++ ++++++++ ++++++++ ++++++++ ++++++++ ++++++++ ++++++++ ++&&&==& &&&==&++ ++++++++ ++++&*** ******** ***&++++ ++++&**& ++++++++ &**&++++   ==++++== ++====== ==++==++ ==++==++ +======= +++===== =+++++++ ++++++++ ++++++++ ++++++++ ++++++++ ++++++++ ++++++++ ++===@@= ===@@=++ ++++++++ ++++=>>> >>>>>>>> >>>=++++ ++++=>>= ++++++++ =>>=++++   ==++++== ++====== ==++==++ ==++==++ +======= +++===== =+++++++ ++++++++ ++++++++ ++++++++ ++++++++ ++++++++ ++++++++ ++===@@= ===@@=++ ++++++++ ++++=--- -------- ---=++++ ++++=--= ++++++++ =--=++++   >>++++>> ++>>>>>> >>++>>++ >>++>>++ +>>>>>>> +++>>>>> >+++++++ ++++++++ ++++++++ ++++++++ ++++++++ ++++++++ ++++++++ ++>>>%%> >>>%%>++ ++++++++ ++++>--- -------- --->++++ ++++>--> ++++++++ >-->++++  ",
"                                                                                                                                       ..........                                                                                                                                                                                              ..........                                                                                                                                                                                              ..........                                                                                                                                                                                              ..........                                                                                                                                                                                              ..........                                                       ",
" +++@@@++ ++++@@++ ++@@@@@+ ++@@@@@@ ++++@@@+ +@@@@@@+ +++@@@@+ +@@@@@@@ ++@@@@++ ++@@@@@+ ++@@+@@+ ++@@@@++ ++++@@@+ ++@@==== @@====++.++++++++.++++@&&& &&&&&&&& &&&@++++ ++++@&&@ @@@@@@@@ @&&@++++   +++&&&++ ++++&&++ ++&&&&&+ ++&&&&&& ++++&&&+ +&&&&&&+ +++&&&&+ +&&&&&&& ++&&&&++ ++&&&&&+ ++&&+&&+ ++&&&&++ ++++&&&+ ++&&==== &&====++.++++++++.++++&*** ******** ***&++++ ++++&**& &&&&&&&& &**&++++   +++===++ ++++==++ ++=====+ ++====== ++++===+ +======+ +++====+ +======= ++====++ ++=====+ ++==+==+ ++====++ ++++===+ ++==@@@@ ==@@@@++.++++++++.++++=>>> >>>>>>>> >>>=++++ ++++=>>= ======== =>>=++++   +++===++ ++++==++ ++=====+ ++====== ++++===+ +======+ +++====+ +======= ++====++ ++=====+ ++==+==+ ++====++ ++++===+ ++==@@@@ ==@@@@++.++++++++.++++=--- -------- ---=++++ ++++=--= ======== =--=++++   +++>>>++ ++++>>++ ++>>>>>+ ++>>>>>> ++++>>>+ +>>>>>>+ +++>>>>+ +>>>>>>> ++>>>>++ ++>>>>>+ ++>>+>>+ ++>>>>++ ++++>>>+ ++>>%%%% >>%%%%++.++++++++.++++>--- -------- --->++++ ++++>--> >>>>>>>> >-->++++  ",
" ++@++@@+ +++@@@++ +@@+++@@ +++++@@+ +++@@@@+ +@@+++++ ++@@++++ +@@+++@@ +@@+++@+ +@@+++@@ ++@@+@@+ +@++++@+ ++++@@@+ ++@@==&& @@==&&++.++++++++.++++@&&& &&&&&&&& &&&@++++ ++++@&&& &&&&&&&& &&&@++++   ++&++&&+ +++&&&++ +&&+++&& +++++&&+ +++&&&&+ +&&+++++ ++&&++++ +&&+++&& +&&+++&+ +&&+++&& ++&&+&&+ +&++++&+ ++++&&&+ ++&&==** &&==**++.++++++++.++++&*** ******** ***&++++ ++++&*** ******** ***&++++   ++=++==+ +++===++ +==+++== +++++==+ +++====+ +==+++++ ++==++++ +==+++== +==+++=+ +==+++== ++==+==+ +=++++=+ ++++===+ ++==@@>> ==@@>>++.++++++++.++++=>>> >>>>>>>> >>>=++++ ++++=>>> >>>>>>>> >>>=++++   ++=++==+ +++===++ +==+++== +++++==+ +++====+ +==+++++ ++==++++ +==+++== +==+++=+ +==+++== ++==+==+ +=++++=+ ++++===+ ++==@@-- ==@@--++.++++++++.++++=--- -------- ---=++++ ++++=--- -------- ---=++++   ++>++>>+ +++>>>++ +>>+++>> +++++>>+ +++>>>>+ +>>+++++ ++>>++++ +>>+++>> +>>+++>+ +>>+++>> ++>>+>>+ +>++++>+ ++++>>>+ ++>>%%-- >>%%--++.++++++++.++++>--- -------- --->++++ ++++>--- -------- --->++++  ",
" +@@+++@@ ++++@@++ +++++@@@ ++++@@++ ++@@+@@+ +@@@@@@+ +@@+++++ +++++@@+ +@@@++@+ +@@+++@@ +++@++@+ @++@@++@ +++@@@++ +@@@==&& @@==&&@+.+++==+++.+++++@&& &&&&&&&& &&@+++++ ++++@&&& &&&&&&&& &&&@++++   +&&+++&& ++++&&++ +++++&&& ++++&&++ ++&&+&&+ +&&&&&&+ +&&+++++ +++++&&+ +&&&++&+ +&&+++&& +++&++&+ &++&&++& +++&&&++ +&&&==** &&==**&+.+++==+++.+++++&** ******** **&+++++ ++++&*** ******** ***&++++   +==+++== ++++==++ +++++=== ++++==++ ++==+==+ +======+ +==+++++ +++++==+ +===++=+ +==+++== +++=++=+ =++==++= +++===++ +===@@>> ==@@>>=+.+++@@+++.+++++=>> >>>>>>>> >>=+++++ ++++=>>> >>>>>>>> >>>=++++   +==+++== ++++==++ +++++=== ++++==++ ++==+==+ +======+ +==+++++ +++++==+ +===++=+ +==+++== +++=++=+ =++==++= +++===++ +===@@-- ==@@--=+.+++@@+++.+++++=-- -------- --=+++++ ++++=--- -------- ---=++++   +>>+++>> ++++>>++ +++++>>> ++++>>++ ++>>+>>+ +>>>>>>+ +>>+++++ +++++>>+ +>>>++>+ +>>+++>> +++>++>+ >++>>++> +++>>>++ +>>>%%-- >>%%-->+.+++%%+++.+++++>-- -------- -->+++++ ++++>--- -------- --->++++  ",
" +@@+++@@ ++++@@++ +++@@@@+ +++@@@@+ +@@++@@+ ++++++@@ +@@@@@@+ ++++@@++ ++@@@@++ ++@@@@@@ ++@++@++ @+@++++@ +++@@+++ +@@@@==@ @@@==@@+.++====++.++++++@@ @@@@@@@@ @@++++++ ++++@@@@ @@@@@@@@ @@@@++++   +&&+++&& ++++&&++ +++&&&&+ +++&&&&+ +&&++&&+ ++++++&& +&&&&&&+ ++++&&++ ++&&&&++ ++&&&&&& ++&++&++ &+&++++& +++&&+++ +&&&&==& &&&==&&+.++====++.++++++&& &&&&&&&& &&++++++ ++++&&&& &&&&&&&& &&&&++++   +==+++== ++++==++ +++====+ +++====+ +==++==+ ++++++== +======+ ++++==++ ++====++ ++====== ++=++=++ =+=++++= +++==+++ +====@@= ===@@==+.++@@@@++.++++++== ======== ==++++++ ++++==== ======== ====++++   +==+++== ++++==++ +++====+ +++====+ +==++==+ ++++++== +======+ ++++==++ ++====++ ++====== ++=++=++ =+=++++= +++==+++ +====@@= ===@@==+.++@@@@++.++++++== ======== ==++++++ ++++==== ======== ====++++   +>>+++>> ++++>>++ +++>>>>+ +++>>>>+ +>>++>>+ ++++++>> +>>>>>>+ ++++>>++ ++>>>>++ ++>>>>>> ++>++>++ >+>++++> +++>>+++ +>>>>%%> >>>%%>>+.++%%%%++.++++++>> >>>>>>>> >>++++++ ++++>>>> >>>>>>>> >>>>++++  ",
" +@@+++@@ ++++@@++ ++@@@@++ ++++++@@ +@@@@@@@ ++++++@@ +@@+++@@ +++@@+++ +@++@@@@ ++++++@@ ++++++++ @+@++++@ +++@++++ +@@@@@@@ @@@@@@@+.++====++.++++++++ ++++++++ ++++++++ ++++++++ ++++++++ ++++++++   +&&+++&& ++++&&++ ++&&&&++ ++++++&& +&&&&&&& ++++++&& +&&+++&& +++&&+++ +&++&&&& ++++++&& ++++++++ &+&++++& +++&++++ +&&&&&&& &&&&&&&+.++====++.++++++++ ++++++++ ++++++++ ++++++++ ++++++++ ++++++++   +==+++== ++++==++ ++====++ ++++++== +======= ++++++== +==+++== +++==+++ +=++==== ++++++== ++++++++ =+=++++= +++=++++ +======= =======+.++@@@@++.++++++++ ++++++++ ++++++++ ++++++++ ++++++++ ++++++++   +==+++== ++++==++ ++====++ ++++++== +======= ++++++== +==+++== +++==+++ +=++==== ++++++== ++++++++ =+=++++= +++=++++ +======= =======+.++@@@@++.++++++++ ++++++++ ++++++++ ++++++++ ++++++++ ++++++++   +>>+++>> ++++>>++ ++>>>>++ ++++++>> +>>>>>>> ++++++>> +>>+++>> +++>>+++ +>++>>>> ++++++>> ++++++++ >+>++++> +++>++++ +>>>>>>> >>>>>>>+.++%%%%++.++++++++ ++++++++ ++++++++ ++++++++ ++++++++ ++++++++  ",
" ++@@++@+ ++++@@++ +@@@++++ +@@+++@@ +++++@@+ +@@+++@@ +@@+++@@ +++@@+++ +@++++@@ +++++@@+ ++++++++ @++@@++@ ++++++++ +@@@@@@@ @@@@@@@+.+++==+++.++++++++ ++++++++ ++++++++ ++++++++ ++++++++ ++++++++   ++&&++&+ ++++&&++ +&&&++++ +&&+++&& +++++&&+ +&&+++&& +&&+++&& +++&&+++ +&++++&& +++++&&+ ++++++++ &++&&++& ++++++++ +&&&&&&& &&&&&&&+.+++==+++.++++++++ ++++++++ ++++++++ ++++++++ ++++++++ ++++++++   ++==++=+ ++++==++ +===++++ +==+++== +++++==+ +==+++== +==+++== +++==+++ +=++++== +++++==+ ++++++++ =++==++= ++++++++ +======= =======+.+++@@+++.++++++++ ++++++++ ++++++++ ++++++++ ++++++++ ++++++++   ++==++=+ ++++==++ +===++++ +==+++== +++++==+ +==+++== +==+++== +++==+++ +=++++== +++++==+ ++++++++ =++==++= ++++++++ +======= =======+.+++@@+++.++++++++ ++++++++ ++++++++ ++++++++ ++++++++ ++++++++   ++>>++>+ ++++>>++ +>>>++++ +>>+++>> +++++>>+ +>>+++>> +>>+++>> +++>>+++ +>++++>> +++++>>+ ++++++++ >++>>++> ++++++++ +>>>>>>> >>>>>>>+.+++%%+++.++++++++ ++++++++ ++++++++ ++++++++ ++++++++ ++++++++  ",
" +++@@@++ ++@@@@@@ +@@@@@@@ ++@@@@@+ +++++@@+ ++@@@@@+ ++@@@@@+ +++@@+++ ++@@@@@+ ++@@@@++ ++++++++ +@++++@+ ++@+++++ +@@@@@@@ @@@@@@@+.++++++++.++++++++ ++++++++ ++++++++ ++++++++ ++++++++ ++++++++   +++&&&++ ++&&&&&& +&&&&&&& ++&&&&&+ +++++&&+ ++&&&&&+ ++&&&&&+ +++&&+++ ++&&&&&+ ++&&&&++ ++++++++ +&++++&+ ++&+++++ +&&&&&&& &&&&&&&+.++++++++.++++++++ ++++++++ ++++++++ ++++++++ ++++++++ ++++++++   +++===++ ++====== +======= ++=====+ +++++==+ ++=====+ ++=====+ +++==+++ ++=====+ ++====++ ++++++++ +=++++=+ ++=+++++ +======= =======+.++++++++.++++++++ ++++++++ ++++++++ ++++++++ ++++++++ ++++++++   +++===++ ++====== +======= ++=====+ +++++==+ ++=====+ ++=====+ +++==+++ ++=====+ ++====++ ++++++++ +=++++=+ ++=+++++ +======= =======+.++++++++.++++++++ ++++++++ ++++++++ ++++++++ ++++++++ ++++++++   +++>>>++ ++>>>>>> +>>>>>>> ++>>>>>+ +++++>>+ ++>>>>>+ ++>>>>>+ +++>>+++ ++>>>>>+ ++>>>>++ ++++++++ +>++++>+ ++>+++++ +>>>>>>> >>>>>>>+.++++++++.++++++++ ++++++++ ++++++++ ++++++++ ++++++++ ++++++++  ",
" ++++++++ ++++++++ ++++++++ ++++++++ ++++++++ ++++++++ ++++++++ ++++++++ ++++++++ ++++++++ ++++++++ ++@@@@++ ++++++++ +@@@@@@@ @@@@@@@+.++++++++.++++++++ ++++++++ ++++++++ ++++++++ ++++++++ ++++++++   ++++++++ ++++++++ ++++++++ ++++++++ ++++++++ ++++++++ ++++++++ ++++++++ ++++++++ ++++++++ ++++++++ ++&&&&++ ++++++++ +&&&&&&& &&&&&&&+.++++++++.++++++++ ++++++++ ++++++++ ++++++++ ++++++++ ++++++++   ++++++++ ++++++++ ++++++++ ++++++++ ++++++++ ++++++++ ++++++++ ++++++++ ++++++++ ++++++++ ++++++++ ++====++ ++++++++ +======= =======+.++++++++.++++++++ ++++++++ ++++++++ ++++++++ ++++++++ ++++++++   ++++++++ ++++++++ ++++++++ ++++++++ ++++++++ ++++++++ ++++++++ ++++++++ ++++++++ ++++++++ ++++++++ ++====++ ++++++++ +======= =======+.++++++++.++++++++ ++++++++ ++++++++ ++++++++ ++++++++ ++++++++   ++++++++ ++++++++ ++++++++ ++++++++ ++++++++ ++++++++ ++++++++ ++++++++ ++++++++ ++++++++ ++++++++ ++>>>>++ ++++++++ +>>>>>>> >>>>>>>+.++++++++.++++++++ ++++++++ ++++++++ ++++++++ ++++++++ ++++++++  ",
"                                                                                                                                       ..........                                   ...................                                                                                                                                        ..........                                   ...................                                                                                                                                        ..........                                   ...................                                                                                                                                        ..........                                   ...................                                                                                                                                        ..........                                   ................... ",
" +++@@@++ +@@@@@@+ +++@@@@+ +@@@@@++ ++@@@@@@ +@@@@@@@ +++@@@@@ +@@+++@@ ++@@@@@@ ++++++@@ +@@+++@@ ++@@++++ +@@+++@@ +@@+@@@+ +@@@+@@+ ++====++ ++++@@@@ @@@@@@@@ @@@@@@@@ @@@@++++.++++++++.++++++++.  +++&&&++ +&&&&&&+ +++&&&&+ +&&&&&++ ++&&&&&& +&&&&&&& +++&&&&& +&&+++&& ++&&&&&& ++++++&& +&&+++&& ++&&++++ +&&+++&& +&&+&&&+ +&&&+&&+ ++====++ ++++&&&& &&&&&&&& &&&&&&&& &&&&++++.++++++++.++++++++.  +++===++ +======+ +++====+ +=====++ ++====== +======= +++===== +==+++== ++====== ++++++== +==+++== ++==++++ +==+++== +==+===+ +===+==+ ++@@@@++ ++++==== ======== ======== ====++++.++++++++.++++++++.  +++===++ +======+ +++====+ +=====++ ++====== +======= +++===== +==+++== ++====== ++++++== +==+++== ++==++++ +==+++== +==+===+ +===+==+ ++@@@@++ ++++==== ======== ======== ====++++.++++++++.++++++++.  +++>>>++ +>>>>>>+ +++>>>>+ +>>>>>++ ++>>>>>> +>>>>>>> +++>>>>> +>>+++>> ++>>>>>> ++++++>> +>>+++>> ++>>++++ +>>+++>> +>>+>>>+ +>>>+>>+ ++%%%%++ ++++>>>> >>>>>>>> >>>>>>>> >>>>++++.++++++++.++++++++. ",
" ++@@+@@+ +@@+++@@ ++@@++@@ +@@++@@+ ++@@++++ +@@+++++ ++@@++++ +@@+++@@ ++++@@++ ++++++@@ +@@++@@+ ++@@++++ +@@@+@@@ +@+++@@+ +@@+++@+ +======+ ++@@&&&& &&&&&&&& &&&&&&&& &&&&@@++.++++++++.++++++++.  ++&&+&&+ +&&+++&& ++&&++&& +&&++&&+ ++&&++++ +&&+++++ ++&&++++ +&&+++&& ++++&&++ ++++++&& +&&++&&+ ++&&++++ +&&&+&&& +&+++&&+ +&&+++&+ +======+ ++&&**** ******** ******** ****&&++.++++++++.++++++++.  ++==+==+ +==+++== ++==++== +==++==+ ++==++++ +==+++++ ++==++++ +==+++== ++++==++ ++++++== +==++==+ ++==++++ +===+=== +=+++==+ +==+++=+ +@@@@@@+ ++==>>>> >>>>>>>> >>>>>>>> >>>>==++.++++++++.++++++++.  ++==+==+ +==+++== ++==++== +==++==+ ++==++++ +==+++++ ++==++++ +==+++== ++++==++ ++++++== +==++==+ ++==++++ +===+=== +=+++==+ +==+++=+ +@@@@@@+ ++==---- -------- -------- ----==++.++++++++.++++++++.  ++>>+>>+ +>>+++>> ++>>++>> +>>++>>+ ++>>++++ +>>+++++ ++>>++++ +>>+++>> ++++>>++ ++++++>> +>>++>>+ ++>>++++ +>>>+>>> +>+++>>+ +>>+++>+ +%%%%%%+ ++>>---- -------- -------- ---->>++.++++++++.++++++++. ",
" +@@+++@@ +@@+++@@ +@@+++++ +@@+++@@ ++@@++++ +@@+++++ +@@+++++ +@@+++@@ ++++@@++ ++++++@@ +@@+@@++ ++@@++++ +@@@@@@@ ++++++++ ++++++++ ======== +@&&&&&& &&&&&&&& &&&&&&&& &&&&&&@+.++++++++.++++++++.  +&&+++&& +&&+++&& +&&+++++ +&&+++&& ++&&++++ +&&+++++ +&&+++++ +&&+++&& ++++&&++ ++++++&& +&&+&&++ ++&&++++ +&&&&&&& ++++++++ ++++++++ ======== +&****** ******** ******** ******&+.++++++++.++++++++.  +==+++== +==+++== +==+++++ +==+++== ++==++++ +==+++++ +==+++++ +==+++== ++++==++ ++++++== +==+==++ ++==++++ +======= ++++++++ ++++++++ @@@@@@@@ +=>>>>>> >>>>>>>> >>>>>>>> >>>>>>=+.++++++++.++++++++.  +==+++== +==+++== +==+++++ +==+++== ++==++++ +==+++++ +==+++++ +==+++== ++++==++ ++++++== +==+==++ ++==++++ +======= ++++++++ ++++++++ @@@@@@@@ +=------ -------- -------- ------=+.++++++++.++++++++.  +>>+++>> +>>+++>> +>>+++++ +>>+++>> ++>>++++ +>>+++++ +>>+++++ +>>+++>> ++++>>++ ++++++>> +>>+>>++ ++>>++++ +>>>>>>> ++++++++ ++++++++ %%%%%%%% +>------ -------- -------- ------>+.++++++++.++++++++. ",
" +@@+++@@ +@@@@@@+ +@@+++++ +@@+++@@ ++@@@@@+ +@@@@@@+ +@@++@@@ +@@@@@@@ ++++@@++ ++++++@@ +@@@@+++ ++@@++++ +@@@@@@@ ++++++++ ++++++++ ======== +@&&&@@@ @@@&&&&& &&&&&@@@ @@@&&&@+.++++++++.++++++++.  +&&+++&& +&&&&&&+ +&&+++++ +&&+++&& ++&&&&&+ +&&&&&&+ +&&++&&& +&&&&&&& ++++&&++ ++++++&& +&&&&+++ ++&&++++ +&&&&&&& ++++++++ ++++++++ ======== +&***&&& &&&***** *****&&& &&&***&+.++++++++.++++++++.  +==+++== +======+ +==+++++ +==+++== ++=====+ +======+ +==++=== +======= ++++==++ ++++++== +====+++ ++==++++ +======= ++++++++ ++++++++ @@@@@@@@ +=>>>=== ===>>>>> >>>>>=== ===>>>=+.++++++++.++++++++.  +==+++== +======+ +==+++++ +==+++== ++=====+ +======+ +==++=== +======= ++++==++ ++++++== +====+++ ++==++++ +======= ++++++++ ++++++++ @@@@@@@@ +=---=== ===----- -----=== ===---=+.++++++++.++++++++.  +>>+++>> +>>>>>>+ +>>+++++ +>>+++>> ++>>>>>+ +>>>>>>+ +>>++>>> +>>>>>>> ++++>>++ ++++++>> +>>>>+++ ++>>++++ +>>>>>>> ++++++++ ++++++++ %%%%%%%% +>--->>> >>>----- ----->>> >>>--->+.++++++++.++++++++. ",
" +@@@@@@@ +@@+++@@ +@@+++++ +@@+++@@ ++@@++++ +@@+++++ +@@+++@@ +@@+++@@ ++++@@++ ++++++@@ +@@@@@++ ++@@++++ +@@+@+@@ ++++++++ ++++++++ ======== @&&&@+++ +++@&&&& &&&&@+++ +++@&&&@.++++@@@@.@@@@++++.  +&&&&&&& +&&+++&& +&&+++++ +&&+++&& ++&&++++ +&&+++++ +&&+++&& +&&+++&& ++++&&++ ++++++&& +&&&&&++ ++&&++++ +&&+&+&& ++++++++ ++++++++ ======== &***&+++ +++&**** ****&+++ +++&***&.++++&&&&.&&&&++++.  +======= +==+++== +==+++++ +==+++== ++==++++ +==+++++ +==+++== +==+++== ++++==++ ++++++== +=====++ ++==++++ +==+=+== ++++++++ ++++++++ @@@@@@@@ =>>>=+++ +++=>>>> >>>>=+++ +++=>>>=.++++====.====++++.  +======= +==+++== +==+++++ +==+++== ++==++++ +==+++++ +==+++== +==+++== ++++==++ ++++++== +=====++ ++==++++ +==+=+== ++++++++ ++++++++ @@@@@@@@ =---=+++ +++=---- ----=+++ +++=---=.++++====.====++++.  +>>>>>>> +>>+++>> +>>+++++ +>>+++>> ++>>++++ +>>+++++ +>>+++>> +>>+++>> ++++>>++ ++++++>> +>>>>>++ ++>>++++ +>>+>+>> ++++++++ ++++++++ %%%%%%%% >--->+++ +++>---- ---->+++ +++>--->.++++>>>>.>>>>++++. ",
" +@@+++@@ +@@+++@@ ++@@++@@ +@@++@@+ ++@@++++ +@@+++++ ++@@++@@ +@@+++@@ ++++@@++ +@@+++@@ +@@+@@@+ ++@@++++ +@@+++@@ ++++++++ ++++++++ ======== @&&@++++ ++++@&&& &&&@++++ ++++@&&@.++@@&&&&.&&&&@@++.  +&&+++&& +&&+++&& ++&&++&& +&&++&&+ ++&&++++ +&&+++++ ++&&++&& +&&+++&& ++++&&++ +&&+++&& +&&+&&&+ ++&&++++ +&&+++&& ++++++++ ++++++++ ======== &**&++++ ++++&*** ***&++++ ++++&**&.++&&****.****&&++.  +==+++== +==+++== ++==++== +==++==+ ++==++++ +==+++++ ++==++== +==+++== ++++==++ +==+++== +==+===+ ++==++++ +==+++== ++++++++ ++++++++ @@@@@@@@ =>>=++++ ++++=>>> >>>=++++ ++++=>>=.++==>>>>.>>>>==++.  +==+++== +==+++== ++==++== +==++==+ ++==++++ +==+++++ ++==++== +==+++== ++++==++ +==+++== +==+===+ ++==++++ +==+++== ++++++++ ++++++++ @@@@@@@@ =--=++++ ++++=--- ---=++++ ++++=--=.++==----.----==++.  +>>+++>> +>>+++>> ++>>++>> +>>++>>+ ++>>++++ +>>+++++ ++>>++>> +>>+++>> ++++>>++ +>>+++>> +>>+>>>+ ++>>++++ +>>+++>> ++++++++ ++++++++ %%%%%%%% >-->++++ ++++>--- --->++++ ++++>-->.++>>----.---->>++. ",
" +@@+++@@ +@@@@@@+ +++@@@@+ +@@@@@++ ++@@@@@@ +@@+++++ +++@@@@@ +@@+++@@ ++@@@@@@ ++@@@@@+ +@@++@@@ ++@@@@@@ +@@+++@@ ++++++++ ++++++++ +======+ @&&@++++ ++++@&&& &&&@++++ ++++@&&@.+@&&&&&&.&&&&&&@+.  +&&+++&& +&&&&&&+ +++&&&&+ +&&&&&++ ++&&&&&& +&&+++++ +++&&&&& +&&+++&& ++&&&&&& ++&&&&&+ +&&++&&& ++&&&&&& +&&+++&& ++++++++ ++++++++ +======+ &**&++++ ++++&*** ***&++++ ++++&**&.+&******.******&+.  +==+++== +======+ +++====+ +=====++ ++====== +==+++++ +++===== +==+++== ++====== ++=====+ +==++=== ++====== +==+++== ++++++++ ++++++++ +@@@@@@+ =>>=++++ ++++=>>> >>>=++++ ++++=>>=.+=>>>>>>.>>>>>>=+.  +==+++== +======+ +++====+ +=====++ ++====== +==+++++ +++===== +==+++== ++====== ++=====+ +==++=== ++====== +==+++== ++++++++ ++++++++ +@@@@@@+ =--=++++ ++++=--- ---=++++ ++++=--=.+=------.------=+.  +>>+++>> +>>>>>>+ +++>>>>+ +>>>>>++ ++>>>>>> +>>+++++ +++>>>>> +>>+++>> ++>>>>>> ++>>>>>+ +>>++>>> ++>>>>>> +>>+++>> ++++++++ ++++++++ +%%%%%%+ >-->++++ ++++>--- --->++++ ++++>-->.+>------.------>+. ",
" ++++++++ ++++++++ ++++++++ ++++++++ ++++++++ ++++++++ ++++++++ ++++++++ ++++++++ ++++++++ ++++++++ ++++++++ ++++++++ ++++++++ ++++++++ ++====++ @&&@++++ ++++@&&& &&&@++++ ++++@&&@.+@&&&&&&.&&&&&&@+.  ++++++++ ++++++++ ++++++++ ++++++++ ++++++++ ++++++++ ++++++++ ++++++++ ++++++++ ++++++++ ++++++++ ++++++++ ++++++++ ++++++++ ++++++++ ++====++ &**&++++ ++++&*** ***&++++ ++++&**&.+&******.******&+.  ++++++++ ++++++++ ++++++++ ++++++++ ++++++++ ++++++++ ++++++++ ++++++++ ++++++++ ++++++++ ++++++++ ++++++++ ++++++++ ++++++++ ++++++++ ++@@@@++ =>>=++++ ++++=>>> >>>=++++ ++++=>>=.+=>>>>>>.>>>>>>=+.  ++++++++ ++++++++ ++++++++ ++++++++ ++++++++ ++++++++ ++++++++ ++++++++ ++++++++ ++++++++ ++++++++ ++++++++ ++++++++ ++++++++ ++++++++ ++@@@@++ =--=++++ ++++=--- ---=++++ ++++=--=.+=------.------=+.  ++++++++ ++++++++ ++++++++ ++++++++ ++++++++ ++++++++ ++++++++ ++++++++ ++++++++ ++++++++ ++++++++ ++++++++ ++++++++ ++++++++ ++++++++ ++%%%%++ >-->++++ ++++>--- --->++++ ++++>-->.+>------.------>+. ",
"                                                                                                                                                                                    ...................                                                                                                                                                                                     ...................                                                                                                                                                                                     ...................                                                                                                                                                                                     ...................                                                                                                                                                                                     ................... ",
" +@@+++@@ ++@@@@@+ +@@@@@@+ ++@@@@@+ +@@@@@@+ ++@@@@++ ++@@@@@@ +@@+++@@ +@@+++@@ +@@+++@@ +@@+++@@ ++@@++@@ +@@@@@@@ ++++++++ ++++++++ ++++++++ @&&@++++ ++++@&&& &&&@++++ ++++@&&@.+@&&&&&&.&&&&&&@+.  +&&+++&& ++&&&&&+ +&&&&&&+ ++&&&&&+ +&&&&&&+ ++&&&&++ ++&&&&&& +&&+++&& +&&+++&& +&&+++&& +&&+++&& ++&&++&& +&&&&&&& ++++++++ ++++++++ ++++++++ &**&++++ ++++&*** ***&++++ ++++&**&.+&******.******&+.  +==+++== ++=====+ +======+ ++=====+ +======+ ++====++ ++====== +==+++== +==+++== +==+++== +==+++== ++==++== +======= ++++++++ ++++++++ ++++++++ =>>=++++ ++++=>>> >>>=++++ ++++=>>=.+=>>>>>>.>>>>>>=+.  +==+++== ++=====+ +======+ ++=====+ +======+ ++====++ ++====== +==+++== +==+++== +==+++== +==+++== ++==++== +======= ++++++++ ++++++++ ++++++++ =--=++++ ++++=--- ---=++++ ++++=--=.+=------.------=+.  +>>+++>> ++>>>>>+ +>>>>>>+ ++>>>>>+ +>>>>>>+ ++>>>>++ ++>>>>>> +>>+++>> +>>+++>> +>>+++>> +>>+++>> ++>>++>> +>>>>>>> ++++++++ ++++++++ ++++++++ >-->++++ ++++>--- --->++++ ++++>-->.+>------.------>+. ",
" +@@@++@@ +@@+++@@ +@@+++@@ +@@+++@@ +@@+++@@ +@@++@@+ ++++@@++ +@@+++@@ +@@+++@@ +@@+++@@ +@@@+@@@ ++@@++@@ +++++@@@ ++++++++ ++++++++ ++++++++ @&&@++++ ++++@&&& &&&@++++ ++++@&&@.+@&&&&&&.&&&&&&@+.  +&&&++&& +&&+++&& +&&+++&& +&&+++&& +&&+++&& +&&++&&+ ++++&&++ +&&+++&& +&&+++&& +&&+++&& +&&&+&&& ++&&++&& +++++&&& ++++++++ ++++++++ ++++++++ &**&++++ ++++&*** ***&++++ ++++&**&.+&******.******&+.  +===++== +==+++== +==+++== +==+++== +==+++== +==++==+ ++++==++ +==+++== +==+++== +==+++== +===+=== ++==++== +++++=== ++++++++ ++++++++ ++++++++ =>>=++++ ++++=>>> >>>=++++ ++++=>>=.+=>>>>>>.>>>>>>=+.  +===++== +==+++== +==+++== +==+++== +==+++== +==++==+ ++++==++ +==+++== +==+++== +==+++== +===+=== ++==++== +++++=== ++++++++ ++++++++ ++++++++ =--=++++ ++++=--- ---=++++ ++++=--=.+=------.------=+.  +>>>++>> +>>+++>> +>>+++>> +>>+++>> +>>+++>> +>>++>>+ ++++>>++ +>>+++>> +>>+++>> +>>+++>> +>>>+>>> ++>>++>> +++++>>> ++++++++ ++++++++ ++++++++ >-->++++ ++++>--- --->++++ ++++>-->.+>------.------>+. ",
" +@@@@+@@ +@@+++@@ +@@+++@@ +@@+++@@ +@@+++@@ +@@+++++ ++++@@++ +@@+++@@ +@@+++@@ +@@+@+@@ ++@@@@@+ ++@@++@@ ++++@@@+ ++++++++ ++++++++ ++++++++ @&&@++++ ++++@&&& &&&@++++ ++++@&&@.++@@&&&&.&&&&@@++.  +&&&&+&& +&&+++&& +&&+++&& +&&+++&& +&&+++&& +&&+++++ ++++&&++ +&&+++&& +&&+++&& +&&+&+&& ++&&&&&+ ++&&++&& ++++&&&+ ++++++++ ++++++++ ++++++++ &**&++++ ++++&*** ***&++++ ++++&**&.++&&****.****&&++.  +====+== +==+++== +==+++== +==+++== +==+++== +==+++++ ++++==++ +==+++== +==+++== +==+=+== ++=====+ ++==++== ++++===+ ++++++++ ++++++++ ++++++++ =>>=++++ ++++=>>> >>>=++++ ++++=>>=.++==>>>>.>>>>==++.  +====+== +==+++== +==+++== +==+++== +==+++== +==+++++ ++++==++ +==+++== +==+++== +==+=+== ++=====+ ++==++== ++++===+ ++++++++ ++++++++ ++++++++ =--=++++ ++++=--- ---=++++ ++++=--=.++==----.----==++.  +>>>>+>> +>>+++>> +>>+++>> +>>+++>> +>>+++>> +>>+++++ ++++>>++ +>>+++>> +>>+++>> +>>+>+>> ++>>>>>+ ++>>++>> ++++>>>+ ++++++++ ++++++++ ++++++++ >-->++++ ++++>--- --->++++ ++++>-->.++>>----.---->>++. ",
" +@@@@@@@ +@@+++@@ +@@+++@@ +@@+++@@ +@@++@@@ ++@@@@@+ ++++@@++ +@@+++@@ +@@@+@@@ +@@@@@@@ +++@@@++ +++@@@@+ +++@@@++ ++++++++ ++++++++ ++++++++ @&&&@+++ +++@&&&& &&&&@+++ +++@&&&@.++++@@@@.@@@@++++.  +&&&&&&& +&&+++&& +&&+++&& +&&+++&& +&&++&&& ++&&&&&+ ++++&&++ +&&+++&& +&&&+&&& +&&&&&&& +++&&&++ +++&&&&+ +++&&&++ ++++++++ ++++++++ ++++++++ &***&+++ +++&**** ****&+++ +++&***&.++++&&&&.&&&&++++.  +======= +==+++== +==+++== +==+++== +==++=== ++=====+ ++++==++ +==+++== +===+=== +======= +++===++ +++====+ +++===++ ++++++++ ++++++++ ++++++++ =>>>=+++ +++=>>>> >>>>=+++ +++=>>>=.++++====.====++++.  +======= +==+++== +==+++== +==+++== +==++=== ++=====+ ++++==++ +==+++== +===+=== +======= +++===++ +++====+ +++===++ ++++++++ ++++++++ ++++++++ =---=+++ +++=---- ----=+++ +++=---=.++++====.====++++.  +>>>>>>> +>>+++>> +>>+++>> +>>+++>> +>>++>>> ++>>>>>+ ++++>>++ +>>+++>> +>>>+>>> +>>>>>>> +++>>>++ +++>>>>+ +++>>>++ ++++++++ ++++++++ ++++++++ >--->+++ +++>---- ---->+++ +++>--->.++++>>>>.>>>>++++. ",
" +@@+@@@@ +@@+++@@ +@@@@@@+ +@@+@@@@ +@@@@@++ ++++++@@ ++++@@++ +@@+++@@ ++@@@@@+ +@@@@@@@ ++@@@@@+ ++++@@++ ++@@@+++ @@@@@@@@ ++++++++ @@@@@@@@ @&&&&@@@ @@@&&&&& &&&&&@@@ @@@&&&&@.++++++++.++++++++.  +&&+&&&& +&&+++&& +&&&&&&+ +&&+&&&& +&&&&&++ ++++++&& ++++&&++ +&&+++&& ++&&&&&+ +&&&&&&& ++&&&&&+ ++++&&++ ++&&&+++ &&&&&&&& ++++++++ &&&&&&&& &****&&& &&&***** *****&&& &&&****&.++++++++.++++++++.  +==+==== +==+++== +======+ +==+==== +=====++ ++++++== ++++==++ +==+++== ++=====+ +======= ++=====+ ++++==++ ++===+++ ======== ++++++++ ======== =>>>>=== ===>>>>> >>>>>=== ===>>>>=.++++++++.++++++++.  +==+==== +==+++== +======+ +==+==== +=====++ ++++++== ++++==++ +==+++== ++=====+ +======= ++=====+ ++++==++ ++===+++ ======== ++++++++ ======== =----=== ===----- -----=== ===----=.++++++++.++++++++.  +>>+>>>> +>>+++>> +>>>>>>+ +>>+>>>> +>>>>>++ ++++++>> ++++>>++ +>>+++>> ++>>>>>+ +>>>>>>> ++>>>>>+ ++++>>++ ++>>>+++ >>>>>>>> ++++++++ >>>>>>>> >---->>> >>>----- ----->>> >>>---->.++++++++.++++++++. ",
" +@@++@@@ +@@+++@@ +@@+++++ +@@++@@+ +@@+@@@+ +@@+++@@ ++++@@++ +@@+++@@ +++@@@++ +@@@+@@@ +@@@+@@@ ++++@@++ +@@@++++ &&&&&&&@ &&&&&&&& @&&&&&&& @&&&&&&& &&&&&&&& &&&&&&&& &&&&&&&@.++++++++.++++++++.  +&&++&&& +&&+++&& +&&+++++ +&&++&&+ +&&+&&&+ +&&+++&& ++++&&++ +&&+++&& +++&&&++ +&&&+&&& +&&&+&&& ++++&&++ +&&&++++ *******& ******** &******* &******* ******** ******** *******&.++++++++.++++++++.  +==++=== +==+++== +==+++++ +==++==+ +==+===+ +==+++== ++++==++ +==+++== +++===++ +===+=== +===+=== ++++==++ +===++++ >>>>>>>= >>>>>>>> =>>>>>>> =>>>>>>> >>>>>>>> >>>>>>>> >>>>>>>=.++++++++.++++++++.  +==++=== +==+++== +==+++++ +==++==+ +==+===+ +==+++== ++++==++ +==+++== +++===++ +===+=== +===+=== ++++==++ +===++++ -------= -------- =------- =------- -------- -------- -------=.++++++++.++++++++.  +>>++>>> +>>+++>> +>>+++++ +>>++>>+ +>>+>>>+ +>>+++>> ++++>>++ +>>+++>> +++>>>++ +>>>+>>> +>>>+>>> ++++>>++ +>>>++++ -------> -------- >------- >------- -------- -------- ------->.++++++++.++++++++. ",
" +@@+++@@ ++@@@@@+ +@@+++++ ++@@@@+@ +@@++@@@ ++@@@@@+ ++++@@++ ++@@@@@+ ++++@+++ +@@+++@@ +@@+++@@ ++++@@++ +@@@@@@@ &&&&&&&@ &&&&&&&& @&&&&&&& @&&&&&&& &&&&&&&& &&&&&&&& &&&&&&&@.++++++++.++++++++.  +&&+++&& ++&&&&&+ +&&+++++ ++&&&&+& +&&++&&& ++&&&&&+ ++++&&++ ++&&&&&+ ++++&+++ +&&+++&& +&&+++&& ++++&&++ +&&&&&&& *******& ******** &******* &******* ******** ******** *******&.++++++++.++++++++.  +==+++== ++=====+ +==+++++ ++====+= +==++=== ++=====+ ++++==++ ++=====+ ++++=+++ +==+++== +==+++== ++++==++ +======= >>>>>>>= >>>>>>>> =>>>>>>> =>>>>>>> >>>>>>>> >>>>>>>> >>>>>>>=.++++++++.++++++++.  +==+++== ++=====+ +==+++++ ++====+= +==++=== ++=====+ ++++==++ ++=====+ ++++=+++ +==+++== +==+++== ++++==++ +======= -------= -------- =------- =------- -------- -------- -------=.++++++++.++++++++.  +>>+++>> ++>>>>>+ +>>+++++ ++>>>>+> +>>++>>> ++>>>>>+ ++++>>++ ++>>>>>+ ++++>+++ +>>+++>> +>>+++>> ++++>>++ +>>>>>>> -------> -------- >------- >------- -------- -------- ------->.++++++++.++++++++. ",
" ++++++++ ++++++++ ++++++++ ++++++++ ++++++++ ++++++++ ++++++++ ++++++++ ++++++++ ++++++++ ++++++++ ++++++++ ++++++++ @@@@@@@@ ++++++++ @@@@@@@@ @&&&&&&& &&&&&&&& &&&&&&&& &&&&&&&@.++++++++.++++++++.  ++++++++ ++++++++ ++++++++ ++++++++ ++++++++ ++++++++ ++++++++ ++++++++ ++++++++ ++++++++ ++++++++ ++++++++ ++++++++ &&&&&&&& ++++++++ &&&&&&&& &******* ******** ******** *******&.++++++++.++++++++.  ++++++++ ++++++++ ++++++++ ++++++++ ++++++++ ++++++++ ++++++++ ++++++++ ++++++++ ++++++++ ++++++++ ++++++++ ++++++++ ======== ++++++++ ======== =>>>>>>> >>>>>>>> >>>>>>>> >>>>>>>=.++++++++.++++++++.  ++++++++ ++++++++ ++++++++ ++++++++ ++++++++ ++++++++ ++++++++ ++++++++ ++++++++ ++++++++ ++++++++ ++++++++ ++++++++ ======== ++++++++ ======== =------- -------- -------- -------=.++++++++.++++++++.  ++++++++ ++++++++ ++++++++ ++++++++ ++++++++ ++++++++ ++++++++ ++++++++ ++++++++ ++++++++ ++++++++ ++++++++ ++++++++ >>>>>>>> ++++++++ >>>>>>>> >------- -------- -------- ------->.++++++++.++++++++. ",
"                                                                                                                                                                                    ...................                                                                                                                                                                                     ...................                                                                                                                                                                                     ...................                                                                                                                                                                                     ...................                                                                                                                                                                                     ................... ",
" ++++++++ ++++++++ ++++++++ ++++++++ ++++++++ ++++++++ ++++++++ ++++++++ ++++++++ ++++++++ ++++++++ ++++++++ ++++++++ ++++++++ ++++++++ ++++++++ @&&&&&&& &&&&&&&& &&&&&&&& &&&&&&&@.@@@@@@@@.@@@@@@@@.  ++++++++ ++++++++ ++++++++ ++++++++ ++++++++ ++++++++ ++++++++ ++++++++ ++++++++ ++++++++ ++++++++ ++++++++ ++++++++ ++++++++ ++++++++ ++++++++ &******* ******** ******** *******&.&&&&&&&&.&&&&&&&&.  ++++++++ ++++++++ ++++++++ ++++++++ ++++++++ ++++++++ ++++++++ ++++++++ ++++++++ ++++++++ ++++++++ ++++++++ ++++++++ ++++++++ ++++++++ ++++++++ =>>>>>>> >>>>>>>> >>>>>>>> >>>>>>>=.========.========.  ++++++++ ++++++++ ++++++++ ++++++++ ++++++++ ++++++++ ++++++++ ++++++++ ++++++++ ++++++++ ++++++++ ++++++++ ++++++++ ++++++++ ++++++++ ++++++++ =------- -------- -------- -------=.========.========.  ++++++++ ++++++++ ++++++++ ++++++++ ++++++++ ++++++++ ++++++++ ++++++++ ++++++++ ++++++++ ++++++++ ++++++++ ++++++++ ++++++++ ++++++++ ++++++++ >------- -------- -------- ------->.>>>>>>>>.>>>>>>>>. ",
" ++++++++ ++++++++ ++++++++ ++++++++ ++++++++ ++++++++ ++++++++ ++++++++ +++++=++ ++++++++ ++++++++ ++++++++ ++++++++ ++++++++ ++++++++ ++++++++ @&&&&&&& &&&&&&&& &&&&&&&& &&&&&&&@.@+++++++.+++++++@.  ++++++++ ++++++++ ++++++++ ++++++++ ++++++++ ++++++++ ++++++++ ++++++++ +++++=++ ++++++++ ++++++++ ++++++++ ++++++++ ++++++++ ++++++++ ++++++++ &******* ******** ******** *******&.&+++++++.+++++++&.  ++++++++ ++++++++ ++++++++ ++++++++ ++++++++ ++++++++ ++++++++ ++++++++ +++++@++ ++++++++ ++++++++ ++++++++ ++++++++ ++++++++ ++++++++ ++++++++ =>>>>>>> >>>>>>>> >>>>>>>> >>>>>>>=.=+++++++.+++++++=.  ++++++++ ++++++++ ++++++++ ++++++++ ++++++++ ++++++++ ++++++++ ++++++++ +++++@++ ++++++++ ++++++++ ++++++++ ++++++++ ++++++++ ++++++++ ++++++++ =------- -------- -------- -------=.=+++++++.+++++++=.  ++++++++ ++++++++ ++++++++ ++++++++ ++++++++ ++++++++ ++++++++ ++++++++ +++++%++ ++++++++ ++++++++ ++++++++ ++++++++ ++++++++ ++++++++ ++++++++ >------- -------- -------- ------->.>+++++++.+++++++>. ",
" ++++++++ ++++&&++ +++++++@ ++++++++ ++++++++ +&&+++++ ++++++++ &+++++++ ++++++== ===+++++ ++++++++ ++++++++ +++++++= =+++++++ ++++++&& &+++++++ @&&&&&&& &&&&&&&& &&&&&&&& &&&&&&&@.@+++++++.+++++++@.  ++++++++ ++++**++ +++++++& ++++++++ ++++++++ +**+++++ ++++++++ *+++++++ ++++++== ===+++++ ++++++++ ++++++++ +++++++= =+++++++ ++++++** *+++++++ &******* ******** ******** *******&.&+++++++.+++++++&.  ++++++++ ++++>>++ +++++++= ++++++++ ++++++++ +>>+++++ ++++++++ >+++++++ ++++++@@ @@@+++++ ++++++++ ++++++++ +++++++@ @+++++++ ++++++>> >+++++++ =>>>>>>> >>>>>>>> >>>>>>>> >>>>>>>=.=+++++++.+++++++=.  ++++++++ ++++--++ +++++++= ++++++++ ++++++++ +--+++++ ++++++++ -+++++++ ++++++@@ @@@+++++ ++++++++ ++++++++ +++++++@ @+++++++ ++++++-- -+++++++ =------- -------- -------- -------=.=+++++++.+++++++=.  ++++++++ ++++--++ +++++++> ++++++++ ++++++++ +--+++++ ++++++++ -+++++++ ++++++%% %%%+++++ ++++++++ ++++++++ +++++++% %+++++++ ++++++-- -+++++++ >------- -------- -------- ------->.>+++++++.+++++++>. ",
" ++++++++ ++&&&&++ ++++&&&@ &&&+++++ +++++++@ &&&&&+++ +++===+& +===++++ ++++++++ =+++++++ +++++++& ++++++++ +++++==+ +==+++++ ++++&&++ +&&+++++ @&&&&@@@ @@@&&&&& &&&&&@@@ @@@&&&&@.@+++++++.+++++++@.  ++++++++ ++****++ ++++***& ***+++++ +++++++& *****+++ +++===+* +===++++ ++++++++ =+++++++ +++++++* ++++++++ +++++==+ +==+++++ ++++**++ +**+++++ &****&&& &&&***** *****&&& &&&****&.&+++++++.+++++++&.  ++++++++ ++>>>>++ ++++>>>= >>>+++++ +++++++= >>>>>+++ +++@@@+> +@@@++++ ++++++++ @+++++++ +++++++> ++++++++ +++++@@+ +@@+++++ ++++>>++ +>>+++++ =>>>>=== ===>>>>> >>>>>=== ===>>>>=.=+++++++.+++++++=.  ++++++++ ++----++ ++++---= ---+++++ +++++++= -----+++ +++@@@+- +@@@++++ ++++++++ @+++++++ +++++++- ++++++++ +++++@@+ +@@+++++ ++++--++ +--+++++ =----=== ===----- -----=== ===----=.=+++++++.+++++++=.  ++++++++ ++----++ ++++---> ---+++++ +++++++> -----+++ +++%%%+- +%%%++++ ++++++++ %+++++++ +++++++- ++++++++ +++++%%+ +%%+++++ ++++--++ +--+++++ >---->>> >>>----- ----->>> >>>---->.>+++++++.+++++++>. ",
" ++++++++ &&+&++++ +++==&&& &&==++++ +++++++@ +&&&++++ ++=====& =====+++ +++++++& @&++++++ ++=+++&& &+++=+++ ++++==== ====++++ ++++&&&& &&&+++++ @&&&@+++ +++@&&&& &&&&@+++ +++@&&&@.@+++++++.+++++++@.  ++++++++ **+*++++ +++==*** **==++++ +++++++& +***++++ ++=====* =====+++ +++++++* &*++++++ ++=+++** *+++=+++ ++++==== ====++++ ++++**** ***+++++ &***&+++ +++&**** ****&+++ +++&***&.&+++++++.+++++++&.  ++++++++ >>+>++++ +++@@>>> >>@@++++ +++++++= +>>>++++ ++@@@@@> @@@@@+++ +++++++> =>++++++ ++@+++>> >+++@+++ ++++@@@@ @@@@++++ ++++>>>> >>>+++++ =>>>=+++ +++=>>>> >>>>=+++ +++=>>>=.=+++++++.+++++++=.  ++++++++ --+-++++ +++@@--- --@@++++ +++++++= +---++++ ++@@@@@- @@@@@+++ +++++++- =-++++++ ++@+++-- -+++@+++ ++++@@@@ @@@@++++ ++++---- ---+++++ =---=+++ +++=---- ----=+++ +++=---=.=+++++++.+++++++=.  ++++++++ --+-++++ +++%%--- --%%++++ +++++++> +---++++ ++%%%%%- %%%%%+++ +++++++- >-++++++ ++%+++-- -+++%+++ ++++%%%% %%%%++++ ++++---- ---+++++ >--->+++ +++>---- ---->+++ +++>--->.>+++++++.+++++++>. ",
" +++++++& +++&++++ ++=====& ===@=+++ ++++==@@ @===++++ ++====== ======++ +++++&&& =&&&++++ ++=++&&& &&++=+++ ++++==+= ====++++ ++++&&&& &&&+++++ @&&@++++ ++++@&&& &&&@++++ ++++@&&@.@+++++++.+++++++@.  +++++++* +++*++++ ++=====* ===&=+++ ++++==&& &===++++ ++====== ======++ +++++*** =***++++ ++=++*** **++=+++ ++++==+= ====++++ ++++**** ***+++++ &**&++++ ++++&*** ***&++++ ++++&**&.&+++++++.+++++++&.  +++++++> +++>++++ ++@@@@@> @@@=@+++ ++++@@== =@@@++++ ++@@@@@@ @@@@@@++ +++++>>> @>>>++++ ++@++>>> >>++@+++ ++++@@+@ @@@@++++ ++++>>>> >>>+++++ =>>=++++ ++++=>>> >>>=++++ ++++=>>=.=+++++++.+++++++=.  +++++++- +++-++++ ++@@@@@- @@@=@+++ ++++@@== =@@@++++ ++@@@@@@ @@@@@@++ +++++--- @---++++ ++@++--- --++@+++ ++++@@+@ @@@@++++ ++++---- ---+++++ =--=++++ ++++=--- ---=++++ ++++=--=.=+++++++.+++++++=.  +++++++- +++-++++ ++%%%%%- %%%>%+++ ++++%%>> >%%%++++ ++%%%%%% %%%%%%++ +++++--- %---++++ ++%++--- --++%+++ ++++%%+% %%%%++++ ++++---- ---+++++ >-->++++ ++++>--- --->++++ ++++>-->.>+++++++.+++++++>. ",
" +++===&+ ++&+++++ ++=@==== =@===+++ +++====@ =====+++ ++====== ======++ ++++&=@= &&&=&+++ ++=@&&@& @&&@=+++ ++++=+== ====++++ ++++&&&& &&&+++++ @&&@++++ ++++@&&& &&&@++++ ++++@&&@.@+++++++.+++++++@.  +++===*+ ++*+++++ ++=&==== =&===+++ +++====& =====+++ ++====== ======++ ++++*=&= ***=*+++ ++=&**&* &**&=+++ ++++=+== ====++++ ++++**** ***+++++ &**&++++ ++++&*** ***&++++ ++++&**&.&+++++++.+++++++&.  +++@@@>+ ++>+++++ ++@=@@@@ @=@@@+++ +++@@@@= @@@@@+++ ++@@@@@@ @@@@@@++ ++++>@=@ >>>@>+++ ++@=>>=> =>>=@+++ ++++@+@@ @@@@++++ ++++>>>> >>>+++++ =>>=++++ ++++=>>> >>>=++++ ++++=>>=.=+++++++.+++++++=.  +++@@@-+ ++-+++++ ++@=@@@@ @=@@@+++ +++@@@@= @@@@@+++ ++@@@@@@ @@@@@@++ ++++-@=@ ---@-+++ ++@=--=- =--=@+++ ++++@+@@ @@@@++++ ++++---- ---+++++ =--=++++ ++++=--- ---=++++ ++++=--=.=+++++++.+++++++=.  +++%%%-+ ++-+++++ ++%>%%%% %>%%%+++ +++%%%%> %%%%%+++ ++%%%%%% %%%%%%++ ++++-%>% ---%-+++ ++%>-->- >-->%+++ ++++%+%% %%%%++++ ++++---- ---+++++ >-->++++ ++++>--- --->++++ ++++>-->.>+++++++.+++++++>. ",
" ++===&== +&++++++ ++===@=@ =====+++ ++====== ======++ ++====== ======++ ++++&&=& &@=&&+++ ++=@@@@& @@@@=+++ +++==+== =====+++ ++++++@+ @+++++++ @&&@++++ ++++@&&& &&&@++++ ++++@&&@.@+++++++.+++++++@.  ++===*== +*++++++ ++===&=& =====+++ ++====== ======++ ++====== ======++ ++++**=* *&=**+++ ++=&&&&* &&&&=+++ +++==+== =====+++ ++++++&+ &+++++++ &**&++++ ++++&*** ***&++++ ++++&**&.&+++++++.+++++++&.  ++@@@>@@ +>++++++ ++@@@=@= @@@@@+++ ++@@@@@@ @@@@@@++ ++@@@@@@ @@@@@@++ ++++>>@> >=@>>+++ ++@====> ====@+++ +++@@+@@ @@@@@+++ ++++++=+ =+++++++ =>>=++++ ++++=>>> >>>=++++ ++++=>>=.=+++++++.+++++++=.  ++@@@-@@ +-++++++ ++@@@=@= @@@@@+++ ++@@@@@@ @@@@@@++ ++@@@@@@ @@@@@@++ ++++--@- -=@--+++ ++@====- ====@+++ +++@@+@@ @@@@@+++ ++++++=+ =+++++++ =--=++++ ++++=--- ---=++++ ++++=--=.=+++++++.+++++++=.  ++%%%-%% +-++++++ ++%%%>%> %%%%%+++ ++%%%%%% %%%%%%++ ++%%%%%% %%%%%%++ ++++--%- ->%--+++ ++%>>>>- >>>>%+++ +++%%+%% %%%%%+++ ++++++>+ >+++++++ >-->++++ ++++>--- --->++++ ++++>-->.>+++++++.+++++++>. ",
"                                                                                                                                                                                    ...................                                                                                                                                                                                     ...................                                                                                                                                                                                     ...................                                                                                                                                                                                     ...................                                                                                                                                                                                     ................... ",
" ++=====+ =&==++++ ++====== ==@==+++ ++====== ======++ ++====== ===@==++ +++&@=&& &=&=&&++ ++==@@@@ @@@==+++ +++==+== =====+++ ++++++@+ @@++++++ @&&@++++                   ++++@&&@.@+++++++.+++++++@.  ++=====+ =*==++++ ++====== ==&==+++ ++====== ======++ ++====== ===&==++ +++*&=** *=*=**++ ++==&&&& &&&==+++ +++==+== =====+++ ++++++&+ &&++++++ &**&++++                   ++++&**&.&+++++++.+++++++&.  ++@@@@@+ @>@@++++ ++@@@@@@ @@=@@+++ ++@@@@@@ @@@@@@++ ++@@@@@@ @@@=@@++ +++>=@>> >@>@>>++ ++@@==== ===@@+++ +++@@+@@ @@@@@+++ ++++++=+ ==++++++ =>>=++++                   ++++=>>=.=+++++++.+++++++=.  ++@@@@@+ @-@@++++ ++@@@@@@ @@=@@+++ ++@@@@@@ @@@@@@++ ++@@@@@@ @@@=@@++ +++-=@-- -@-@--++ ++@@==== ===@@+++ +++@@+@@ @@@@@+++ ++++++=+ ==++++++ =--=++++                   ++++=--=.=+++++++.+++++++=.  ++%%%%%+ %-%%++++ ++%%%%%% %%>%%+++ ++%%%%%% %%%%%%++ ++%%%%%% %%%>%%++ +++->%-- -%-%--++ ++%%>>>> >>>%%+++ +++%%+%% %%%%%+++ ++++++>+ >>++++++ >-->++++                   ++++>-->.>+++++++.+++++++>. ",
" ++=@==+= =&===+++ +++=@==@ ====++++ ++====== ======++ ++====== ===@==++ +++&=&&@ =&&@=&++ +++==@+@ +@==++++ +++===== =====+++ ++++++@+ @+++++++ @&&@++++                   ++++@&&@.@+++++++.+++++++@.  ++=&==+= =*===+++ +++=&==& ====++++ ++====== ======++ ++====== ===&==++ +++*=**& =**&=*++ +++==&+& +&==++++ +++===== =====+++ ++++++&+ &+++++++ &**&++++                   ++++&**&.&+++++++.+++++++&.  ++@=@@+@ @>@@@+++ +++@=@@= @@@@++++ ++@@@@@@ @@@@@@++ ++@@@@@@ @@@=@@++ +++>@>>= @>>=@>++ +++@@=+= +=@@++++ +++@@@@@ @@@@@+++ ++++++=+ =+++++++ =>>=++++                   ++++=>>=.=+++++++.+++++++=.  ++@=@@+@ @-@@@+++ +++@=@@= @@@@++++ ++@@@@@@ @@@@@@++ ++@@@@@@ @@@=@@++ +++-@--= @--=@-++ +++@@=+= +=@@++++ +++@@@@@ @@@@@+++ ++++++=+ =+++++++ =--=++++                   ++++=--=.=+++++++.+++++++=.  ++%>%%+% %-%%%+++ +++%>%%> %%%%++++ ++%%%%%% %%%%%%++ ++%%%%%% %%%>%%++ +++-%--> %-->%-++ +++%%>+> +>%%++++ +++%%%%% %%%%%+++ ++++++>+ >+++++++ >-->++++                   ++++>-->.>+++++++.+++++++>. ",
" ++==@=+= =====+++ +++===== ====++++ ++====== ======++ +++===== ==@==+++ +++&@=&& &=&&&&++ ++++==+@ +==+++++ ++==+=== ======++ ++++++@+ ++++++++ @&&@++++                   ++++@&&@.@+++++++.+++++++@.  ++==&=+= =====+++ +++===== ====++++ ++====== ======++ +++===== ==&==+++ +++*&=** *=****++ ++++==+& +==+++++ ++==+=== ======++ ++++++&+ ++++++++ &**&++++                   ++++&**&.&+++++++.+++++++&.  ++@@=@+@ @@@@@+++ +++@@@@@ @@@@++++ ++@@@@@@ @@@@@@++ +++@@@@@ @@=@@+++ +++>=@>> >@>>>>++ ++++@@+= +@@+++++ ++@@+@@@ @@@@@@++ ++++++=+ ++++++++ =>>=++++                   ++++=>>=.=+++++++.+++++++=.  ++@@=@+@ @@@@@+++ +++@@@@@ @@@@++++ ++@@@@@@ @@@@@@++ +++@@@@@ @@=@@+++ +++-=@-- -@----++ ++++@@+= +@@+++++ ++@@+@@@ @@@@@@++ ++++++=+ ++++++++ =--=++++                   ++++=--=.=+++++++.+++++++=.  ++%%>%+% %%%%%+++ +++%%%%% %%%%++++ ++%%%%%% %%%%%%++ +++%%%%% %%>%%+++ +++->%-- -%----++ ++++%%+> +%%+++++ ++%%+%%% %%%%%%++ ++++++>+ ++++++++ >-->++++                   ++++>-->.>+++++++.+++++++>. ",
" +++===+= @====+++ ++++==@= =@++++++ +++===== =====+++ +++===== =====+++ ++++&&=@ =@=&&+++ +++++=+@ +=++++++ ++==+=== ======++ ++++++@+ @+++++++ @&&&@+++                   +++@&&&@.@+++++++.+++++++@.  +++===+= &====+++ ++++==&= =&++++++ +++===== =====+++ +++===== =====+++ ++++**=& =&=**+++ +++++=+& +=++++++ ++==+=== ======++ ++++++&+ &+++++++ &***&+++                   +++&***&.&+++++++.+++++++&.  +++@@@+@ =@@@@+++ ++++@@=@ @=++++++ +++@@@@@ @@@@@+++ +++@@@@@ @@@@@+++ ++++>>@= @=@>>+++ +++++@+= +@++++++ ++@@+@@@ @@@@@@++ ++++++=+ =+++++++ =>>>=+++                   +++=>>>=.=+++++++.+++++++=.  +++@@@+@ =@@@@+++ ++++@@=@ @=++++++ +++@@@@@ @@@@@+++ +++@@@@@ @@@@@+++ ++++--@= @=@--+++ +++++@+= +@++++++ ++@@+@@@ @@@@@@++ ++++++=+ =+++++++ =---=+++                   +++=---=.=+++++++.+++++++=.  +++%%%+% >%%%%+++ ++++%%>% %>++++++ +++%%%%% %%%%%+++ +++%%%%% %%%%%+++ ++++--%> %>%--+++ +++++%+> +%++++++ ++%%+%%% %%%%%%++ ++++++>+ >+++++++ >--->+++                   +++>--->.>+++++++.+++++++>. ",
" +++++++= =@===+++ +++++=== ==++++++ +++===== =====+++ ++++==== ====++++ ++++&&&= &&&=&+++ +++++++@ ++++++++ ++====== ======++ ++++++@+ @@++++++ +@&&&@@@                   @@@&&&@+.@+++++++.+++++++@.  +++++++= =&===+++ +++++=== ==++++++ +++===== =====+++ ++++==== ====++++ ++++***= ***=*+++ +++++++& ++++++++ ++====== ======++ ++++++&+ &&++++++ +&***&&&                   &&&***&+.&+++++++.+++++++&.  +++++++@ @=@@@+++ +++++@@@ @@++++++ +++@@@@@ @@@@@+++ ++++@@@@ @@@@++++ ++++>>>@ >>>@>+++ +++++++= ++++++++ ++@@@@@@ @@@@@@++ ++++++=+ ==++++++ +=>>>===                   ===>>>=+.=+++++++.+++++++=.  +++++++@ @=@@@+++ +++++@@@ @@++++++ +++@@@@@ @@@@@+++ ++++@@@@ @@@@++++ ++++---@ ---@-+++ +++++++= ++++++++ ++@@@@@@ @@@@@@++ ++++++=+ ==++++++ +=---===                   ===---=+.=+++++++.+++++++=.  +++++++% %>%%%+++ +++++%%% %%++++++ +++%%%%% %%%%%+++ ++++%%%% %%%%++++ ++++---% ---%-+++ +++++++> ++++++++ ++%%%%%% %%%%%%++ ++++++>+ >>++++++ +>--->>>                   >>>--->+.>+++++++.+++++++>. ",
" ++++++++ ====++++ +++++++= ++++++++ +++++=== ===+++++ +++++==+ ===+++++ +++++&=& &&=&++++ +++++++@ ++++++++ ++=&&&&& @@&&&=++ ++++++@+ @+++++++ +@&&&&&&                   &&&&&&@+.@+++++++.+++++++@.  ++++++++ ====++++ +++++++= ++++++++ +++++=== ===+++++ +++++==+ ===+++++ +++++*=* **=*++++ +++++++& ++++++++ ++=***** &&***=++ ++++++&+ &+++++++ +&******                   ******&+.&+++++++.+++++++&.  ++++++++ @@@@++++ +++++++@ ++++++++ +++++@@@ @@@+++++ +++++@@+ @@@+++++ +++++>@> >>@>++++ +++++++= ++++++++ ++@>>>>> ==>>>@++ ++++++=+ =+++++++ +=>>>>>>                   >>>>>>=+.=+++++++.+++++++=.  ++++++++ @@@@++++ +++++++@ ++++++++ +++++@@@ @@@+++++ +++++@@+ @@@+++++ +++++-@- --@-++++ +++++++= ++++++++ ++@----- ==---@++ ++++++=+ =+++++++ +=------                   ------=+.=+++++++.+++++++=.  ++++++++ %%%%++++ +++++++% ++++++++ +++++%%% %%%+++++ +++++%%+ %%%+++++ +++++-%- --%-++++ +++++++> ++++++++ ++%----- >>---%++ ++++++>+ >+++++++ +>------                   ------>+.>+++++++.+++++++>. ",
" ++++++++ ++++++++ ++++++++ ++++++++ ++++++++ ++++++++ ++++++++ ++++++++ +++++++& &=++++++ ++++++++ ++++++++ +++&&&&& @@&&&+++ +++++++@ ++++++++ ++@@&&&&                   &&&&@@++.@+++++++.+++++++@.  ++++++++ ++++++++ ++++++++ ++++++++ ++++++++ ++++++++ ++++++++ ++++++++ +++++++* *=++++++ ++++++++ ++++++++ +++***** &&***+++ +++++++& ++++++++ ++&&****                   ****&&++.&+++++++.+++++++&.  ++++++++ ++++++++ ++++++++ ++++++++ ++++++++ ++++++++ ++++++++ ++++++++ +++++++> >@++++++ ++++++++ ++++++++ +++>>>>> ==>>>+++ +++++++= ++++++++ ++==>>>>                   >>>>==++.=+++++++.+++++++=.  ++++++++ ++++++++ ++++++++ ++++++++ ++++++++ ++++++++ ++++++++ ++++++++ +++++++- -@++++++ ++++++++ ++++++++ +++----- ==---+++ +++++++= ++++++++ ++==----                   ----==++.=+++++++.+++++++=.  ++++++++ ++++++++ ++++++++ ++++++++ ++++++++ ++++++++ ++++++++ ++++++++ +++++++- -%++++++ ++++++++ ++++++++ +++----- >>---+++ +++++++> ++++++++ ++>>----                   ---->>++.>+++++++.+++++++>. ",
" ++++++++ ++++++++ ++++++++ ++++++++ ++++++++ ++++++++ ++++++++ ++++++++ ++++++++ ++++++++ ++++++++ ++++++++ ++++++++ ++++++++ ++++++++ ++++++++ ++++@@@@                   @@@@++++.@@@@@@@@.@@@@@@@@.  ++++++++ ++++++++ ++++++++ ++++++++ ++++++++ ++++++++ ++++++++ ++++++++ ++++++++ ++++++++ ++++++++ ++++++++ ++++++++ ++++++++ ++++++++ ++++++++ ++++&&&&                   &&&&++++.&&&&&&&&.&&&&&&&&.  ++++++++ ++++++++ ++++++++ ++++++++ ++++++++ ++++++++ ++++++++ ++++++++ ++++++++ ++++++++ ++++++++ ++++++++ ++++++++ ++++++++ ++++++++ ++++++++ ++++====                   ====++++.========.========.  ++++++++ ++++++++ ++++++++ ++++++++ ++++++++ ++++++++ ++++++++ ++++++++ ++++++++ ++++++++ ++++++++ ++++++++ ++++++++ ++++++++ ++++++++ ++++++++ ++++====                   ====++++.========.========.  ++++++++ ++++++++ ++++++++ ++++++++ ++++++++ ++++++++ ++++++++ ++++++++ ++++++++ ++++++++ ++++++++ ++++++++ ++++++++ ++++++++ ++++++++ ++++++++ ++++>>>>                   >>>>++++.>>>>>>>>.>>>>>>>>. ",
"                                                                                                                                                                                    ...................                                                                                                                                                                                     ...................                                                                                                                                                                                     ...................                                                                                                                                                                                     ...................                                                                                                                                                                                     ................... ",
" ++++++++ ++++++++ ++++++++ ++++++++ ++++++++ ++++++++ ++++++++ ++++++++ ++++++++ ++++++++ ++++++++ ++++++++ ++++++++ +++@+++@ ++++++++ @@@@@++@ ++++++++ @@@@@++@ ++++++++ @@@@@++@ @+++@@++ ++++++++   ++++++++ ++++++++ ++++++++ ++++++++ ++++++++ ++++++++ ++++++++ ++++++++ ++++++++ ++++++++ ++++++++ ++++++++ ++++++++ +++&+++& ++++++++ &&&&&++& ++++++++ &&&&&++& ++++++++ &&&&&++& &+++&&++ ++++++++   ++++++++ ++++++++ ++++++++ ++++++++ ++++++++ ++++++++ ++++++++ ++++++++ ++++++++ ++++++++ ++++++++ ++++++++ ++++++++ +++=+++= ++++++++ =====++= ++++++++ =====++= ++++++++ =====++= =+++==++ ++++++++   ++++++++ ++++++++ ++++++++ ++++++++ ++++++++ ++++++++ ++++++++ ++++++++ ++++++++ ++++++++ ++++++++ ++++++++ ++++++++ +++=+++= ++++++++ =====++= ++++++++ =====++= ++++++++ =====++= =+++==++ ++++++++   ++++++++ ++++++++ ++++++++ ++++++++ ++++++++ ++++++++ ++++++++ ++++++++ ++++++++ ++++++++ ++++++++ ++++++++ ++++++++ +++>+++> ++++++++ >>>>>++> ++++++++ >>>>>++> ++++++++ >>>>>++> >+++>>++ ++++++++  ",
" ++++++++ ++++++++ ++++++++ ++++++++ ++++++++ ++++++++ ++++++++ ++++++++ ++++++++ ++++++++ ++++++++ ++++++++ ++++++++ ++@@++@+ ++++++++ +++@++@+ ++++++++ @+++++@+ ++++++++ @+++@+@+ +@+@++@+ ++++++++   ++++++++ ++++++++ ++++++++ ++++++++ ++++++++ ++++++++ ++++++++ ++++++++ ++++++++ ++++++++ ++++++++ ++++++++ ++++++++ ++&&++&+ ++++++++ +++&++&+ ++++++++ &+++++&+ ++++++++ &+++&+&+ +&+&++&+ ++++++++   ++++++++ ++++++++ ++++++++ ++++++++ ++++++++ ++++++++ ++++++++ ++++++++ ++++++++ ++++++++ ++++++++ ++++++++ ++++++++ ++==++=+ ++++++++ +++=++=+ ++++++++ =+++++=+ ++++++++ =+++=+=+ +=+=++=+ ++++++++   ++++++++ ++++++++ ++++++++ ++++++++ ++++++++ ++++++++ ++++++++ ++++++++ ++++++++ ++++++++ ++++++++ ++++++++ ++++++++ ++==++=+ ++++++++ +++=++=+ ++++++++ =+++++=+ ++++++++ =+++=+=+ +=+=++=+ ++++++++   ++++++++ ++++++++ ++++++++ ++++++++ ++++++++ ++++++++ ++++++++ ++++++++ ++++++++ ++++++++ ++++++++ ++++++++ ++++++++ ++>>++>+ ++++++++ +++>++>+ ++++++++ >+++++>+ ++++++++ >+++>+>+ +>+>++>+ ++++++++  ",
" +++++@@@ @@++++++ ++++++++ ++++++++ ++++++++ +@@@@+++ +++++@@@ @@++++++ +++@@@@+ ++++++++ ++++++++ ++++++++ ++++++++ +++@++@+ ++++++++ ++@+++@+ ++++++++ @@@@++@+ ++++++++ +++@++@+ +@+@++@+ ++++++++   +++++&&& &&++++++ ++++++++ ++++++++ ++++++++ +&&&&+++ +++++&&& &&++++++ +++&&&&+ ++++++++ ++++++++ ++++++++ ++++++++ +++&++&+ ++++++++ ++&+++&+ ++++++++ &&&&++&+ ++++++++ +++&++&+ +&+&++&+ ++++++++   +++++=== ==++++++ ++++++++ ++++++++ ++++++++ +====+++ +++++=== ==++++++ +++====+ ++++++++ ++++++++ ++++++++ ++++++++ +++=++=+ ++++++++ ++=+++=+ ++++++++ ====++=+ ++++++++ +++=++=+ +=+=++=+ ++++++++   +++++=== ==++++++ ++++++++ ++++++++ ++++++++ +====+++ +++++=== ==++++++ +++====+ ++++++++ ++++++++ ++++++++ ++++++++ +++=++=+ ++++++++ ++=+++=+ ++++++++ ====++=+ ++++++++ +++=++=+ +=+=++=+ ++++++++   +++++>>> >>++++++ ++++++++ ++++++++ ++++++++ +>>>>+++ +++++>>> >>++++++ +++>>>>+ ++++++++ ++++++++ ++++++++ ++++++++ +++>++>+ ++++++++ ++>+++>+ ++++++++ >>>>++>+ ++++++++ +++>++>+ +>+>++>+ ++++++++  ",
" ++++@@@@ @@@+++++ ++++++++ ++++++++ ++++++++ +@@@@+++ +++++@@@ @@@+++++ +++@@@@@ ++++++++ ++++++++ ++++++++ ++++++++ +++@++@+ ++++++++ +++@++@+ ++++++++ ++++@+@+ ++++++++ +++@++@+ +@+@++@+ ++++++++   ++++&&&& &&&+++++ ++++++++ ++++++++ ++++++++ +&&&&+++ +++++&&& &&&+++++ +++&&&&& ++++++++ ++++++++ ++++++++ ++++++++ +++&++&+ ++++++++ +++&++&+ ++++++++ ++++&+&+ ++++++++ +++&++&+ +&+&++&+ ++++++++   ++++==== ===+++++ ++++++++ ++++++++ ++++++++ +====+++ +++++=== ===+++++ +++===== ++++++++ ++++++++ ++++++++ ++++++++ +++=++=+ ++++++++ +++=++=+ ++++++++ ++++=+=+ ++++++++ +++=++=+ +=+=++=+ ++++++++   ++++==== ===+++++ ++++++++ ++++++++ ++++++++ +====+++ +++++=== ===+++++ +++===== ++++++++ ++++++++ ++++++++ ++++++++ +++=++=+ ++++++++ +++=++=+ ++++++++ ++++=+=+ ++++++++ +++=++=+ +=+=++=+ ++++++++   ++++>>>> >>>+++++ ++++++++ ++++++++ ++++++++ +>>>>+++ +++++>>> >>>+++++ +++>>>>> ++++++++ ++++++++ ++++++++ ++++++++ +++>++>+ ++++++++ +++>++>+ ++++++++ ++++>+>+ ++++++++ +++>++>+ +>+>++>+ ++++++++  ",
" +++@@@@@ @@@@++++ ++++++++ ++++++++ ++++++++ +@@@@@++ +++++@@@ @@@@++++ +++@@@@@ @+++++++ ++++++++ ++++++++ ++++++++ +++@++@+ ++++++++ ++++@+@+ ++++++++ ++++@+@+ ++++++++ ++@+++@+ +@+@++@+ ++++++++   +++&&&&& &&&&++++ ++++++++ ++++++++ ++++++++ +&&&&&++ +++++&&& &&&&++++ +++&&&&& &+++++++ ++++++++ ++++++++ ++++++++ +++&++&+ ++++++++ ++++&+&+ ++++++++ ++++&+&+ ++++++++ ++&+++&+ +&+&++&+ ++++++++   +++===== ====++++ ++++++++ ++++++++ ++++++++ +=====++ +++++=== ====++++ +++===== =+++++++ ++++++++ ++++++++ ++++++++ +++=++=+ ++++++++ ++++=+=+ ++++++++ ++++=+=+ ++++++++ ++=+++=+ +=+=++=+ ++++++++   +++===== ====++++ ++++++++ ++++++++ ++++++++ +=====++ +++++=== ====++++ +++===== =+++++++ ++++++++ ++++++++ ++++++++ +++=++=+ ++++++++ ++++=+=+ ++++++++ ++++=+=+ ++++++++ ++=+++=+ +=+=++=+ ++++++++   +++>>>>> >>>>++++ ++++++++ ++++++++ ++++++++ +>>>>>++ +++++>>> >>>>++++ +++>>>>> >+++++++ ++++++++ ++++++++ ++++++++ +++>++>+ ++++++++ ++++>+>+ ++++++++ ++++>+>+ ++++++++ ++>+++>+ +>+>++>+ ++++++++  ",
" +++++@@@ @@@@@+++ ++++++++ ++++++++ ++++++++ +@@@@@@+ +++++@@@ @@@@@@++ +++@@@@@ @@@+++++ ++++++++ ++++++++ ++++++++ +++@++@+ ++++++++ @+++@+@+ ++++++++ @+++@+@+ ++++++++ ++@+++@+ +@+@++@+ ++++++++   +++++&&& &&&&&+++ ++++++++ ++++++++ ++++++++ +&&&&&&+ +++++&&& &&&&&&++ +++&&&&& &&&+++++ ++++++++ ++++++++ ++++++++ +++&++&+ ++++++++ &+++&+&+ ++++++++ &+++&+&+ ++++++++ ++&+++&+ +&+&++&+ ++++++++   +++++=== =====+++ ++++++++ ++++++++ ++++++++ +======+ +++++=== ======++ +++===== ===+++++ ++++++++ ++++++++ ++++++++ +++=++=+ ++++++++ =+++=+=+ ++++++++ =+++=+=+ ++++++++ ++=+++=+ +=+=++=+ ++++++++   +++++=== =====+++ ++++++++ ++++++++ ++++++++ +======+ +++++=== ======++ +++===== ===+++++ ++++++++ ++++++++ ++++++++ +++=++=+ ++++++++ =+++=+=+ ++++++++ =+++=+=+ ++++++++ ++=+++=+ +=+=++=+ ++++++++   +++++>>> >>>>>+++ ++++++++ ++++++++ ++++++++ +>>>>>>+ +++++>>> >>>>>>++ +++>>>>> >>>+++++ ++++++++ ++++++++ ++++++++ +++>++>+ ++++++++ >+++>+>+ ++++++++ >+++>+>+ ++++++++ ++>+++>+ +>+>++>+ ++++++++  ",
" +++++++@ @@@@@+++ ++++++++ ++++++++ ++++++++ +@@@@@@@ +++++@@@ @@@@@@@@ +++@@@@@ @@@@@@@@ ++++++++ +++++++@ ++++++++ ++@@@++@ ++++++++ +@@@+++@ ++++++++ +@@@+++@ ++++++++ ++@++++@ @+++@@++ ++++++++   +++++++& &&&&&+++ ++++++++ ++++++++ ++++++++ +&&&&&&& +++++&&& &&&&&&&& +++&&&&& &&&&&&&& ++++++++ +++++++& ++++++++ ++&&&++& ++++++++ +&&&+++& ++++++++ +&&&+++& ++++++++ ++&++++& &+++&&++ ++++++++   +++++++= =====+++ ++++++++ ++++++++ ++++++++ +======= +++++=== ======== +++===== ======== ++++++++ +++++++= ++++++++ ++===++= ++++++++ +===+++= ++++++++ +===+++= ++++++++ ++=++++= =+++==++ ++++++++   +++++++= =====+++ ++++++++ ++++++++ ++++++++ +======= +++++=== ======== +++===== ======== ++++++++ +++++++= ++++++++ ++===++= ++++++++ +===+++= ++++++++ +===+++= ++++++++ ++=++++= =+++==++ ++++++++   +++++++> >>>>>+++ ++++++++ ++++++++ ++++++++ +>>>>>>> +++++>>> >>>>>>>> +++>>>>> >>>>>>>> ++++++++ +++++++> ++++++++ ++>>>++> ++++++++ +>>>+++> ++++++++ +>>>+++> ++++++++ ++>++++> >+++>>++ ++++++++  ",
" ++++++++ +@@@@+++ ++++++++ +++++++= ++++++++ +@@@@@@@ +++++@@@ @@@@@@@@ +++@@@@@ @@@@@@@@ ++++++++ ++++++@@ ++++++++ ++++++++ ++++++++ ++++++++ ++++++++ ++++++++ ++++++++ ++++++++ ++++++++ ++++++++   ++++++++ +&&&&+++ ++++++++ +++++++= ++++++++ +&&&&&&& +++++&&& &&&&&&&& +++&&&&& &&&&&&&& ++++++++ ++++++&& ++++++++ ++++++++ ++++++++ ++++++++ ++++++++ ++++++++ ++++++++ ++++++++ ++++++++ ++++++++   ++++++++ +====+++ ++++++++ +++++++@ ++++++++ +======= +++++=== ======== +++===== ======== ++++++++ ++++++== ++++++++ ++++++++ ++++++++ ++++++++ ++++++++ ++++++++ ++++++++ ++++++++ ++++++++ ++++++++   ++++++++ +====+++ ++++++++ +++++++@ ++++++++ +======= +++++=== ======== +++===== ======== ++++++++ ++++++== ++++++++ ++++++++ ++++++++ ++++++++ ++++++++ ++++++++ ++++++++ ++++++++ ++++++++ ++++++++   ++++++++ +>>>>+++ ++++++++ +++++++% ++++++++ +>>>>>>> +++++>>> >>>>>>>> +++>>>>> >>>>>>>> ++++++++ ++++++>> ++++++++ ++++++++ ++++++++ ++++++++ ++++++++ ++++++++ ++++++++ ++++++++ ++++++++ ++++++++  ",
"                                                                                                                                                                                                                                                                                                                                                                                                                                                                                                                                                                                                                                                                                                                                                                                                                                                                                                                                                                                                                                        ",
" +++++++@ @@@@@+++ ++++++++ +++++++= ++++++++ +@@@@@@@ +++++@@@ @@@@@@@@ +++@@@@@ @@@@@@@@ ++++++++ ++++@@@@ ++++++++ +@+++@@+ +++++++@ @@+++@@+ ++++++@@ @@@++@@+ ++++++@@ @@@++@@+ ++@@+++@ @+++++++   +++++++& &&&&&+++ ++++++++ +++++++= ++++++++ +&&&&&&& +++++&&& &&&&&&&& +++&&&&& &&&&&&&& ++++++++ ++++&&&& ++++++++ +&+++&&+ +++++++& &&+++&&+ ++++++&& &&&++&&+ ++++++&& &&&++&&+ ++&&+++& &+++++++   +++++++= =====+++ ++++++++ +++++++@ ++++++++ +======= +++++=== ======== +++===== ======== ++++++++ ++++==== ++++++++ +=+++==+ +++++++= ==+++==+ ++++++== ===++==+ ++++++== ===++==+ ++==+++= =+++++++   +++++++= =====+++ ++++++++ +++++++@ ++++++++ +======= +++++=== ======== +++===== ======== ++++++++ ++++==== ++++++++ +=+++==+ +++++++= ==+++==+ ++++++== ===++==+ ++++++== ===++==+ ++==+++= =+++++++   +++++++> >>>>>+++ ++++++++ +++++++% ++++++++ +>>>>>>> +++++>>> >>>>>>>> +++>>>>> >>>>>>>> ++++++++ ++++>>>> ++++++++ +>+++>>+ +++++++> >>+++>>+ ++++++>> >>>++>>+ ++++++>> >>>++>>+ ++>>+++> >+++++++  ",
" +++++@@@ @@@@@+++ ++++++++ +++++++= ++++++++ +@@@@@@@ +++++@@@ @@@@@@@@ +++@@@@@ @@@@@@@@ ++++++++ +++@@@@@ ++++++++ @@++@++@ ++++++@+ ++@+@++@ ++++++++ +@++@++@ ++++++@+ ++++@++@ +@++@+@+ +@++++++   +++++&&& &&&&&+++ ++++++++ +++++++= ++++++++ +&&&&&&& +++++&&& &&&&&&&& +++&&&&& &&&&&&&& ++++++++ +++&&&&& ++++++++ &&++&++& ++++++&+ ++&+&++& ++++++++ +&++&++& ++++++&+ ++++&++& +&++&+&+ +&++++++   +++++=== =====+++ ++++++++ +++++++@ ++++++++ +======= +++++=== ======== +++===== ======== ++++++++ +++===== ++++++++ ==++=++= ++++++=+ ++=+=++= ++++++++ +=++=++= ++++++=+ ++++=++= +=++=+=+ +=++++++   +++++=== =====+++ ++++++++ +++++++@ ++++++++ +======= +++++=== ======== +++===== ======== ++++++++ +++===== ++++++++ ==++=++= ++++++=+ ++=+=++= ++++++++ +=++=++= ++++++=+ ++++=++= +=++=+=+ +=++++++   +++++>>> >>>>>+++ ++++++++ +++++++% ++++++++ +>>>>>>> +++++>>> >>>>>>>> +++>>>>> >>>>>>>> ++++++++ +++>>>>> ++++++++ >>++>++> ++++++>+ ++>+>++> ++++++++ +>++>++> ++++++>+ ++++>++> +>++>+>+ +>++++++  ",
" +++@@@@@ @@@@++++ ++++++++ +++++++= ++++++++ +@@@@@@@ +++++@@@ @@@@@@@@ +++@@@@@ @@@@@@@@ ++++++++ +@@@@@@= ++++++++ +@++@++@ ++++++@+ ++@+@++@ ++++++++ @+++@++@ ++++++@@ @@++@++@ +@++@+@+ +@++++++   +++&&&&& &&&&++++ ++++++++ +++++++= ++++++++ +&&&&&&& +++++&&& &&&&&&&& +++&&&&& &&&&&&&& ++++++++ +&&&&&&= ++++++++ +&++&++& ++++++&+ ++&+&++& ++++++++ &+++&++& ++++++&& &&++&++& +&++&+&+ +&++++++   +++===== ====++++ ++++++++ +++++++@ ++++++++ +======= +++++=== ======== +++===== ======== ++++++++ +======@ ++++++++ +=++=++= ++++++=+ ++=+=++= ++++++++ =+++=++= ++++++== ==++=++= +=++=+=+ +=++++++   +++===== ====++++ ++++++++ +++++++@ ++++++++ +======= +++++=== ======== +++===== ======== ++++++++ +======@ ++++++++ +=++=++= ++++++=+ ++=+=++= ++++++++ =+++=++= ++++++== ==++=++= +=++=+=+ +=++++++   +++>>>>> >>>>++++ ++++++++ +++++++% ++++++++ +>>>>>>> +++++>>> >>>>>>>> +++>>>>> >>>>>>>> ++++++++ +>>>>>>% ++++++++ +>++>++> ++++++>+ ++>+>++> ++++++++ >+++>++> ++++++>> >>++>++> +>++>+>+ +>++++++  ",
" ++++@@@@ @@@+++++ ++++++++ ++++++++ ++++++++ ++++++++ ++++++++ ++++++++ ++++++++ ++++++++ ++++++++ ++++++++ ++++++++ +@++@++@ ++++++++ +@++@++@ ++++++++ +@++@++@ ++++++++ ++@+@++@ +@++@+@+ +@++++++   ++++&&&& &&&+++++ ++++++++ ++++++++ ++++++++ ++++++++ ++++++++ ++++++++ ++++++++ ++++++++ ++++++++ ++++++++ ++++++++ +&++&++& ++++++++ +&++&++& ++++++++ +&++&++& ++++++++ ++&+&++& +&++&+&+ +&++++++   ++++==== ===+++++ ++++++++ ++++++++ ++++++++ ++++++++ ++++++++ ++++++++ ++++++++ ++++++++ ++++++++ ++++++++ ++++++++ +=++=++= ++++++++ +=++=++= ++++++++ +=++=++= ++++++++ ++=+=++= +=++=+=+ +=++++++   ++++==== ===+++++ ++++++++ ++++++++ ++++++++ ++++++++ ++++++++ ++++++++ ++++++++ ++++++++ ++++++++ ++++++++ ++++++++ +=++=++= ++++++++ +=++=++= ++++++++ +=++=++= ++++++++ ++=+=++= +=++=+=+ +=++++++   ++++>>>> >>>+++++ ++++++++ ++++++++ ++++++++ ++++++++ ++++++++ ++++++++ ++++++++ ++++++++ ++++++++ ++++++++ ++++++++ +>++>++> ++++++++ +>++>++> ++++++++ +>++>++> ++++++++ ++>+>++> +>++>+>+ +>++++++  ",
" +++++@@@ @@++++++ ++++++++ ++++++++ ++++++++ ++++++++ ++++++++ ++++++++ ++++++++ ++++++++ ++++++++ ++++++++ ++++++++ +@++@++@ ++++++++ @+++@++@ ++++++++ ++@+@++@ ++++++++ ++@+@++@ +@++@+@+ +@++++++   +++++&&& &&++++++ ++++++++ ++++++++ ++++++++ ++++++++ ++++++++ ++++++++ ++++++++ ++++++++ ++++++++ ++++++++ ++++++++ +&++&++& ++++++++ &+++&++& ++++++++ ++&+&++& ++++++++ ++&+&++& +&++&+&+ +&++++++   +++++=== ==++++++ ++++++++ ++++++++ ++++++++ ++++++++ ++++++++ ++++++++ ++++++++ ++++++++ ++++++++ ++++++++ ++++++++ +=++=++= ++++++++ =+++=++= ++++++++ ++=+=++= ++++++++ ++=+=++= +=++=+=+ +=++++++   +++++=== ==++++++ ++++++++ ++++++++ ++++++++ ++++++++ ++++++++ ++++++++ ++++++++ ++++++++ ++++++++ ++++++++ ++++++++ +=++=++= ++++++++ =+++=++= ++++++++ ++=+=++= ++++++++ ++=+=++= +=++=+=+ +=++++++   +++++>>> >>++++++ ++++++++ ++++++++ ++++++++ ++++++++ ++++++++ ++++++++ ++++++++ ++++++++ ++++++++ ++++++++ ++++++++ +>++>++> ++++++++ >+++>++> ++++++++ ++>+>++> ++++++++ ++>+>++> +>++>+>+ +>++++++  ",
" ++++++++ ++++++++ ++++++++ ++++++++ ++++++++ ++++++++ ++++++++ ++++++++ ++++++++ ++++++++ ++++++++ ++++++++ ++++++++ +@++@++@ +++++++@ ++++@++@ ++++++@+ ++@+@++@ ++++++@+ ++@+@++@ +@++@+@+ +@++++++   ++++++++ ++++++++ ++++++++ ++++++++ ++++++++ ++++++++ ++++++++ ++++++++ ++++++++ ++++++++ ++++++++ ++++++++ ++++++++ +&++&++& +++++++& ++++&++& ++++++&+ ++&+&++& ++++++&+ ++&+&++& +&++&+&+ +&++++++   ++++++++ ++++++++ ++++++++ ++++++++ ++++++++ ++++++++ ++++++++ ++++++++ ++++++++ ++++++++ ++++++++ ++++++++ ++++++++ +=++=++= +++++++= ++++=++= ++++++=+ ++=+=++= ++++++=+ ++=+=++= +=++=+=+ +=++++++   ++++++++ ++++++++ ++++++++ ++++++++ ++++++++ ++++++++ ++++++++ ++++++++ ++++++++ ++++++++ ++++++++ ++++++++ ++++++++ +=++=++= +++++++= ++++=++= ++++++=+ ++=+=++= ++++++=+ ++=+=++= +=++=+=+ +=++++++   ++++++++ ++++++++ ++++++++ ++++++++ ++++++++ ++++++++ ++++++++ ++++++++ ++++++++ ++++++++ ++++++++ ++++++++ ++++++++ +>++>++> +++++++> ++++>++> ++++++>+ ++>+>++> ++++++>+ ++>+>++> +>++>+>+ +>++++++  ",
" ++++++++ ++++++++ ++++++++ ++++++++ ++++++++ ++++++++ ++++++++ ++++++++ ++++++++ ++++++++ ++++++++ ++++++++ ++++++++ @@@++@@+ ++++++@@ @@@++@@+ +++++++@ @@+++@@+ +++++++@ @@+++@@+ ++@@+++@ @+++++++   ++++++++ ++++++++ ++++++++ ++++++++ ++++++++ ++++++++ ++++++++ ++++++++ ++++++++ ++++++++ ++++++++ ++++++++ ++++++++ &&&++&&+ ++++++&& &&&++&&+ +++++++& &&+++&&+ +++++++& &&+++&&+ ++&&+++& &+++++++   ++++++++ ++++++++ ++++++++ ++++++++ ++++++++ ++++++++ ++++++++ ++++++++ ++++++++ ++++++++ ++++++++ ++++++++ ++++++++ ===++==+ ++++++== ===++==+ +++++++= ==+++==+ +++++++= ==+++==+ ++==+++= =+++++++   ++++++++ ++++++++ ++++++++ ++++++++ ++++++++ ++++++++ ++++++++ ++++++++ ++++++++ ++++++++ ++++++++ ++++++++ ++++++++ ===++==+ ++++++== ===++==+ +++++++= ==+++==+ +++++++= ==+++==+ ++==+++= =+++++++   ++++++++ ++++++++ ++++++++ ++++++++ ++++++++ ++++++++ ++++++++ ++++++++ ++++++++ ++++++++ ++++++++ ++++++++ ++++++++ >>>++>>+ ++++++>> >>>++>>+ +++++++> >>+++>>+ +++++++> >>+++>>+ ++>>+++> >+++++++  ",
" ++++++++ ++++++++ ++++++++ ++++++++ ++++++++ ++++++++ ++++++++ ++++++++ ++++++++ ++++++++ ++++++++ ++++++++ ++++++++ ++++++++ ++++++++ ++++++++ ++++++++ ++++++++ ++++++++ ++++++++ ++++++++ ++++++++   ++++++++ ++++++++ ++++++++ ++++++++ ++++++++ ++++++++ ++++++++ ++++++++ ++++++++ ++++++++ ++++++++ ++++++++ ++++++++ ++++++++ ++++++++ ++++++++ ++++++++ ++++++++ ++++++++ ++++++++ ++++++++ ++++++++   ++++++++ ++++++++ ++++++++ ++++++++ ++++++++ ++++++++ ++++++++ ++++++++ ++++++++ ++++++++ ++++++++ ++++++++ ++++++++ ++++++++ ++++++++ ++++++++ ++++++++ ++++++++ ++++++++ ++++++++ ++++++++ ++++++++   ++++++++ ++++++++ ++++++++ ++++++++ ++++++++ ++++++++ ++++++++ ++++++++ ++++++++ ++++++++ ++++++++ ++++++++ ++++++++ ++++++++ ++++++++ ++++++++ ++++++++ ++++++++ ++++++++ ++++++++ ++++++++ ++++++++   ++++++++ ++++++++ ++++++++ ++++++++ ++++++++ ++++++++ ++++++++ ++++++++ ++++++++ ++++++++ ++++++++ ++++++++ ++++++++ ++++++++ ++++++++ ++++++++ ++++++++ ++++++++ ++++++++ ++++++++ ++++++++ ++++++++  ",
"                                                                                                                                                                                                                                                                                                                                                                                                                                                                                                                                                                                                                                                                                                                                                                                                                                                                                                                                                                                                                                        ",
"                                                                                                                                                                                                                                                                                                                                                                                                                                                                                                                                                                                                                                                                                                                                                                                                                                                                                                                                                                                                                                        ",
" ++++++++++++++++ ++++++++++++++++ ++++++++++++++++ ++++++++++++++++ ++++++++++++++++ ++++++++++++++++ ++++++++++++++++ ++++++++++++++++ ++++++++++++==== ====++++++++++++  +++++++++++++++++++++++++    ++++++++++++++++ ++++++++++++++++ ++++++++++++++++ ++++++++++++++++ ++++++++++++++++ ++++++++++++++++ ++++++++++++++++ ++++++++++++++++ ++++++++++++==== ====++++++++++++  +++++++++++++++++++++++++    ++++++++++++++++ ++++++++++++++++ ++++++++++++++++ ++++++++++++++++ ++++++++++++++++ ++++++++++++++++ ++++++++++++++++ ++++++++++++++++ ++++++++++++@@@@ @@@@++++++++++++  +++++++++++++++++++++++++    ++++++++++++++++ ++++++++++++++++ ++++++++++++++++ ++++++++++++++++ ++++++++++++++++ ++++++++++++++++ ++++++++++++++++ ++++++++++++++++ ++++++++++++@@@@ @@@@++++++++++++  +++++++++++++++++++++++++    ++++++++++++++++ ++++++++++++++++ ++++++++++++++++ ++++++++++++++++ ++++++++++++++++ ++++++++++++++++ ++++++++++++++++ ++++++++++++++++ ++++++++++++%%%% %%%%++++++++++++  +++++++++++++++++++++++++   ",
" ++++++@@@@++++++ ++++++@@@@++++++ ++++++@@@@++++++ ++++++@@@@++++++ ++++++@@@@++++++ ++++++@@@@++++++ ++++++@@@@++++++ ++++++@@@@++++++ +++++++++======= =======+++++++++  +++++++++++++++++++++++++    ++++++&&&&++++++ ++++++&&&&++++++ ++++++&&&&++++++ ++++++&&&&++++++ ++++++&&&&++++++ ++++++&&&&++++++ ++++++&&&&++++++ ++++++&&&&++++++ +++++++++======= =======+++++++++  +++++++++++++++++++++++++    ++++++====++++++ ++++++====++++++ ++++++====++++++ ++++++====++++++ ++++++====++++++ ++++++====++++++ ++++++====++++++ ++++++====++++++ +++++++++@@@@@@@ @@@@@@@+++++++++  +++++++++++++++++++++++++    ++++++====++++++ ++++++====++++++ ++++++====++++++ ++++++====++++++ ++++++====++++++ ++++++====++++++ ++++++====++++++ ++++++====++++++ +++++++++@@@@@@@ @@@@@@@+++++++++  +++++++++++++++++++++++++    ++++++>>>>++++++ ++++++>>>>++++++ ++++++>>>>++++++ ++++++>>>>++++++ ++++++>>>>++++++ ++++++>>>>++++++ ++++++>>>>++++++ ++++++>>>>++++++ +++++++++%%%%%%% %%%%%%%+++++++++  +++++++++++++++++++++++++   ",
" ++++@@@@@@@@++++ ++++@@@@@@@@++++ ++++@@@@@@@@++++ ++++@@@@@@@@++++ ++++@@@@@@@@++++ ++++@@@@@@@@++++ ++++&&@@@@&&++++ ++++&&@@@@&&++++ +++++++========= =========+++++++  +++++++++++++++++++++++++    ++++&&&&&&&&++++ ++++&&&&&&&&++++ ++++&&&&&&&&++++ ++++&&&&&&&&++++ ++++&&&&&&&&++++ ++++&&&&&&&&++++ ++++**&&&&**++++ ++++**&&&&**++++ +++++++========= =========+++++++  +++++++++++++++++++++++++    ++++========++++ ++++========++++ ++++========++++ ++++========++++ ++++========++++ ++++========++++ ++++>>====>>++++ ++++>>====>>++++ +++++++@@@@@@@@@ @@@@@@@@@+++++++  +++++++++++++++++++++++++    ++++========++++ ++++========++++ ++++========++++ ++++========++++ ++++========++++ ++++========++++ ++++--====--++++ ++++--====--++++ +++++++@@@@@@@@@ @@@@@@@@@+++++++  +++++++++++++++++++++++++    ++++>>>>>>>>++++ ++++>>>>>>>>++++ ++++>>>>>>>>++++ ++++>>>>>>>>++++ ++++>>>>>>>>++++ ++++>>>>>>>>++++ ++++-->>>>--++++ ++++-->>>>--++++ +++++++%%%%%%%%% %%%%%%%%%+++++++  +++++++++++++++++++++++++   ",
" +++@@@@@@@@@@+++ +++@@@@@@@@@@+++ +++@@@@@@@@@@+++ +++@@@@@@@@@@+++ +++@@@@@@@@@@+++ +++@@@@@@@@@@+++ +++=&&=@@=&&=+++ +++=&&=@@=&&=+++ ++++++========== ==========++++++  +++++++++++++++++++++++++    +++&&&&&&&&&&+++ +++&&&&&&&&&&+++ +++&&&&&&&&&&+++ +++&&&&&&&&&&+++ +++&&&&&&&&&&+++ +++&&&&&&&&&&+++ +++=**=&&=**=+++ +++=**=&&=**=+++ ++++++========== ==========++++++  +++++++++++++++++++++++++    +++==========+++ +++==========+++ +++==========+++ +++==========+++ +++==========+++ +++==========+++ +++@>>@==@>>@+++ +++@>>@==@>>@+++ ++++++@@@@@@@@@@ @@@@@@@@@@++++++  +++++++++++++++++++++++++    +++==========+++ +++==========+++ +++==========+++ +++==========+++ +++==========+++ +++==========+++ +++@--@==@--@+++ +++@--@==@--@+++ ++++++@@@@@@@@@@ @@@@@@@@@@++++++  +++++++++++++++++++++++++    +++>>>>>>>>>>+++ +++>>>>>>>>>>+++ +++>>>>>>>>>>+++ +++>>>>>>>>>>+++ +++>>>>>>>>>>+++ +++>>>>>>>>>>+++ +++%--%>>%--%+++ +++%--%>>%--%+++ ++++++%%%%%%%%%% %%%%%%%%%%++++++  +++++++++++++++++++++++++   ",
" ++@@@==@@@@==@++ ++@@@==@@@@==@++ ++@@@@@@@@@@@@++ ++@@@@@@@@@@@@++ ++@==@@@@==@@@++ ++@==@@@@==@@@++ ++@====@@====@++ ++@====@@====@++ +++++=========== ===========+++++  +++++++++++++++++++++++++    ++&&&==&&&&==&++ ++&&&==&&&&==&++ ++&&&&&&&&&&&&++ ++&&&&&&&&&&&&++ ++&==&&&&==&&&++ ++&==&&&&==&&&++ ++&====&&====&++ ++&====&&====&++ +++++=========== ===========+++++  +++++++++++++++++++++++++    ++===@@====@@=++ ++===@@====@@=++ ++============++ ++============++ ++=@@====@@===++ ++=@@====@@===++ ++=@@@@==@@@@=++ ++=@@@@==@@@@=++ +++++@@@@@@@@@@@ @@@@@@@@@@@+++++  +++++++++++++++++++++++++    ++===@@====@@=++ ++===@@====@@=++ ++============++ ++============++ ++=@@====@@===++ ++=@@====@@===++ ++=@@@@==@@@@=++ ++=@@@@==@@@@=++ +++++@@@@@@@@@@@ @@@@@@@@@@@+++++  +++++++++++++++++++++++++    ++>>>%%>>>>%%>++ ++>>>%%>>>>%%>++ ++>>>>>>>>>>>>++ ++>>>>>>>>>>>>++ ++>%%>>>>%%>>>++ ++>%%>>>>%%>>>++ ++>%%%%>>%%%%>++ ++>%%%%>>%%%%>++ +++++%%%%%%%%%%% %%%%%%%%%%%+++++  +++++++++++++++++++++++++   ",
" ++@@====@@====++ ++@@====@@====++ ++@@==@@@@==@@++ ++@@==@@@@==@@++ ++====@@====@@++ ++====@@====@@++ ++@====@@====@++ ++@====@@====@++ ++++============ ============++++  +++++++++++++++++++++++++    ++&&====&&====++ ++&&====&&====++ ++&&==&&&&==&&++ ++&&==&&&&==&&++ ++====&&====&&++ ++====&&====&&++ ++&====&&====&++ ++&====&&====&++ ++++============ ============++++  +++++++++++++++++++++++++    ++==@@@@==@@@@++ ++==@@@@==@@@@++ ++==@@====@@==++ ++==@@====@@==++ ++@@@@==@@@@==++ ++@@@@==@@@@==++ ++=@@@@==@@@@=++ ++=@@@@==@@@@=++ ++++@@@@@@@@@@@@ @@@@@@@@@@@@++++  +++++++++++++++++++++++++    ++==@@@@==@@@@++ ++==@@@@==@@@@++ ++==@@====@@==++ ++==@@====@@==++ ++@@@@==@@@@==++ ++@@@@==@@@@==++ ++=@@@@==@@@@=++ ++=@@@@==@@@@=++ ++++@@@@@@@@@@@@ @@@@@@@@@@@@++++  +++++++++++++++++++++++++    ++>>%%%%>>%%%%++ ++>>%%%%>>%%%%++ ++>>%%>>>>%%>>++ ++>>%%>>>>%%>>++ ++%%%%>>%%%%>>++ ++%%%%>>%%%%>>++ ++>%%%%>>%%%%>++ ++>%%%%>>%%%%>++ ++++%%%%%%%%%%%% %%%%%%%%%%%%++++  +++++++++++++++++++++++++   ",
" ++@@==&&@@==&&++ ++@@==&&@@==&&++ ++@====@@====@++ ++@====@@====@++ ++&&==@@&&==@@++ ++&&==@@&&==@@++ ++@@==@@@@==@@++ ++@@==@@@@==@@++ +++============= =============+++  +++++++++++++++++++++++++    ++&&==**&&==**++ ++&&==**&&==**++ ++&====&&====&++ ++&====&&====&++ ++**==&&**==&&++ ++**==&&**==&&++ ++&&==&&&&==&&++ ++&&==&&&&==&&++ +++============= =============+++  +++++++++++++++++++++++++    ++==@@>>==@@>>++ ++==@@>>==@@>>++ ++=@@@@==@@@@=++ ++=@@@@==@@@@=++ ++>>@@==>>@@==++ ++>>@@==>>@@==++ ++==@@====@@==++ ++==@@====@@==++ +++@@@@@@@@@@@@@ @@@@@@@@@@@@@+++  +++++++++++++++++++++++++    ++==@@--==@@--++ ++==@@--==@@--++ ++=@@@@==@@@@=++ ++=@@@@==@@@@=++ ++--@@==--@@==++ ++--@@==--@@==++ ++==@@====@@==++ ++==@@====@@==++ +++@@@@@@@@@@@@@ @@@@@@@@@@@@@+++  +++++++++++++++++++++++++    ++>>%%-->>%%--++ ++>>%%-->>%%--++ ++>%%%%>>%%%%>++ ++>%%%%>>%%%%>++ ++--%%>>--%%>>++ ++--%%>>--%%>>++ ++>>%%>>>>%%>>++ ++>>%%>>>>%%>>++ +++%%%%%%%%%%%%% %%%%%%%%%%%%%+++  +++++++++++++++++++++++++   ",
" +@@@==&&@@==&&@+ +@@@==&&@@==&&@+ +@@====@@====@@+ +@@====@@====@@+ +@&&==@@&&==@@@+ +@&&==@@&&==@@@+ +@@@@@@@@@@@@@@+ +@@@@@@@@@@@@@@+ ++============== ==============++  +++++++++++++++++++++++++    +&&&==**&&==**&+ +&&&==**&&==**&+ +&&====&&====&&+ +&&====&&====&&+ +&**==&&**==&&&+ +&**==&&**==&&&+ +&&&&&&&&&&&&&&+ +&&&&&&&&&&&&&&+ ++============== ==============++  +++++++++++++++++++++++++    +===@@>>==@@>>=+ +===@@>>==@@>>=+ +==@@@@==@@@@==+ +==@@@@==@@@@==+ +=>>@@==>>@@===+ +=>>@@==>>@@===+ +==============+ +==============+ ++@@@@@@@@@@@@@@ @@@@@@@@@@@@@@++  +++++++++++++++++++++++++    +===@@--==@@--=+ +===@@--==@@--=+ +==@@@@==@@@@==+ +==@@@@==@@@@==+ +=--@@==--@@===+ +=--@@==--@@===+ +==============+ +==============+ ++@@@@@@@@@@@@@@ @@@@@@@@@@@@@@++  +++++++++++++++++++++++++    +>>>%%-->>%%-->+ +>>>%%-->>%%-->+ +>>%%%%>>%%%%>>+ +>>%%%%>>%%%%>>+ +>--%%>>--%%>>>+ +>--%%>>--%%>>>+ +>>>>>>>>>>>>>>+ +>>>>>>>>>>>>>>+ ++%%%%%%%%%%%%%% %%%%%%%%%%%%%%++  +++++++++++++++++++++++++   ",
" +@@@@==@@@@==@@+ +@@@@==@@@@==@@+ +@@=&&=@@=&&=@@+ +@@=&&=@@=&&=@@+ +@@==@@@@==@@@@+ +@@==@@@@==@@@@+ +@@@@@@@@@@@@@@+ +@@@@@@@@@@@@@@+ ++============== ==============++  +++++++++++++++++++++++++    +&&&&==&&&&==&&+ +&&&&==&&&&==&&+ +&&=**=&&=**=&&+ +&&=**=&&=**=&&+ +&&==&&&&==&&&&+ +&&==&&&&==&&&&+ +&&&&&&&&&&&&&&+ +&&&&&&&&&&&&&&+ ++============== ==============++  +++++++++++++++++++++++++    +====@@====@@==+ +====@@====@@==+ +==@>>@==@>>@==+ +==@>>@==@>>@==+ +==@@====@@====+ +==@@====@@====+ +==============+ +==============+ ++@@@@@@@@@@@@@@ @@@@@@@@@@@@@@++  +++++++++++++++++++++++++    +====@@====@@==+ +====@@====@@==+ +==@--@==@--@==+ +==@--@==@--@==+ +==@@====@@====+ +==@@====@@====+ +==============+ +==============+ ++@@@@@@@@@@@@@@ @@@@@@@@@@@@@@++  +++++++++++++++++++++++++    +>>>>%%>>>>%%>>+ +>>>>%%>>>>%%>>+ +>>%--%>>%--%>>+ +>>%--%>>%--%>>+ +>>%%>>>>%%>>>>+ +>>%%>>>>%%>>>>+ +>>>>>>>>>>>>>>+ +>>>>>>>>>>>>>>+ ++%%%%%%%%%%%%%% %%%%%%%%%%%%%%++  +++++++++++++++++++++++++   ",
" +@@@@@@@@@@@@@@+ +@@@@@@@@@@@@@@+ +@@@&&@@@@&&@@@+ +@@@&&@@@@&&@@@+ +@@@@@@@@@@@@@@+ +@@@@@@@@@@@@@@+ +@@@@@@@@@@@@@@+ +@@@@@@@@@@@@@@+ +=============== ===============+  +++++++++++++++++++++++++    +&&&&&&&&&&&&&&+ +&&&&&&&&&&&&&&+ +&&&**&&&&**&&&+ +&&&**&&&&**&&&+ +&&&&&&&&&&&&&&+ +&&&&&&&&&&&&&&+ +&&&&&&&&&&&&&&+ +&&&&&&&&&&&&&&+ +=============== ===============+  +++++++++++++++++++++++++    +==============+ +==============+ +===>>====>>===+ +===>>====>>===+ +==============+ +==============+ +==============+ +==============+ +@@@@@@@@@@@@@@@ @@@@@@@@@@@@@@@+  +++++++++++++++++++++++++    +==============+ +==============+ +===--====--===+ +===--====--===+ +==============+ +==============+ +==============+ +==============+ +@@@@@@@@@@@@@@@ @@@@@@@@@@@@@@@+  +++++++++++++++++++++++++    +>>>>>>>>>>>>>>+ +>>>>>>>>>>>>>>+ +>>>-->>>>-->>>+ +>>>-->>>>-->>>+ +>>>>>>>>>>>>>>+ +>>>>>>>>>>>>>>+ +>>>>>>>>>>>>>>+ +>>>>>>>>>>>>>>+ +%%%%%%%%%%%%%%% %%%%%%%%%%%%%%%+  +++++++++++++++++++++++++   ",
" +@@@@@@@@@@@@@@+ +@@@@@@@@@@@@@@+ +@@@@@@@@@@@@@@+ +@@@@@@@@@@@@@@+ +@@@@@@@@@@@@@@+ +@@@@@@@@@@@@@@+ +@@@@@@@@@@@@@@+ +@@@@@@@@@@@@@@+ +=============== ===============+  +++++++++++++++++++++++++    +&&&&&&&&&&&&&&+ +&&&&&&&&&&&&&&+ +&&&&&&&&&&&&&&+ +&&&&&&&&&&&&&&+ +&&&&&&&&&&&&&&+ +&&&&&&&&&&&&&&+ +&&&&&&&&&&&&&&+ +&&&&&&&&&&&&&&+ +=============== ===============+  +++++++++++++++++++++++++    +==============+ +==============+ +==============+ +==============+ +==============+ +==============+ +==============+ +==============+ +@@@@@@@@@@@@@@@ @@@@@@@@@@@@@@@+  +++++++++++++++++++++++++    +==============+ +==============+ +==============+ +==============+ +==============+ +==============+ +==============+ +==============+ +@@@@@@@@@@@@@@@ @@@@@@@@@@@@@@@+  +++++++++++++++++++++++++    +>>>>>>>>>>>>>>+ +>>>>>>>>>>>>>>+ +>>>>>>>>>>>>>>+ +>>>>>>>>>>>>>>+ +>>>>>>>>>>>>>>+ +>>>>>>>>>>>>>>+ +>>>>>>>>>>>>>>+ +>>>>>>>>>>>>>>+ +%%%%%%%%%%%%%%% %%%%%%%%%%%%%%%+  +++++++++++++++++++++++++   ",
" +@@@@@@@@@@@@@@+ +@@@@@@@@@@@@@@+ +@@@@@@@@@@@@@@+ +@@@@@@@@@@@@@@+ +@@@@@@@@@@@@@@+ +@@@@@@@@@@@@@@+ +@@@@@@@@@@@@@@+ +@@@@@@@@@@@@@@+ +=============== ===============+  +++++++++++++++++++++++++    +&&&&&&&&&&&&&&+ +&&&&&&&&&&&&&&+ +&&&&&&&&&&&&&&+ +&&&&&&&&&&&&&&+ +&&&&&&&&&&&&&&+ +&&&&&&&&&&&&&&+ +&&&&&&&&&&&&&&+ +&&&&&&&&&&&&&&+ +=============== ===============+  +++++++++++++++++++++++++    +==============+ +==============+ +==============+ +==============+ +==============+ +==============+ +==============+ +==============+ +@@@@@@@@@@@@@@@ @@@@@@@@@@@@@@@+  +++++++++++++++++++++++++    +==============+ +==============+ +==============+ +==============+ +==============+ +==============+ +==============+ +==============+ +@@@@@@@@@@@@@@@ @@@@@@@@@@@@@@@+  +++++++++++++++++++++++++    +>>>>>>>>>>>>>>+ +>>>>>>>>>>>>>>+ +>>>>>>>>>>>>>>+ +>>>>>>>>>>>>>>+ +>>>>>>>>>>>>>>+ +>>>>>>>>>>>>>>+ +>>>>>>>>>>>>>>+ +>>>>>>>>>>>>>>+ +%%%%%%%%%%%%%%% %%%%%%%%%%%%%%%+  +++++++++++++++++++++++++   ",
" +@@@@@@@@@@@@@@+ +@@@@@@@@@@@@@@+ +@@@@@@@@@@@@@@+ +@@@@@@@@@@@@@@+ +@@@@@@@@@@@@@@+ +@@@@@@@@@@@@@@+ +@@@@@@@@@@@@@@+ +@@@@@@@@@@@@@@+ ================ ================  +++++++++++++++++++++++++    +&&&&&&&&&&&&&&+ +&&&&&&&&&&&&&&+ +&&&&&&&&&&&&&&+ +&&&&&&&&&&&&&&+ +&&&&&&&&&&&&&&+ +&&&&&&&&&&&&&&+ +&&&&&&&&&&&&&&+ +&&&&&&&&&&&&&&+ ================ ================  +++++++++++++++++++++++++    +==============+ +==============+ +==============+ +==============+ +==============+ +==============+ +==============+ +==============+ @@@@@@@@@@@@@@@@ @@@@@@@@@@@@@@@@  +++++++++++++++++++++++++    +==============+ +==============+ +==============+ +==============+ +==============+ +==============+ +==============+ +==============+ @@@@@@@@@@@@@@@@ @@@@@@@@@@@@@@@@  +++++++++++++++++++++++++    +>>>>>>>>>>>>>>+ +>>>>>>>>>>>>>>+ +>>>>>>>>>>>>>>+ +>>>>>>>>>>>>>>+ +>>>>>>>>>>>>>>+ +>>>>>>>>>>>>>>+ +>>>>>>>>>>>>>>+ +>>>>>>>>>>>>>>+ %%%%%%%%%%%%%%%% %%%%%%%%%%%%%%%%  +++++++++++++++++++++++++   ",
" +@@+@@@++@@@+@@+ +@@@@+@@@@+@@@@+ +@@+@@@++@@@+@@+ +@@@@+@@@@+@@@@+ +@@+@@@++@@@+@@+ +@@@@+@@@@+@@@@+ +@@+@@@++@@@+@@+ +@@@@+@@@@+@@@@+ ================ ================  +++++++++++++++++++++++++    +&&+&&&++&&&+&&+ +&&&&+&&&&+&&&&+ +&&+&&&++&&&+&&+ +&&&&+&&&&+&&&&+ +&&+&&&++&&&+&&+ +&&&&+&&&&+&&&&+ +&&+&&&++&&&+&&+ +&&&&+&&&&+&&&&+ ================ ================  +++++++++++++++++++++++++    +==+===++===+==+ +====+====+====+ +==+===++===+==+ +====+====+====+ +==+===++===+==+ +====+====+====+ +==+===++===+==+ +====+====+====+ @@@@@@@@@@@@@@@@ @@@@@@@@@@@@@@@@  +++++++++++++++++++++++++    +==+===++===+==+ +====+====+====+ +==+===++===+==+ +====+====+====+ +==+===++===+==+ +====+====+====+ +==+===++===+==+ +====+====+====+ @@@@@@@@@@@@@@@@ @@@@@@@@@@@@@@@@  +++++++++++++++++++++++++    +>>+>>>++>>>+>>+ +>>>>+>>>>+>>>>+ +>>+>>>++>>>+>>+ +>>>>+>>>>+>>>>+ +>>+>>>++>>>+>>+ +>>>>+>>>>+>>>>+ +>>+>>>++>>>+>>+ +>>>>+>>>>+>>>>+ %%%%%%%%%%%%%%%% %%%%%%%%%%%%%%%%  +++++++++++++++++++++++++   ",
" +@+++@@++@@+++@+ ++@@+++@@+++@@++ +@+++@@++@@+++@+ ++@@+++@@+++@@++ +@+++@@++@@+++@+ ++@@+++@@+++@@++ +@+++@@++@@+++@+ ++@@+++@@+++@@++ ================ ================  +++++++++++++++++++++++++    +&+++&&++&&+++&+ ++&&+++&&+++&&++ +&+++&&++&&+++&+ ++&&+++&&+++&&++ +&+++&&++&&+++&+ ++&&+++&&+++&&++ +&+++&&++&&+++&+ ++&&+++&&+++&&++ ================ ================  +++++++++++++++++++++++++    +=+++==++==+++=+ ++==+++==+++==++ +=+++==++==+++=+ ++==+++==+++==++ +=+++==++==+++=+ ++==+++==+++==++ +=+++==++==+++=+ ++==+++==+++==++ @@@@@@@@@@@@@@@@ @@@@@@@@@@@@@@@@  +++++++++++++++++++++++++    +=+++==++==+++=+ ++==+++==+++==++ +=+++==++==+++=+ ++==+++==+++==++ +=+++==++==+++=+ ++==+++==+++==++ +=+++==++==+++=+ ++==+++==+++==++ @@@@@@@@@@@@@@@@ @@@@@@@@@@@@@@@@  +++++++++++++++++++++++++    +>+++>>++>>+++>+ ++>>+++>>+++>>++ +>+++>>++>>+++>+ ++>>+++>>+++>>++ +>+++>>++>>+++>+ ++>>+++>>+++>>++ +>+++>>++>>+++>+ ++>>+++>>+++>>++ %%%%%%%%%%%%%%%% %%%%%%%%%%%%%%%%  +++++++++++++++++++++++++   ",
" ++++++++++++++++ ++++++++++++++++ ++++++++++++++++ ++++++++++++++++ ++++++++++++++++ ++++++++++++++++ ++++++++++++++++ ++++++++++++++++ ================ ================  +++++++++++++++++++++++++    ++++++++++++++++ ++++++++++++++++ ++++++++++++++++ ++++++++++++++++ ++++++++++++++++ ++++++++++++++++ ++++++++++++++++ ++++++++++++++++ ================ ================  +++++++++++++++++++++++++    ++++++++++++++++ ++++++++++++++++ ++++++++++++++++ ++++++++++++++++ ++++++++++++++++ ++++++++++++++++ ++++++++++++++++ ++++++++++++++++ @@@@@@@@@@@@@@@@ @@@@@@@@@@@@@@@@  +++++++++++++++++++++++++    ++++++++++++++++ ++++++++++++++++ ++++++++++++++++ ++++++++++++++++ ++++++++++++++++ ++++++++++++++++ ++++++++++++++++ ++++++++++++++++ @@@@@@@@@@@@@@@@ @@@@@@@@@@@@@@@@  +++++++++++++++++++++++++    ++++++++++++++++ ++++++++++++++++ ++++++++++++++++ ++++++++++++++++ ++++++++++++++++ ++++++++++++++++ ++++++++++++++++ ++++++++++++++++ %%%%%%%%%%%%%%%% %%%%%%%%%%%%%%%%  +++++++++++++++++++++++++   ",
"                                                                                                                                                                            +++++++++++++++++++++++++                                                                                                                                                                               +++++++++++++++++++++++++                                                                                                                                                                               +++++++++++++++++++++++++                                                                                                                                                                               +++++++++++++++++++++++++                                                                                                                                                                               +++++++++++++++++++++++++   ",
" ++++++++++++++++ ++++++++++++++++ ++++++++++++++++ ++++++++++++++++ ++++++++++++++++ ++++++++++++++++ ++++++++++++++++ ++++++++++++++++ ================ ================  +++++++++++++++++++++++++    ++++++++++++++++ ++++++++++++++++ ++++++++++++++++ ++++++++++++++++ ++++++++++++++++ ++++++++++++++++ ++++++++++++++++ ++++++++++++++++ ================ ================  +++++++++++++++++++++++++    ++++++++++++++++ ++++++++++++++++ ++++++++++++++++ ++++++++++++++++ ++++++++++++++++ ++++++++++++++++ ++++++++++++++++ ++++++++++++++++ @@@@@@@@@@@@@@@@ @@@@@@@@@@@@@@@@  +++++++++++++++++++++++++    ++++++++++++++++ ++++++++++++++++ ++++++++++++++++ ++++++++++++++++ ++++++++++++++++ ++++++++++++++++ ++++++++++++++++ ++++++++++++++++ @@@@@@@@@@@@@@@@ @@@@@@@@@@@@@@@@  +++++++++++++++++++++++++    ++++++++++++++++ ++++++++++++++++ ++++++++++++++++ ++++++++++++++++ ++++++++++++++++ ++++++++++++++++ ++++++++++++++++ ++++++++++++++++ %%%%%%%%%%%%%%%% %%%%%%%%%%%%%%%%  +++++++++++++++++++++++++   ",
" ++++++@@@@++++++ ++++++@@@@++++++ ++++++@@@@++++++ ++++++@@@@++++++ ++++++++++++++++ ++++++++++++++++ ++++++++++++++++ ++++++++++++++++ ================ ================  +++++++++++++++++++++++++    ++++++&&&&++++++ ++++++&&&&++++++ ++++++&&&&++++++ ++++++&&&&++++++ ++++++++++++++++ ++++++++++++++++ ++++++++++++++++ ++++++++++++++++ ================ ================  +++++++++++++++++++++++++    ++++++====++++++ ++++++====++++++ ++++++====++++++ ++++++====++++++ ++++++++++++++++ ++++++++++++++++ ++++++++++++++++ ++++++++++++++++ @@@@@@@@@@@@@@@@ @@@@@@@@@@@@@@@@  +++++++++++++++++++++++++    ++++++====++++++ ++++++====++++++ ++++++====++++++ ++++++====++++++ ++++++++++++++++ ++++++++++++++++ ++++++++++++++++ ++++++++++++++++ @@@@@@@@@@@@@@@@ @@@@@@@@@@@@@@@@  +++++++++++++++++++++++++    ++++++>>>>++++++ ++++++>>>>++++++ ++++++>>>>++++++ ++++++>>>>++++++ ++++++++++++++++ ++++++++++++++++ ++++++++++++++++ ++++++++++++++++ %%%%%%%%%%%%%%%% %%%%%%%%%%%%%%%%  +++++++++++++++++++++++++   ",
" ++++++@@@@++++++ ++++@@@@@@@@++++ ++++@@@@@@@@++++ ++++@@@@@@@@++++ ++++++++++++++++ ++++++++++++++++ ++++++++++++++++ ++++++++++++++++ ================ ================  +++++++++++++++++++++++++    ++++++&&&&++++++ ++++&&&&&&&&++++ ++++&&&&&&&&++++ ++++&&&&&&&&++++ ++++++++++++++++ ++++++++++++++++ ++++++++++++++++ ++++++++++++++++ ================ ================  +++++++++++++++++++++++++    ++++++====++++++ ++++========++++ ++++========++++ ++++========++++ ++++++++++++++++ ++++++++++++++++ ++++++++++++++++ ++++++++++++++++ @@@@@@@@@@@@@@@@ @@@@@@@@@@@@@@@@  +++++++++++++++++++++++++    ++++++====++++++ ++++========++++ ++++========++++ ++++========++++ ++++++++++++++++ ++++++++++++++++ ++++++++++++++++ ++++++++++++++++ @@@@@@@@@@@@@@@@ @@@@@@@@@@@@@@@@  +++++++++++++++++++++++++    ++++++>>>>++++++ ++++>>>>>>>>++++ ++++>>>>>>>>++++ ++++>>>>>>>>++++ ++++++++++++++++ ++++++++++++++++ ++++++++++++++++ ++++++++++++++++ %%%%%%%%%%%%%%%% %%%%%%%%%%%%%%%%  +++++++++++++++++++++++++   ",
" +++=++=@@=++=+++ +++@==@@@@==@+++ +++@@@@@@@@@@+++ +++@@@@@@@@@@+++ ++++++++++++++++ ++++++++++++++++ ++++++++++++++++ ++++++++++++++++ ================ ================  +++++++++++++++++++++++++    +++=++=&&=++=+++ +++&==&&&&==&+++ +++&&&&&&&&&&+++ +++&&&&&&&&&&+++ ++++++++++++++++ ++++++++++++++++ ++++++++++++++++ ++++++++++++++++ ================ ================  +++++++++++++++++++++++++    +++@++@==@++@+++ +++=@@====@@=+++ +++==========+++ +++==========+++ ++++++++++++++++ ++++++++++++++++ ++++++++++++++++ ++++++++++++++++ @@@@@@@@@@@@@@@@ @@@@@@@@@@@@@@@@  +++++++++++++++++++++++++    +++@++@==@++@+++ +++=@@====@@=+++ +++==========+++ +++==========+++ ++++++++++++++++ ++++++++++++++++ ++++++++++++++++ ++++++++++++++++ @@@@@@@@@@@@@@@@ @@@@@@@@@@@@@@@@  +++++++++++++++++++++++++    +++%++%>>%++%+++ +++>%%>>>>%%>+++ +++>>>>>>>>>>+++ +++>>>>>>>>>>+++ ++++++++++++++++ ++++++++++++++++ ++++++++++++++++ ++++++++++++++++ %%%%%%%%%%%%%%%% %%%%%%%%%%%%%%%%  +++++++++++++++++++++++++   ",
" ++@====@@====@++ ++@====@@====@++ ++@==@@@@==@@@++ ++@==@@@@==@@@++ +++++++++==+==++ +++++++++==+==++ ++++++++++++++++ ++++++++++++++++ +=============== ===============+  +++++++++++++++++++++++++    ++&====&&====&++ ++&====&&====&++ ++&==&&&&==&&&++ ++&==&&&&==&&&++ +++++++++==+==++ +++++++++==+==++ ++++++++++++++++ ++++++++++++++++ +=============== ===============+  +++++++++++++++++++++++++    ++=@@@@==@@@@=++ ++=@@@@==@@@@=++ ++=@@====@@===++ ++=@@====@@===++ +++++++++@@+@@++ +++++++++@@+@@++ ++++++++++++++++ ++++++++++++++++ +@@@@@@@@@@@@@@@ @@@@@@@@@@@@@@@+  +++++++++++++++++++++++++    ++=@@@@==@@@@=++ ++=@@@@==@@@@=++ ++=@@====@@===++ ++=@@====@@===++ +++++++++@@+@@++ +++++++++@@+@@++ ++++++++++++++++ ++++++++++++++++ +@@@@@@@@@@@@@@@ @@@@@@@@@@@@@@@+  +++++++++++++++++++++++++    ++>%%%%>>%%%%>++ ++>%%%%>>%%%%>++ ++>%%>>>>%%>>>++ ++>%%>>>>%%>>>++ +++++++++%%+%%++ +++++++++%%+%%++ ++++++++++++++++ ++++++++++++++++ +%%%%%%%%%%%%%%% %%%%%%%%%%%%%%%+  +++++++++++++++++++++++++   ",
" ++@====@@====@++ ++@====@@====@++ ++====@@====@@++ ++====@@====@@++ ++++++++==&&=&&+ ++++++++==&&=&&+ ++++++++++++++++ ++++++++++++++++ +=============== ===============+  +++++++++++++++++++++++++    ++&====&&====&++ ++&====&&====&++ ++====&&====&&++ ++====&&====&&++ ++++++++==**=**+ ++++++++==**=**+ ++++++++++++++++ ++++++++++++++++ +=============== ===============+  +++++++++++++++++++++++++    ++=@@@@==@@@@=++ ++=@@@@==@@@@=++ ++@@@@==@@@@==++ ++@@@@==@@@@==++ ++++++++@@>>@>>+ ++++++++@@>>@>>+ ++++++++++++++++ ++++++++++++++++ +@@@@@@@@@@@@@@@ @@@@@@@@@@@@@@@+  +++++++++++++++++++++++++    ++=@@@@==@@@@=++ ++=@@@@==@@@@=++ ++@@@@==@@@@==++ ++@@@@==@@@@==++ ++++++++@@--@--+ ++++++++@@--@--+ ++++++++++++++++ ++++++++++++++++ +@@@@@@@@@@@@@@@ @@@@@@@@@@@@@@@+  +++++++++++++++++++++++++    ++>%%%%>>%%%%>++ ++>%%%%>>%%%%>++ ++%%%%>>%%%%>>++ ++%%%%>>%%%%>>++ ++++++++%%--%--+ ++++++++%%--%--+ ++++++++++++++++ ++++++++++++++++ +%%%%%%%%%%%%%%% %%%%%%%%%%%%%%%+  +++++++++++++++++++++++++   ",
" ++@@==@@@@==@@++ ++@==++@@==++@++ ++&&==@@&&==@@++ ++&&==@@&&==@@++ ++++++++==&&=&&+ ++++++++==&&=&&+ ++++++++++++++++ ++++++++++++++++ +=============== ===============+  +++++++++++++++++++++++++    ++&&==&&&&==&&++ ++&==++&&==++&++ ++**==&&**==&&++ ++**==&&**==&&++ ++++++++==**=**+ ++++++++==**=**+ ++++++++++++++++ ++++++++++++++++ +=============== ===============+  +++++++++++++++++++++++++    ++==@@====@@==++ ++=@@++==@@++=++ ++>>@@==>>@@==++ ++>>@@==>>@@==++ ++++++++@@>>@>>+ ++++++++@@>>@>>+ ++++++++++++++++ ++++++++++++++++ +@@@@@@@@@@@@@@@ @@@@@@@@@@@@@@@+  +++++++++++++++++++++++++    ++==@@====@@==++ ++=@@++==@@++=++ ++--@@==--@@==++ ++--@@==--@@==++ ++++++++@@--@--+ ++++++++@@--@--+ ++++++++++++++++ ++++++++++++++++ +@@@@@@@@@@@@@@@ @@@@@@@@@@@@@@@+  +++++++++++++++++++++++++    ++>>%%>>>>%%>>++ ++>%%++>>%%++>++ ++--%%>>--%%>>++ ++--%%>>--%%>>++ ++++++++%%--%--+ ++++++++%%--%--+ ++++++++++++++++ ++++++++++++++++ +%%%%%%%%%%%%%%% %%%%%%%%%%%%%%%+  +++++++++++++++++++++++++   ",
" +@@@@@@@@@@@@@@+ +@@@=+@@@@=+@@@+ +@&&==@@&&==@@@+ +@&&==@@&&==@@@+ +++++++@@==@==++ +++++++@@==@==++ ++++++++++++++++ ++++++++++++++++ ++============== ==============++  +++++++++++++++++++++++++    +&&&&&&&&&&&&&&+ +&&&=+&&&&=+&&&+ +&**==&&**==&&&+ +&**==&&**==&&&+ +++++++&&==&==++ +++++++&&==&==++ ++++++++++++++++ ++++++++++++++++ ++============== ==============++  +++++++++++++++++++++++++    +==============+ +===@+====@+===+ +=>>@@==>>@@===+ +=>>@@==>>@@===+ +++++++==@@=@@++ +++++++==@@=@@++ ++++++++++++++++ ++++++++++++++++ ++@@@@@@@@@@@@@@ @@@@@@@@@@@@@@++  +++++++++++++++++++++++++    +==============+ +===@+====@+===+ +=--@@==--@@===+ +=--@@==--@@===+ +++++++==@@=@@++ +++++++==@@=@@++ ++++++++++++++++ ++++++++++++++++ ++@@@@@@@@@@@@@@ @@@@@@@@@@@@@@++  +++++++++++++++++++++++++    +>>>>>>>>>>>>>>+ +>>>%+>>>>%+>>>+ +>--%%>>--%%>>>+ +>--%%>>--%%>>>+ +++++++>>%%>%%++ +++++++>>%%>%%++ ++++++++++++++++ ++++++++++++++++ ++%%%%%%%%%%%%%% %%%%%%%%%%%%%%++  +++++++++++++++++++++++++   ",
" +@@@@@@@@@@@@&++ +@@@@@@@@@@@@&++ +@@==@@@@==@=@=+ +@@==@@@@==@=@=+ +++++@@@@@@@@+++ +++++++@@@@@@+++ ++++++++++++++++ ++++++++++++++++ ++============== ==============++  =========================    +&&&&&&&&&&&&*++ +&&&&&&&&&&&&*++ +&&==&&&&==&=&=+ +&&==&&&&==&=&=+ +++++&&&&&&&&+++ +++++++&&&&&&+++ ++++++++++++++++ ++++++++++++++++ ++============== ==============++  =========================    +============>++ +============>++ +==@@====@@=@=@+ +==@@====@@=@=@+ +++++========+++ +++++++======+++ ++++++++++++++++ ++++++++++++++++ ++@@@@@@@@@@@@@@ @@@@@@@@@@@@@@++  @@@@@@@@@@@@@@@@@@@@@@@@@    +============-++ +============-++ +==@@====@@=@=@+ +==@@====@@=@=@+ +++++========+++ +++++++======+++ ++++++++++++++++ ++++++++++++++++ ++@@@@@@@@@@@@@@ @@@@@@@@@@@@@@++  @@@@@@@@@@@@@@@@@@@@@@@@@    +>>>>>>>>>>>>-++ +>>>>>>>>>>>>-++ +>>%%>>>>%%>%>%+ +>>%%>>>>%%>%>%+ +++++>>>>>>>>+++ +++++++>>>>>>+++ ++++++++++++++++ ++++++++++++++++ ++%%%%%%%%%%%%%% %%%%%%%%%%%%%%++  %%%%%%%%%%%%%%%%%%%%%%%%%   ",
" +@@@@@@@@@@@&&++ +@@@@@@@@@@@&&++ +@@@@@@@@@@=@=@+ +@@@@@@@@@@=@=@+ ++++@@@@@@@@++++ ++++++@@@@@@@+++ ++++++++++++++++ ++++++++++++++++ +++============= =============+++  =========================    +&&&&&&&&&&&**++ +&&&&&&&&&&&**++ +&&&&&&&&&&=&=&+ +&&&&&&&&&&=&=&+ ++++&&&&&&&&++++ ++++++&&&&&&&+++ ++++++++++++++++ ++++++++++++++++ +++============= =============+++  =========================    +===========>>++ +===========>>++ +==========@=@=+ +==========@=@=+ ++++========++++ ++++++=======+++ ++++++++++++++++ ++++++++++++++++ +++@@@@@@@@@@@@@ @@@@@@@@@@@@@+++  @@@@@@@@@@@@@@@@@@@@@@@@@    +===========--++ +===========--++ +==========@=@=+ +==========@=@=+ ++++========++++ ++++++=======+++ ++++++++++++++++ ++++++++++++++++ +++@@@@@@@@@@@@@ @@@@@@@@@@@@@+++  @@@@@@@@@@@@@@@@@@@@@@@@@    +>>>>>>>>>>>--++ +>>>>>>>>>>>--++ +>>>>>>>>>>%>%>+ +>>>>>>>>>>%>%>+ ++++>>>>>>>>++++ ++++++>>>>>>>+++ ++++++++++++++++ ++++++++++++++++ +++%%%%%%%%%%%%% %%%%%%%%%%%%%+++  %%%%%%%%%%%%%%%%%%%%%%%%%   ",
" +@@@@@@@@@@&&&++ +@@@@@@@@@@&&&++ +@@@@@@@@@=@@@@+ +@@@@@@@@@=@@@@+ +++@@@@@@@@@++++ +++++@@@@@@@@+++ ++++++++++++++++ ++++++++++++++++ ++++============ ============++++  =========================    +&&&&&&&&&&***++ +&&&&&&&&&&***++ +&&&&&&&&&=&&&&+ +&&&&&&&&&=&&&&+ +++&&&&&&&&&++++ +++++&&&&&&&&+++ ++++++++++++++++ ++++++++++++++++ ++++============ ============++++  =========================    +==========>>>++ +==========>>>++ +=========@====+ +=========@====+ +++=========++++ +++++========+++ ++++++++++++++++ ++++++++++++++++ ++++@@@@@@@@@@@@ @@@@@@@@@@@@++++  @@@@@@@@@@@@@@@@@@@@@@@@@    +==========---++ +==========---++ +=========@====+ +=========@====+ +++=========++++ +++++========+++ ++++++++++++++++ ++++++++++++++++ ++++@@@@@@@@@@@@ @@@@@@@@@@@@++++  @@@@@@@@@@@@@@@@@@@@@@@@@    +>>>>>>>>>>---++ +>>>>>>>>>>---++ +>>>>>>>>>%>>>>+ +>>>>>>>>>%>>>>+ +++>>>>>>>>>++++ +++++>>>>>>>>+++ ++++++++++++++++ ++++++++++++++++ ++++%%%%%%%%%%%% %%%%%%%%%%%%++++  %%%%%%%%%%%%%%%%%%%%%%%%%   ",
" +@@@@@@@@@@@&&++ +@@@@@@@@@@@&&++ +@@@@@@@@@@=@@@+ +@@@@@@@@@@=@@@+ +++@@@@@@@@+++++ +++++@@@@@@@@+++ +++++++++@@@++++ ++++++++++++++++ +++++=========== ===========+++++  =========================    +&&&&&&&&&&&**++ +&&&&&&&&&&&**++ +&&&&&&&&&&=&&&+ +&&&&&&&&&&=&&&+ +++&&&&&&&&+++++ +++++&&&&&&&&+++ +++++++++&&&++++ ++++++++++++++++ +++++=========== ===========+++++  =========================    +===========>>++ +===========>>++ +==========@===+ +==========@===+ +++========+++++ +++++========+++ +++++++++===++++ ++++++++++++++++ +++++@@@@@@@@@@@ @@@@@@@@@@@+++++  @@@@@@@@@@@@@@@@@@@@@@@@@    +===========--++ +===========--++ +==========@===+ +==========@===+ +++========+++++ +++++========+++ +++++++++===++++ ++++++++++++++++ +++++@@@@@@@@@@@ @@@@@@@@@@@+++++  @@@@@@@@@@@@@@@@@@@@@@@@@    +>>>>>>>>>>>--++ +>>>>>>>>>>>--++ +>>>>>>>>>>%>>>+ +>>>>>>>>>>%>>>+ +++>>>>>>>>+++++ +++++>>>>>>>>+++ +++++++++>>>++++ ++++++++++++++++ +++++%%%%%%%%%%% %%%%%%%%%%%+++++  %%%%%%%%%%%%%%%%%%%%%%%%%   ",
" +@@@@@@@@@@&&+++ +@@@@@@@@@@&&+++ +@@@@@@@@@=@@@@+ +@@@@@@@@@=@@@@+ ++@@@@@@@@@@@+++ +++@@@@@@@@@@@@+ ++@@@++@@@@@@+++ ++@@++++++@@@@++ ++++++========== ==========++++++  =========================    +&&&&&&&&&&**+++ +&&&&&&&&&&**+++ +&&&&&&&&&=&&&&+ +&&&&&&&&&=&&&&+ ++&&&&&&&&&&&+++ +++&&&&&&&&&&&&+ ++&&&++&&&&&&+++ ++&&++++++&&&&++ ++++++========== ==========++++++  =========================    +==========>>+++ +==========>>+++ +=========@====+ +=========@====+ ++===========+++ +++============+ ++===++======+++ ++==++++++====++ ++++++@@@@@@@@@@ @@@@@@@@@@++++++  @@@@@@@@@@@@@@@@@@@@@@@@@    +==========--+++ +==========--+++ +=========@====+ +=========@====+ ++===========+++ +++============+ ++===++======+++ ++==++++++====++ ++++++@@@@@@@@@@ @@@@@@@@@@++++++  @@@@@@@@@@@@@@@@@@@@@@@@@    +>>>>>>>>>>--+++ +>>>>>>>>>>--+++ +>>>>>>>>>%>>>>+ +>>>>>>>>>%>>>>+ ++>>>>>>>>>>>+++ +++>>>>>>>>>>>>+ ++>>>++>>>>>>+++ ++>>++++++>>>>++ ++++++%%%%%%%%%% %%%%%%%%%%++++++  %%%%%%%%%%%%%%%%%%%%%%%%%   ",
" +@@+@@@++@&&&&&+ +@@+@@@++@&&&&&+ +@@+@@@++@@=+@@+ +@@@@+@@@@+=@@@+ ++@@@@@@@@@@@+++ +++@@@@@@@@@@@@+ +@@@@@@@@@@@@@++ +@@@@@@@@@@@@@@+ +++++++========= =========+++++++  =========================    +&&+&&&++&*****+ +&&+&&&++&*****+ +&&+&&&++&&=+&&+ +&&&&+&&&&+=&&&+ ++&&&&&&&&&&&+++ +++&&&&&&&&&&&&+ +&&&&&&&&&&&&&++ +&&&&&&&&&&&&&&+ +++++++========= =========+++++++  =========================    +==+===++=>>>>>+ +==+===++=>>>>>+ +==+===++==@+==+ +====+====+@===+ ++===========+++ +++============+ +=============++ +==============+ +++++++@@@@@@@@@ @@@@@@@@@+++++++  @@@@@@@@@@@@@@@@@@@@@@@@@    +==+===++=-----+ +==+===++=-----+ +==+===++==@+==+ +====+====+@===+ ++===========+++ +++============+ +=============++ +==============+ +++++++@@@@@@@@@ @@@@@@@@@+++++++  @@@@@@@@@@@@@@@@@@@@@@@@@    +>>+>>>++>-----+ +>>+>>>++>-----+ +>>+>>>++>>%+>>+ +>>>>+>>>>+%>>>+ ++>>>>>>>>>>>+++ +++>>>>>>>>>>>>+ +>>>>>>>>>>>>>++ +>>>>>>>>>>>>>>+ +++++++%%%%%%%%% %%%%%%%%%+++++++  %%%%%%%%%%%%%%%%%%%%%%%%%   ",
" +@+++@@+++&&&&&+ +@+++@@+++&&&&&+ +@+++@@++@=+++@+ ++@@+++@@+++@@++ ++@@@+++++@@@+++ +++@@@++++++@@@+ @@@@@@@@@@@@@+++ @@@@@@@@@@@@@@++ +++++++++======= =======+++++++++  =========================    +&+++&&+++*****+ +&+++&&+++*****+ +&+++&&++&=+++&+ ++&&+++&&+++&&++ ++&&&+++++&&&+++ +++&&&++++++&&&+ &&&&&&&&&&&&&+++ &&&&&&&&&&&&&&++ +++++++++======= =======+++++++++  =========================    +=+++==+++>>>>>+ +=+++==+++>>>>>+ +=+++==++=@+++=+ ++==+++==+++==++ ++===+++++===+++ +++===++++++===+ =============+++ ==============++ +++++++++@@@@@@@ @@@@@@@+++++++++  @@@@@@@@@@@@@@@@@@@@@@@@@    +=+++==+++-----+ +=+++==+++-----+ +=+++==++=@+++=+ ++==+++==+++==++ ++===+++++===+++ +++===++++++===+ =============+++ ==============++ +++++++++@@@@@@@ @@@@@@@+++++++++  @@@@@@@@@@@@@@@@@@@@@@@@@    +>+++>>+++-----+ +>+++>>+++-----+ +>+++>>++>%+++>+ ++>>+++>>+++>>++ ++>>>+++++>>>+++ +++>>>++++++>>>+ >>>>>>>>>>>>>+++ >>>>>>>>>>>>>>++ +++++++++%%%%%%% %%%%%%%+++++++++  %%%%%%%%%%%%%%%%%%%%%%%%%   ",
" ++++++++++++++++ ++++++++++++++++ ++++++++++++++++ ++++++++++++++++ ++++++++++++++++ ++++++++++++++++ ++++++++++++++++ ++++++++++++++++ ++++++++++++==== ====++++++++++++  =========================    ++++++++++++++++ ++++++++++++++++ ++++++++++++++++ ++++++++++++++++ ++++++++++++++++ ++++++++++++++++ ++++++++++++++++ ++++++++++++++++ ++++++++++++==== ====++++++++++++  =========================    ++++++++++++++++ ++++++++++++++++ ++++++++++++++++ ++++++++++++++++ ++++++++++++++++ ++++++++++++++++ ++++++++++++++++ ++++++++++++++++ ++++++++++++@@@@ @@@@++++++++++++  @@@@@@@@@@@@@@@@@@@@@@@@@    ++++++++++++++++ ++++++++++++++++ ++++++++++++++++ ++++++++++++++++ ++++++++++++++++ ++++++++++++++++ ++++++++++++++++ ++++++++++++++++ ++++++++++++@@@@ @@@@++++++++++++  @@@@@@@@@@@@@@@@@@@@@@@@@    ++++++++++++++++ ++++++++++++++++ ++++++++++++++++ ++++++++++++++++ ++++++++++++++++ ++++++++++++++++ ++++++++++++++++ ++++++++++++++++ ++++++++++++%%%% %%%%++++++++++++  %%%%%%%%%%%%%%%%%%%%%%%%%   ",
"                                                                                                                                                                            =========================                                                                                                                                                                               =========================                                                                                                                                                                               @@@@@@@@@@@@@@@@@@@@@@@@@                                                                                                                                                                               @@@@@@@@@@@@@@@@@@@@@@@@@                                                                                                                                                                               %%%%%%%%%%%%%%%%%%%%%%%%%   ",
" ++++++++++++++++ ++++++++++++++++ ++++++++++++++++ ++++++++++++++++ ++++++++++++++++ ++++++++++++++++ ++++++++++++++++ ++++++++++++++++ ++++++++++++==== ====++++++++++++  =========================    ++++++++++++++++ ++++++++++++++++ ++++++++++++++++ ++++++++++++++++ ++++++++++++++++ ++++++++++++++++ ++++++++++++++++ ++++++++++++++++ ++++++++++++==== ====++++++++++++  =========================    ++++++++++++++++ ++++++++++++++++ ++++++++++++++++ ++++++++++++++++ ++++++++++++++++ ++++++++++++++++ ++++++++++++++++ ++++++++++++++++ ++++++++++++@@@@ @@@@++++++++++++  @@@@@@@@@@@@@@@@@@@@@@@@@    ++++++++++++++++ ++++++++++++++++ ++++++++++++++++ ++++++++++++++++ ++++++++++++++++ ++++++++++++++++ ++++++++++++++++ ++++++++++++++++ ++++++++++++@@@@ @@@@++++++++++++  @@@@@@@@@@@@@@@@@@@@@@@@@    ++++++++++++++++ ++++++++++++++++ ++++++++++++++++ ++++++++++++++++ ++++++++++++++++ ++++++++++++++++ ++++++++++++++++ ++++++++++++++++ ++++++++++++%%%% %%%%++++++++++++  %%%%%%%%%%%%%%%%%%%%%%%%%   ",
" ++++++++++++++++ ++++++++++++++++ ++++++++++++++++ ++++++++++++++++ +++++=++++++++++ ++++++++++++++++ ++++++++++++++++ ++++++++++++++++ +++++++++======= =======+++++++++  =========================    ++++++++++++++++ ++++++++++++++++ ++++++++++++++++ ++++++++++++++++ +++++=++++++++++ ++++++++++++++++ ++++++++++++++++ ++++++++++++++++ +++++++++======= =======+++++++++  =========================    ++++++++++++++++ ++++++++++++++++ ++++++++++++++++ ++++++++++++++++ +++++@++++++++++ ++++++++++++++++ ++++++++++++++++ ++++++++++++++++ +++++++++@@@@@@@ @@@@@@@+++++++++  @@@@@@@@@@@@@@@@@@@@@@@@@    ++++++++++++++++ ++++++++++++++++ ++++++++++++++++ ++++++++++++++++ +++++@++++++++++ ++++++++++++++++ ++++++++++++++++ ++++++++++++++++ +++++++++@@@@@@@ @@@@@@@+++++++++  @@@@@@@@@@@@@@@@@@@@@@@@@    ++++++++++++++++ ++++++++++++++++ ++++++++++++++++ ++++++++++++++++ +++++%++++++++++ ++++++++++++++++ ++++++++++++++++ ++++++++++++++++ +++++++++%%%%%%% %%%%%%%+++++++++  %%%%%%%%%%%%%%%%%%%%%%%%%   ",
" ++++++++++++&&++ +++++++@++++++++ +++++++++&&+++++ ++++++++&+++++++ ++++++=====+++++ ++++++++++++++++ +++++++==+++++++ ++++++&&&+++++++ +++++++========= =========+++++++  =========================    ++++++++++++**++ +++++++&++++++++ +++++++++**+++++ ++++++++*+++++++ ++++++=====+++++ ++++++++++++++++ +++++++==+++++++ ++++++***+++++++ +++++++========= =========+++++++  =========================    ++++++++++++>>++ +++++++=++++++++ +++++++++>>+++++ ++++++++>+++++++ ++++++@@@@@+++++ ++++++++++++++++ +++++++@@+++++++ ++++++>>>+++++++ +++++++@@@@@@@@@ @@@@@@@@@+++++++  @@@@@@@@@@@@@@@@@@@@@@@@@    ++++++++++++--++ +++++++=++++++++ +++++++++--+++++ ++++++++-+++++++ ++++++@@@@@+++++ ++++++++++++++++ +++++++@@+++++++ ++++++---+++++++ +++++++@@@@@@@@@ @@@@@@@@@+++++++  @@@@@@@@@@@@@@@@@@@@@@@@@    ++++++++++++--++ +++++++>++++++++ +++++++++--+++++ ++++++++-+++++++ ++++++%%%%%+++++ ++++++++++++++++ +++++++%%+++++++ ++++++---+++++++ +++++++%%%%%%%%% %%%%%%%%%+++++++  %%%%%%%%%%%%%%%%%%%%%%%%%   ",
" ++++++++++&&&&++ ++++&&&@&&&+++++ +++++++@&&&&&+++ +++===+&+===++++ ++++++++=+++++++ +++++++&++++++++ +++++==++==+++++ ++++&&+++&&+++++ ++++++========== ==========++++++  =========================    ++++++++++****++ ++++***&***+++++ +++++++&*****+++ +++===+*+===++++ ++++++++=+++++++ +++++++*++++++++ +++++==++==+++++ ++++**+++**+++++ ++++++========== ==========++++++  =========================    ++++++++++>>>>++ ++++>>>=>>>+++++ +++++++=>>>>>+++ +++@@@+>+@@@++++ ++++++++@+++++++ +++++++>++++++++ +++++@@++@@+++++ ++++>>+++>>+++++ ++++++@@@@@@@@@@ @@@@@@@@@@++++++  @@@@@@@@@@@@@@@@@@@@@@@@@    ++++++++++----++ ++++---=---+++++ +++++++=-----+++ +++@@@+-+@@@++++ ++++++++@+++++++ +++++++-++++++++ +++++@@++@@+++++ ++++--+++--+++++ ++++++@@@@@@@@@@ @@@@@@@@@@++++++  @@@@@@@@@@@@@@@@@@@@@@@@@    ++++++++++----++ ++++--->---+++++ +++++++>-----+++ +++%%%+-+%%%++++ ++++++++%+++++++ +++++++-++++++++ +++++%%++%%+++++ ++++--+++--+++++ ++++++%%%%%%%%%% %%%%%%%%%%++++++  %%%%%%%%%%%%%%%%%%%%%%%%%   ",
" ++++++++&&+&++++ +++==&&&&&==++++ +++++++@+&&&++++ ++=====&=====+++ +++++++&@&++++++ ++=+++&&&+++=+++ ++++========++++ ++++&&&&&&&+++++ +++++=========== ===========+++++  =========================    ++++++++**+*++++ +++==*****==++++ +++++++&+***++++ ++=====*=====+++ +++++++*&*++++++ ++=+++***+++=+++ ++++========++++ ++++*******+++++ +++++=========== ===========+++++  =========================    ++++++++>>+>++++ +++@@>>>>>@@++++ +++++++=+>>>++++ ++@@@@@>@@@@@+++ +++++++>=>++++++ ++@+++>>>+++@+++ ++++@@@@@@@@++++ ++++>>>>>>>+++++ +++++@@@@@@@@@@@ @@@@@@@@@@@+++++  @@@@@@@@@@@@@@@@@@@@@@@@@    ++++++++--+-++++ +++@@-----@@++++ +++++++=+---++++ ++@@@@@-@@@@@+++ +++++++-=-++++++ ++@+++---+++@+++ ++++@@@@@@@@++++ ++++-------+++++ +++++@@@@@@@@@@@ @@@@@@@@@@@+++++  @@@@@@@@@@@@@@@@@@@@@@@@@    ++++++++--+-++++ +++%%-----%%++++ +++++++>+---++++ ++%%%%%-%%%%%+++ +++++++->-++++++ ++%+++---+++%+++ ++++%%%%%%%%++++ ++++-------+++++ +++++%%%%%%%%%%% %%%%%%%%%%%+++++  %%%%%%%%%%%%%%%%%%%%%%%%%   ",
" +++++++&+++&++++ ++=====&===@=+++ ++++==@@@===++++ ++============++ +++++&&&=&&&++++ ++=++&&&&&++=+++ ++++==+=====++++ ++++&&&&&&&+++++ ++++============ ============++++  =========================    +++++++*+++*++++ ++=====*===&=+++ ++++==&&&===++++ ++============++ +++++***=***++++ ++=++*****++=+++ ++++==+=====++++ ++++*******+++++ ++++============ ============++++  =========================    +++++++>+++>++++ ++@@@@@>@@@=@+++ ++++@@===@@@++++ ++@@@@@@@@@@@@++ +++++>>>@>>>++++ ++@++>>>>>++@+++ ++++@@+@@@@@++++ ++++>>>>>>>+++++ ++++@@@@@@@@@@@@ @@@@@@@@@@@@++++  @@@@@@@@@@@@@@@@@@@@@@@@@    +++++++-+++-++++ ++@@@@@-@@@=@+++ ++++@@===@@@++++ ++@@@@@@@@@@@@++ +++++---@---++++ ++@++-----++@+++ ++++@@+@@@@@++++ ++++-------+++++ ++++@@@@@@@@@@@@ @@@@@@@@@@@@++++  @@@@@@@@@@@@@@@@@@@@@@@@@    +++++++-+++-++++ ++%%%%%-%%%>%+++ ++++%%>>>%%%++++ ++%%%%%%%%%%%%++ +++++---%---++++ ++%++-----++%+++ ++++%%+%%%%%++++ ++++-------+++++ ++++%%%%%%%%%%%% %%%%%%%%%%%%++++  %%%%%%%%%%%%%%%%%%%%%%%%%   ",
" +++===&+++&+++++ ++=@=====@===+++ +++====@=====+++ ++============++ ++++&=@=&&&=&+++ ++=@&&@&@&&@=+++ ++++=+======++++ ++++&&&&&&&+++++ +++============= =============+++  =========================    +++===*+++*+++++ ++=&=====&===+++ +++====&=====+++ ++============++ ++++*=&=***=*+++ ++=&**&*&**&=+++ ++++=+======++++ ++++*******+++++ +++============= =============+++  =========================    +++@@@>+++>+++++ ++@=@@@@@=@@@+++ +++@@@@=@@@@@+++ ++@@@@@@@@@@@@++ ++++>@=@>>>@>+++ ++@=>>=>=>>=@+++ ++++@+@@@@@@++++ ++++>>>>>>>+++++ +++@@@@@@@@@@@@@ @@@@@@@@@@@@@+++  @@@@@@@@@@@@@@@@@@@@@@@@@    +++@@@-+++-+++++ ++@=@@@@@=@@@+++ +++@@@@=@@@@@+++ ++@@@@@@@@@@@@++ ++++-@=@---@-+++ ++@=--=-=--=@+++ ++++@+@@@@@@++++ ++++-------+++++ +++@@@@@@@@@@@@@ @@@@@@@@@@@@@+++  @@@@@@@@@@@@@@@@@@@@@@@@@    +++%%%-+++-+++++ ++%>%%%%%>%%%+++ +++%%%%>%%%%%+++ ++%%%%%%%%%%%%++ ++++-%>%---%-+++ ++%>-->->-->%+++ ++++%+%%%%%%++++ ++++-------+++++ +++%%%%%%%%%%%%% %%%%%%%%%%%%%+++  %%%%%%%%%%%%%%%%%%%%%%%%%   ",
" ++===&==+&++++++ ++===@=@=====+++ ++============++ ++============++ ++++&&=&&@=&&+++ ++=@@@@&@@@@=+++ +++==+=======+++ ++++++@+@+++++++ ++============== ==============++  =========================    ++===*==+*++++++ ++===&=&=====+++ ++============++ ++============++ ++++**=**&=**+++ ++=&&&&*&&&&=+++ +++==+=======+++ ++++++&+&+++++++ ++============== ==============++  =========================    ++@@@>@@+>++++++ ++@@@=@=@@@@@+++ ++@@@@@@@@@@@@++ ++@@@@@@@@@@@@++ ++++>>@>>=@>>+++ ++@====>====@+++ +++@@+@@@@@@@+++ ++++++=+=+++++++ ++@@@@@@@@@@@@@@ @@@@@@@@@@@@@@++  @@@@@@@@@@@@@@@@@@@@@@@@@    ++@@@-@@+-++++++ ++@@@=@=@@@@@+++ ++@@@@@@@@@@@@++ ++@@@@@@@@@@@@++ ++++--@--=@--+++ ++@====-====@+++ +++@@+@@@@@@@+++ ++++++=+=+++++++ ++@@@@@@@@@@@@@@ @@@@@@@@@@@@@@++  @@@@@@@@@@@@@@@@@@@@@@@@@    ++%%%-%%+-++++++ ++%%%>%>%%%%%+++ ++%%%%%%%%%%%%++ ++%%%%%%%%%%%%++ ++++--%-->%--+++ ++%>>>>->>>>%+++ +++%%+%%%%%%%+++ ++++++>+>+++++++ ++%%%%%%%%%%%%%% %%%%%%%%%%%%%%++  %%%%%%%%%%%%%%%%%%%%%%%%%   ",
" ++=====+=&==++++ ++========@==+++ ++============++ ++=========@==++ +++&@=&&&=&=&&++ ++==@@@@@@@==+++ +++==+=======+++ ++++++@+@@++++++ ++============== ==============++  =========================    ++=====+=*==++++ ++========&==+++ ++============++ ++=========&==++ +++*&=***=*=**++ ++==&&&&&&&==+++ +++==+=======+++ ++++++&+&&++++++ ++============== ==============++  =========================    ++@@@@@+@>@@++++ ++@@@@@@@@=@@+++ ++@@@@@@@@@@@@++ ++@@@@@@@@@=@@++ +++>=@>>>@>@>>++ ++@@=======@@+++ +++@@+@@@@@@@+++ ++++++=+==++++++ ++@@@@@@@@@@@@@@ @@@@@@@@@@@@@@++  @@@@@@@@@@@@@@@@@@@@@@@@@    ++@@@@@+@-@@++++ ++@@@@@@@@=@@+++ ++@@@@@@@@@@@@++ ++@@@@@@@@@=@@++ +++-=@---@-@--++ ++@@=======@@+++ +++@@+@@@@@@@+++ ++++++=+==++++++ ++@@@@@@@@@@@@@@ @@@@@@@@@@@@@@++  @@@@@@@@@@@@@@@@@@@@@@@@@    ++%%%%%+%-%%++++ ++%%%%%%%%>%%+++ ++%%%%%%%%%%%%++ ++%%%%%%%%%>%%++ +++->%---%-%--++ ++%%>>>>>>>%%+++ +++%%+%%%%%%%+++ ++++++>+>>++++++ ++%%%%%%%%%%%%%% %%%%%%%%%%%%%%++  %%%%%%%%%%%%%%%%%%%%%%%%%   ",
" ++=@==+==&===+++ +++=@==@====++++ ++============++ ++=========@==++ +++&=&&@=&&@=&++ +++==@+@+@==++++ +++==========+++ ++++++@+@+++++++ +=============== ============++++  =========================    ++=&==+==*===+++ +++=&==&====++++ ++============++ ++=========&==++ +++*=**&=**&=*++ +++==&+&+&==++++ +++==========+++ ++++++&+&+++++++ +=============== ============++++  =========================    ++@=@@+@@>@@@+++ +++@=@@=@@@@++++ ++@@@@@@@@@@@@++ ++@@@@@@@@@=@@++ +++>@>>=@>>=@>++ +++@@=+=+=@@++++ +++@@@@@@@@@@+++ ++++++=+=+++++++ +@@@@@@@@@@@@@@@ @@@@@@@@@@@@++++  @@@@@@@@@@@@@@@@@@@@@@@@@    ++@=@@+@@-@@@+++ +++@=@@=@@@@++++ ++@@@@@@@@@@@@++ ++@@@@@@@@@=@@++ +++-@--=@--=@-++ +++@@=+=+=@@++++ +++@@@@@@@@@@+++ ++++++=+=+++++++ +@@@@@@@@@@@@@@@ @@@@@@@@@@@@++++  @@@@@@@@@@@@@@@@@@@@@@@@@    ++%>%%+%%-%%%+++ +++%>%%>%%%%++++ ++%%%%%%%%%%%%++ ++%%%%%%%%%>%%++ +++-%-->%-->%-++ +++%%>+>+>%%++++ +++%%%%%%%%%%+++ ++++++>+>+++++++ +%%%%%%%%%%%%%%% %%%%%%%%%%%%++++  %%%%%%%%%%%%%%%%%%%%%%%%%   ",
" ++==@=+======+++ +++=========++++ ++============++ +++=======@==+++ +++&@=&&&=&&&&++ ++++==+@+==+++++ ++==+=========++ ++++++@+++++++++ +=============== ==========++++++  =========================    ++==&=+======+++ +++=========++++ ++============++ +++=======&==+++ +++*&=***=****++ ++++==+&+==+++++ ++==+=========++ ++++++&+++++++++ +=============== ==========++++++  =========================    ++@@=@+@@@@@@+++ +++@@@@@@@@@++++ ++@@@@@@@@@@@@++ +++@@@@@@@=@@+++ +++>=@>>>@>>>>++ ++++@@+=+@@+++++ ++@@+@@@@@@@@@++ ++++++=+++++++++ +@@@@@@@@@@@@@@@ @@@@@@@@@@++++++  @@@@@@@@@@@@@@@@@@@@@@@@@    ++@@=@+@@@@@@+++ +++@@@@@@@@@++++ ++@@@@@@@@@@@@++ +++@@@@@@@=@@+++ +++-=@---@----++ ++++@@+=+@@+++++ ++@@+@@@@@@@@@++ ++++++=+++++++++ +@@@@@@@@@@@@@@@ @@@@@@@@@@++++++  @@@@@@@@@@@@@@@@@@@@@@@@@    ++%%>%+%%%%%%+++ +++%%%%%%%%%++++ ++%%%%%%%%%%%%++ +++%%%%%%%>%%+++ +++->%---%----++ ++++%%+>+%%+++++ ++%%+%%%%%%%%%++ ++++++>+++++++++ +%%%%%%%%%%%%%%% %%%%%%%%%%++++++  %%%%%%%%%%%%%%%%%%%%%%%%%   ",
" +++===+=@====+++ ++++==@==@++++++ +++==========+++ +++==========+++ ++++&&=@=@=&&+++ +++++=+@+=++++++ ++==+=========++ ++++++@+@+++++++ +=============== ========++++++++  =========================    +++===+=&====+++ ++++==&==&++++++ +++==========+++ +++==========+++ ++++**=&=&=**+++ +++++=+&+=++++++ ++==+=========++ ++++++&+&+++++++ +=============== ========++++++++  =========================    +++@@@+@=@@@@+++ ++++@@=@@=++++++ +++@@@@@@@@@@+++ +++@@@@@@@@@@+++ ++++>>@=@=@>>+++ +++++@+=+@++++++ ++@@+@@@@@@@@@++ ++++++=+=+++++++ +@@@@@@@@@@@@@@@ @@@@@@@@++++++++  @@@@@@@@@@@@@@@@@@@@@@@@@    +++@@@+@=@@@@+++ ++++@@=@@=++++++ +++@@@@@@@@@@+++ +++@@@@@@@@@@+++ ++++--@=@=@--+++ +++++@+=+@++++++ ++@@+@@@@@@@@@++ ++++++=+=+++++++ +@@@@@@@@@@@@@@@ @@@@@@@@++++++++  @@@@@@@@@@@@@@@@@@@@@@@@@    +++%%%+%>%%%%+++ ++++%%>%%>++++++ +++%%%%%%%%%%+++ +++%%%%%%%%%%+++ ++++--%>%>%--+++ +++++%+>+%++++++ ++%%+%%%%%%%%%++ ++++++>+>+++++++ +%%%%%%%%%%%%%%% %%%%%%%%++++++++  %%%%%%%%%%%%%%%%%%%%%%%%%   ",
" +++++++==@===+++ +++++=====++++++ +++==========+++ ++++========++++ ++++&&&=&&&=&+++ +++++++@++++++++ ++============++ ++++++@+@@++++++ ================ =====+++++++++++  =========================    +++++++==&===+++ +++++=====++++++ +++==========+++ ++++========++++ ++++***=***=*+++ +++++++&++++++++ ++============++ ++++++&+&&++++++ ================ =====+++++++++++  =========================    +++++++@@=@@@+++ +++++@@@@@++++++ +++@@@@@@@@@@+++ ++++@@@@@@@@++++ ++++>>>@>>>@>+++ +++++++=++++++++ ++@@@@@@@@@@@@++ ++++++=+==++++++ @@@@@@@@@@@@@@@@ @@@@@+++++++++++  @@@@@@@@@@@@@@@@@@@@@@@@@    +++++++@@=@@@+++ +++++@@@@@++++++ +++@@@@@@@@@@+++ ++++@@@@@@@@++++ ++++---@---@-+++ +++++++=++++++++ ++@@@@@@@@@@@@++ ++++++=+==++++++ @@@@@@@@@@@@@@@@ @@@@@+++++++++++  @@@@@@@@@@@@@@@@@@@@@@@@@    +++++++%%>%%%+++ +++++%%%%%++++++ +++%%%%%%%%%%+++ ++++%%%%%%%%++++ ++++---%---%-+++ +++++++>++++++++ ++%%%%%%%%%%%%++ ++++++>+>>++++++ %%%%%%%%%%%%%%%% %%%%%+++++++++++  %%%%%%%%%%%%%%%%%%%%%%%%%   ",
" ++++++++====++++ +++++++=++++++++ +++++======+++++ +++++==+===+++++ +++++&=&&&=&++++ +++++++@++++++++ ++=&&&&&@@&&&=++ ++++++@+@+++++++ ================ ==++++++++++++++  =========================    ++++++++====++++ +++++++=++++++++ +++++======+++++ +++++==+===+++++ +++++*=***=*++++ +++++++&++++++++ ++=*****&&***=++ ++++++&+&+++++++ ================ ==++++++++++++++  =========================    ++++++++@@@@++++ +++++++@++++++++ +++++@@@@@@+++++ +++++@@+@@@+++++ +++++>@>>>@>++++ +++++++=++++++++ ++@>>>>>==>>>@++ ++++++=+=+++++++ @@@@@@@@@@@@@@@@ @@++++++++++++++  @@@@@@@@@@@@@@@@@@@@@@@@@    ++++++++@@@@++++ +++++++@++++++++ +++++@@@@@@+++++ +++++@@+@@@+++++ +++++-@---@-++++ +++++++=++++++++ ++@-----==---@++ ++++++=+=+++++++ @@@@@@@@@@@@@@@@ @@++++++++++++++  @@@@@@@@@@@@@@@@@@@@@@@@@    ++++++++%%%%++++ +++++++%++++++++ +++++%%%%%%+++++ +++++%%+%%%+++++ +++++-%---%-++++ +++++++>++++++++ ++%----->>---%++ ++++++>+>+++++++ %%%%%%%%%%%%%%%% %%++++++++++++++  %%%%%%%%%%%%%%%%%%%%%%%%%   ",
" ++++++++++++++++ ++++++++++++++++ ++++++++++++++++ ++++++++++++++++ +++++++&&=++++++ ++++++++++++++++ +++&&&&&@@&&&+++ +++++++@++++++++ ================ ++++++++++++++++  =========================    ++++++++++++++++ ++++++++++++++++ ++++++++++++++++ ++++++++++++++++ +++++++**=++++++ ++++++++++++++++ +++*****&&***+++ +++++++&++++++++ ================ ++++++++++++++++  =========================    ++++++++++++++++ ++++++++++++++++ ++++++++++++++++ ++++++++++++++++ +++++++>>@++++++ ++++++++++++++++ +++>>>>>==>>>+++ +++++++=++++++++ @@@@@@@@@@@@@@@@ ++++++++++++++++  @@@@@@@@@@@@@@@@@@@@@@@@@    ++++++++++++++++ ++++++++++++++++ ++++++++++++++++ ++++++++++++++++ +++++++--@++++++ ++++++++++++++++ +++-----==---+++ +++++++=++++++++ @@@@@@@@@@@@@@@@ ++++++++++++++++  @@@@@@@@@@@@@@@@@@@@@@@@@    ++++++++++++++++ ++++++++++++++++ ++++++++++++++++ ++++++++++++++++ +++++++--%++++++ ++++++++++++++++ +++----->>---+++ +++++++>++++++++ %%%%%%%%%%%%%%%% ++++++++++++++++  %%%%%%%%%%%%%%%%%%%%%%%%%   ",
" ++++++++++++++++ ++++++++++++++++ ++++++++++++++++ ++++++++++++++++ ++++++++++++++++ ++++++++++++++++ ++++++++++++++++ ++++++++++++++++ ==============++ ++++++++++++++++  =========================    ++++++++++++++++ ++++++++++++++++ ++++++++++++++++ ++++++++++++++++ ++++++++++++++++ ++++++++++++++++ ++++++++++++++++ ++++++++++++++++ ==============++ ++++++++++++++++  =========================    ++++++++++++++++ ++++++++++++++++ ++++++++++++++++ ++++++++++++++++ ++++++++++++++++ ++++++++++++++++ ++++++++++++++++ ++++++++++++++++ @@@@@@@@@@@@@@++ ++++++++++++++++  @@@@@@@@@@@@@@@@@@@@@@@@@    ++++++++++++++++ ++++++++++++++++ ++++++++++++++++ ++++++++++++++++ ++++++++++++++++ ++++++++++++++++ ++++++++++++++++ ++++++++++++++++ @@@@@@@@@@@@@@++ ++++++++++++++++  @@@@@@@@@@@@@@@@@@@@@@@@@    ++++++++++++++++ ++++++++++++++++ ++++++++++++++++ ++++++++++++++++ ++++++++++++++++ ++++++++++++++++ ++++++++++++++++ ++++++++++++++++ %%%%%%%%%%%%%%++ ++++++++++++++++  %%%%%%%%%%%%%%%%%%%%%%%%%   ",
"                                                                                                                                                                            &&&&&&&&&&&&&&&&&&&&&&&&&                                                                                                                                                                               *************************                                                                                                                                                                               >>>>>>>>>>>>>>>>>>>>>>>>>                                                                                                                                                                               -------------------------                                                                                                                                                                               -------------------------   ",
" ++++++++++++++++ ++++++++++++++++ ++++++++++++++++ ++++++++++++++++ ++++++++++++++++ ++++++++++++++++ ++++++++++++++++ ++++++++++++++++ ==============++ ++++++++++++++++  &&&&&&&&&&&&&&&&&&&&&&&&&    ++++++++++++++++ ++++++++++++++++ ++++++++++++++++ ++++++++++++++++ ++++++++++++++++ ++++++++++++++++ ++++++++++++++++ ++++++++++++++++ ==============++ ++++++++++++++++  *************************    ++++++++++++++++ ++++++++++++++++ ++++++++++++++++ ++++++++++++++++ ++++++++++++++++ ++++++++++++++++ ++++++++++++++++ ++++++++++++++++ @@@@@@@@@@@@@@++ ++++++++++++++++  >>>>>>>>>>>>>>>>>>>>>>>>>    ++++++++++++++++ ++++++++++++++++ ++++++++++++++++ ++++++++++++++++ ++++++++++++++++ ++++++++++++++++ ++++++++++++++++ ++++++++++++++++ @@@@@@@@@@@@@@++ ++++++++++++++++  -------------------------    ++++++++++++++++ ++++++++++++++++ ++++++++++++++++ ++++++++++++++++ ++++++++++++++++ ++++++++++++++++ ++++++++++++++++ ++++++++++++++++ %%%%%%%%%%%%%%++ ++++++++++++++++  -------------------------   ",
" ++++++++++++++++ ++++++++++++++++ ++++++++++++++++ ++++++++++++++++ ++++++++++++++++ ++++++++++++++++ +++++@@@@@++++++ +++++@@@@@++++++ ================ ++++++++++++++++  &&&&&&&&&&&&&&&&&&&&&&&&&    ++++++++++++++++ ++++++++++++++++ ++++++++++++++++ ++++++++++++++++ ++++++++++++++++ ++++++++++++++++ +++++&&&&&++++++ +++++&&&&&++++++ ================ ++++++++++++++++  *************************    ++++++++++++++++ ++++++++++++++++ ++++++++++++++++ ++++++++++++++++ ++++++++++++++++ ++++++++++++++++ +++++=====++++++ +++++=====++++++ @@@@@@@@@@@@@@@@ ++++++++++++++++  >>>>>>>>>>>>>>>>>>>>>>>>>    ++++++++++++++++ ++++++++++++++++ ++++++++++++++++ ++++++++++++++++ ++++++++++++++++ ++++++++++++++++ +++++=====++++++ +++++=====++++++ @@@@@@@@@@@@@@@@ ++++++++++++++++  -------------------------    ++++++++++++++++ ++++++++++++++++ ++++++++++++++++ ++++++++++++++++ ++++++++++++++++ ++++++++++++++++ +++++>>>>>++++++ +++++>>>>>++++++ %%%%%%%%%%%%%%%% ++++++++++++++++  -------------------------   ",
" ++++++++++++++++ ++++++++++++++++ ++++++++++++++++ ++++++++++++++++ ++++++++++++++++ ++++++++++++++++ +++@@@@@@@++++++ +++@@@@@@@@@++++ ================ ==++++++++++++++  &&&&&&&&&&&&&&&&&&&&&&&&&    ++++++++++++++++ ++++++++++++++++ ++++++++++++++++ ++++++++++++++++ ++++++++++++++++ ++++++++++++++++ +++&&&&&&&++++++ +++&&&&&&&&&++++ ================ ==++++++++++++++  *************************    ++++++++++++++++ ++++++++++++++++ ++++++++++++++++ ++++++++++++++++ ++++++++++++++++ ++++++++++++++++ +++=======++++++ +++=========++++ @@@@@@@@@@@@@@@@ @@++++++++++++++  >>>>>>>>>>>>>>>>>>>>>>>>>    ++++++++++++++++ ++++++++++++++++ ++++++++++++++++ ++++++++++++++++ ++++++++++++++++ ++++++++++++++++ +++=======++++++ +++=========++++ @@@@@@@@@@@@@@@@ @@++++++++++++++  -------------------------    ++++++++++++++++ ++++++++++++++++ ++++++++++++++++ ++++++++++++++++ ++++++++++++++++ ++++++++++++++++ +++>>>>>>>++++++ +++>>>>>>>>>++++ %%%%%%%%%%%%%%%% %%++++++++++++++  -------------------------   ",
" +@@+++++++++@@++ ++++++++++++++++ ++++++++++++++++ ++++++++++++++++ ++++++++++++++++ ++++++++++++++++ ++@@@@@@@+++++++ ++@@@@@@@@@@@+++ ================ =====+++++++++++  &&&&&&&&&&&&&&&&&&&&&&&&&    +&&+++++++++&&++ ++++++++++++++++ ++++++++++++++++ ++++++++++++++++ ++++++++++++++++ ++++++++++++++++ ++&&&&&&&+++++++ ++&&&&&&&&&&&+++ ================ =====+++++++++++  *************************    +==+++++++++==++ ++++++++++++++++ ++++++++++++++++ ++++++++++++++++ ++++++++++++++++ ++++++++++++++++ ++=======+++++++ ++===========+++ @@@@@@@@@@@@@@@@ @@@@@+++++++++++  >>>>>>>>>>>>>>>>>>>>>>>>>    +==+++++++++==++ ++++++++++++++++ ++++++++++++++++ ++++++++++++++++ ++++++++++++++++ ++++++++++++++++ ++=======+++++++ ++===========+++ @@@@@@@@@@@@@@@@ @@@@@+++++++++++  -------------------------    +>>+++++++++>>++ ++++++++++++++++ ++++++++++++++++ ++++++++++++++++ ++++++++++++++++ ++++++++++++++++ ++>>>>>>>+++++++ ++>>>>>>>>>>>+++ %%%%%%%%%%%%%%%% %%%%%+++++++++++  -------------------------   ",
" +@@@+++++++@@@++ +@+++++++++++@++ ++++++++++++++++ ++++++++++++++++ ++++++++++++++++ ++++++++++++++++ ++@@@@@@++++++++ ++@@@@@@@@@@@+++ +=============== ========++++++++  &&&&&&&&&&&&&&&&&&&&&&&&&    +&&&+++++++&&&++ +&+++++++++++&++ ++++++++++++++++ ++++++++++++++++ ++++++++++++++++ ++++++++++++++++ ++&&&&&&++++++++ ++&&&&&&&&&&&+++ +=============== ========++++++++  *************************    +===+++++++===++ +=+++++++++++=++ ++++++++++++++++ ++++++++++++++++ ++++++++++++++++ ++++++++++++++++ ++======++++++++ ++===========+++ +@@@@@@@@@@@@@@@ @@@@@@@@++++++++  >>>>>>>>>>>>>>>>>>>>>>>>>    +===+++++++===++ +=+++++++++++=++ ++++++++++++++++ ++++++++++++++++ ++++++++++++++++ ++++++++++++++++ ++======++++++++ ++===========+++ +@@@@@@@@@@@@@@@ @@@@@@@@++++++++  -------------------------    +>>>+++++++>>>++ +>+++++++++++>++ ++++++++++++++++ ++++++++++++++++ ++++++++++++++++ ++++++++++++++++ ++>>>>>>++++++++ ++>>>>>>>>>>>+++ +%%%%%%%%%%%%%%% %%%%%%%%++++++++  -------------------------   ",
" +@@@@+++++@@@@++ @@@@+++++++@@@@+ ++++++++++++++++ ++++++++++++++++ ++++++++++++++++ ++++++++++++++++ +@@@@@@+++++++++ +@@@@@@+@@@@@@++ +=============== ==========++++++  &&&&&&&&&&&&&&&&&&&&&&&&&    +&&&&+++++&&&&++ &&&&+++++++&&&&+ ++++++++++++++++ ++++++++++++++++ ++++++++++++++++ ++++++++++++++++ +&&&&&&+++++++++ +&&&&&&+&&&&&&++ +=============== ==========++++++  *************************    +====+++++====++ ====+++++++====+ ++++++++++++++++ ++++++++++++++++ ++++++++++++++++ ++++++++++++++++ +======+++++++++ +======+======++ +@@@@@@@@@@@@@@@ @@@@@@@@@@++++++  >>>>>>>>>>>>>>>>>>>>>>>>>    +====+++++====++ ====+++++++====+ ++++++++++++++++ ++++++++++++++++ ++++++++++++++++ ++++++++++++++++ +======+++++++++ +======+======++ +@@@@@@@@@@@@@@@ @@@@@@@@@@++++++  -------------------------    +>>>>+++++>>>>++ >>>>+++++++>>>>+ ++++++++++++++++ ++++++++++++++++ ++++++++++++++++ ++++++++++++++++ +>>>>>>+++++++++ +>>>>>>+>>>>>>++ +%%%%%%%%%%%%%%% %%%%%%%%%%++++++  -------------------------   ",
" +@@@@@+++@@@@@++ @@@@@+++++@@@@@+ @@@+++++++++@@@+ ++++++++++++++++ ++++++++++++++++ ++++++++++++++++ +@@@@@++++++++++ +@@@@@+++@@@@@++ +=============== ============++++  &&&&&&&&&&&&&&&&&&&&&&&&&    +&&&&&+++&&&&&++ &&&&&+++++&&&&&+ &&&+++++++++&&&+ ++++++++++++++++ ++++++++++++++++ ++++++++++++++++ +&&&&&++++++++++ +&&&&&+++&&&&&++ +=============== ============++++  *************************    +=====+++=====++ =====+++++=====+ ===+++++++++===+ ++++++++++++++++ ++++++++++++++++ ++++++++++++++++ +=====++++++++++ +=====+++=====++ +@@@@@@@@@@@@@@@ @@@@@@@@@@@@++++  >>>>>>>>>>>>>>>>>>>>>>>>>    +=====+++=====++ =====+++++=====+ ===+++++++++===+ ++++++++++++++++ ++++++++++++++++ ++++++++++++++++ +=====++++++++++ +=====+++=====++ +@@@@@@@@@@@@@@@ @@@@@@@@@@@@++++  -------------------------    +>>>>>+++>>>>>++ >>>>>+++++>>>>>+ >>>+++++++++>>>+ ++++++++++++++++ ++++++++++++++++ ++++++++++++++++ +>>>>>++++++++++ +>>>>>+++>>>>>++ +%%%%%%%%%%%%%%% %%%%%%%%%%%%++++  -------------------------   ",
" +@@@@@@+@@@@@@++ @@@@@@@+@@@@@@@+ @@@@@@+++@@@@@@+ @@@@+++++++@@@@+ ++++++++++++++++ ++++++++++++++++ +@@@@+++++++++++ +@@@@+++++@@@@++ ++============== ==============++  &&&&&&&&&&&&&&&&&&&&&&&&&    +&&&&&&+&&&&&&++ &&&&&&&+&&&&&&&+ &&&&&&+++&&&&&&+ &&&&+++++++&&&&+ ++++++++++++++++ ++++++++++++++++ +&&&&+++++++++++ +&&&&+++++&&&&++ ++============== ==============++  *************************    +======+======++ =======+=======+ ======+++======+ ====+++++++====+ ++++++++++++++++ ++++++++++++++++ +====+++++++++++ +====+++++====++ ++@@@@@@@@@@@@@@ @@@@@@@@@@@@@@++  >>>>>>>>>>>>>>>>>>>>>>>>>    +======+======++ =======+=======+ ======+++======+ ====+++++++====+ ++++++++++++++++ ++++++++++++++++ +====+++++++++++ +====+++++====++ ++@@@@@@@@@@@@@@ @@@@@@@@@@@@@@++  -------------------------    +>>>>>>+>>>>>>++ >>>>>>>+>>>>>>>+ >>>>>>+++>>>>>>+ >>>>+++++++>>>>+ ++++++++++++++++ ++++++++++++++++ +>>>>+++++++++++ +>>>>+++++>>>>++ ++%%%%%%%%%%%%%% %%%%%%%%%%%%%%++  -------------------------   ",
" ++@@@@@@@@@@@+++ +@@@@@@@@@@@@@++ @@@@@@@@@@@@@@@+ @@@@@@@@@@@@@@@+ ++++@@@@@@@+++++ ++++++@@@+++++++ +@@@@@++++++++++ +@@@+++++++@@@++ ++============== ==============++  &&&&&&&&&&&&&&&&&&&&&&&&&    ++&&&&&&&&&&&+++ +&&&&&&&&&&&&&++ &&&&&&&&&&&&&&&+ &&&&&&&&&&&&&&&+ ++++&&&&&&&+++++ ++++++&&&+++++++ +&&&&&++++++++++ +&&&+++++++&&&++ ++============== ==============++  *************************    ++===========+++ +=============++ ===============+ ===============+ ++++=======+++++ ++++++===+++++++ +=====++++++++++ +===+++++++===++ ++@@@@@@@@@@@@@@ @@@@@@@@@@@@@@++  >>>>>>>>>>>>>>>>>>>>>>>>>    ++===========+++ +=============++ ===============+ ===============+ ++++=======+++++ ++++++===+++++++ +=====++++++++++ +===+++++++===++ ++@@@@@@@@@@@@@@ @@@@@@@@@@@@@@++  -------------------------    ++>>>>>>>>>>>+++ +>>>>>>>>>>>>>++ >>>>>>>>>>>>>>>+ >>>>>>>>>>>>>>>+ ++++>>>>>>>+++++ ++++++>>>+++++++ +>>>>>++++++++++ +>>>+++++++>>>++ ++%%%%%%%%%%%%%% %%%%%%%%%%%%%%++  -------------------------   ",
" ++@@@@@@@@@@@+++ +@@@@@@@@@@@@@++ +@@@@@@@@@@@@@++ @@@@@@@@@@@@@@@+ @@@@@@@@@@@@@@@+ ++++@@@@@@@+++++ +@@@@@@+++++++++ +@@+++++++++@@++ +++============= =============+++  &&&&&&&&&&&&&&&&&&&&&&&&&    ++&&&&&&&&&&&+++ +&&&&&&&&&&&&&++ +&&&&&&&&&&&&&++ &&&&&&&&&&&&&&&+ &&&&&&&&&&&&&&&+ ++++&&&&&&&+++++ +&&&&&&+++++++++ +&&+++++++++&&++ +++============= =============+++  *************************    ++===========+++ +=============++ +=============++ ===============+ ===============+ ++++=======+++++ +======+++++++++ +==+++++++++==++ +++@@@@@@@@@@@@@ @@@@@@@@@@@@@+++  >>>>>>>>>>>>>>>>>>>>>>>>>    ++===========+++ +=============++ +=============++ ===============+ ===============+ ++++=======+++++ +======+++++++++ +==+++++++++==++ +++@@@@@@@@@@@@@ @@@@@@@@@@@@@+++  -------------------------    ++>>>>>>>>>>>+++ +>>>>>>>>>>>>>++ +>>>>>>>>>>>>>++ >>>>>>>>>>>>>>>+ >>>>>>>>>>>>>>>+ ++++>>>>>>>+++++ +>>>>>>+++++++++ +>>+++++++++>>++ +++%%%%%%%%%%%%% %%%%%%%%%%%%%+++  -------------------------   ",
" +++@@@@@@@@@++++ ++@@@@@@@@@@@+++ ++@@@@@@@@@@@+++ +@@@@@@@@@@@@@++ @@@@@@@@@@@@@@@+ +@@@@@@@@@@@@@++ ++@@@@@@++++++++ ++++++++++++++++ ++++============ ============++++  &&&&&&&&&&&&&&&&&&&&&&&&&    +++&&&&&&&&&++++ ++&&&&&&&&&&&+++ ++&&&&&&&&&&&+++ +&&&&&&&&&&&&&++ &&&&&&&&&&&&&&&+ +&&&&&&&&&&&&&++ ++&&&&&&++++++++ ++++++++++++++++ ++++============ ============++++  *************************    +++=========++++ ++===========+++ ++===========+++ +=============++ ===============+ +=============++ ++======++++++++ ++++++++++++++++ ++++@@@@@@@@@@@@ @@@@@@@@@@@@++++  >>>>>>>>>>>>>>>>>>>>>>>>>    +++=========++++ ++===========+++ ++===========+++ +=============++ ===============+ +=============++ ++======++++++++ ++++++++++++++++ ++++@@@@@@@@@@@@ @@@@@@@@@@@@++++  -------------------------    +++>>>>>>>>>++++ ++>>>>>>>>>>>+++ ++>>>>>>>>>>>+++ +>>>>>>>>>>>>>++ >>>>>>>>>>>>>>>+ +>>>>>>>>>>>>>++ ++>>>>>>++++++++ ++++++++++++++++ ++++%%%%%%%%%%%% %%%%%%%%%%%%++++  -------------------------   ",
" +++++@@@@@++++++ ++++@@@+@@@+++++ ++++@@@+@@@+++++ +++@@@@+@@@@++++ +@@@@@@@@@@@@@++ @@@@@@@@@@@@@@@+ ++@@@@@@@+++++++ ++++++++++++++++ +++++=========== ===========+++++  &&&&&&&&&&&&&&&&&&&&&&&&&    +++++&&&&&++++++ ++++&&&+&&&+++++ ++++&&&+&&&+++++ +++&&&&+&&&&++++ +&&&&&&&&&&&&&++ &&&&&&&&&&&&&&&+ ++&&&&&&&+++++++ ++++++++++++++++ +++++=========== ===========+++++  *************************    +++++=====++++++ ++++===+===+++++ ++++===+===+++++ +++====+====++++ +=============++ ===============+ ++=======+++++++ ++++++++++++++++ +++++@@@@@@@@@@@ @@@@@@@@@@@+++++  >>>>>>>>>>>>>>>>>>>>>>>>>    +++++=====++++++ ++++===+===+++++ ++++===+===+++++ +++====+====++++ +=============++ ===============+ ++=======+++++++ ++++++++++++++++ +++++@@@@@@@@@@@ @@@@@@@@@@@+++++  -------------------------    +++++>>>>>++++++ ++++>>>+>>>+++++ ++++>>>+>>>+++++ +++>>>>+>>>>++++ +>>>>>>>>>>>>>++ >>>>>>>>>>>>>>>+ ++>>>>>>>+++++++ ++++++++++++++++ +++++%%%%%%%%%%% %%%%%%%%%%%+++++  -------------------------   ",
" ++++++++++++++++ ++++++++++++++++ ++++++++++++++++ ++++++++++++++++ +++@@@@+@@@@++++ +@@@@@@+@@@@@@++ +++@@@@@@@++++++ ++++++++++++++++ ++++++========== ==========++++++  &&&&&&&&&&&&&&&&&&&&&&&&&    ++++++++++++++++ ++++++++++++++++ ++++++++++++++++ ++++++++++++++++ +++&&&&+&&&&++++ +&&&&&&+&&&&&&++ +++&&&&&&&++++++ ++++++++++++++++ ++++++========== ==========++++++  *************************    ++++++++++++++++ ++++++++++++++++ ++++++++++++++++ ++++++++++++++++ +++====+====++++ +======+======++ +++=======++++++ ++++++++++++++++ ++++++@@@@@@@@@@ @@@@@@@@@@++++++  >>>>>>>>>>>>>>>>>>>>>>>>>    ++++++++++++++++ ++++++++++++++++ ++++++++++++++++ ++++++++++++++++ +++====+====++++ +======+======++ +++=======++++++ ++++++++++++++++ ++++++@@@@@@@@@@ @@@@@@@@@@++++++  -------------------------    ++++++++++++++++ ++++++++++++++++ ++++++++++++++++ ++++++++++++++++ +++>>>>+>>>>++++ +>>>>>>+>>>>>>++ +++>>>>>>>++++++ ++++++++++++++++ ++++++%%%%%%%%%% %%%%%%%%%%++++++  -------------------------   ",
" ++++++++++++++++ ++++++++++++++++ ++++++++++++++++ ++++++++++++++++ ++++++++++++++++ +++@@@+++@@@++++ +++++@@@@@++++++ ++++++++++++++++ +++++++========= =========+++++++  &&&&&&&&&&&&&&&&&&&&&&&&&    ++++++++++++++++ ++++++++++++++++ ++++++++++++++++ ++++++++++++++++ ++++++++++++++++ +++&&&+++&&&++++ +++++&&&&&++++++ ++++++++++++++++ +++++++========= =========+++++++  *************************    ++++++++++++++++ ++++++++++++++++ ++++++++++++++++ ++++++++++++++++ ++++++++++++++++ +++===+++===++++ +++++=====++++++ ++++++++++++++++ +++++++@@@@@@@@@ @@@@@@@@@+++++++  >>>>>>>>>>>>>>>>>>>>>>>>>    ++++++++++++++++ ++++++++++++++++ ++++++++++++++++ ++++++++++++++++ ++++++++++++++++ +++===+++===++++ +++++=====++++++ ++++++++++++++++ +++++++@@@@@@@@@ @@@@@@@@@+++++++  -------------------------    ++++++++++++++++ ++++++++++++++++ ++++++++++++++++ ++++++++++++++++ ++++++++++++++++ +++>>>+++>>>++++ +++++>>>>>++++++ ++++++++++++++++ +++++++%%%%%%%%% %%%%%%%%%+++++++  -------------------------   ",
" ++++++++++++++++ ++++++++++++++++ ++++++++++++++++ ++++++++++++++++ ++++++++++++++++ ++++++++++++++++ ++++++++++++++++ ++++++++++++++++ +++++++++======= =======+++++++++  &&&&&&&&&&&&&&&&&&&&&&&&&    ++++++++++++++++ ++++++++++++++++ ++++++++++++++++ ++++++++++++++++ ++++++++++++++++ ++++++++++++++++ ++++++++++++++++ ++++++++++++++++ +++++++++======= =======+++++++++  *************************    ++++++++++++++++ ++++++++++++++++ ++++++++++++++++ ++++++++++++++++ ++++++++++++++++ ++++++++++++++++ ++++++++++++++++ ++++++++++++++++ +++++++++@@@@@@@ @@@@@@@+++++++++  >>>>>>>>>>>>>>>>>>>>>>>>>    ++++++++++++++++ ++++++++++++++++ ++++++++++++++++ ++++++++++++++++ ++++++++++++++++ ++++++++++++++++ ++++++++++++++++ ++++++++++++++++ +++++++++@@@@@@@ @@@@@@@+++++++++  -------------------------    ++++++++++++++++ ++++++++++++++++ ++++++++++++++++ ++++++++++++++++ ++++++++++++++++ ++++++++++++++++ ++++++++++++++++ ++++++++++++++++ +++++++++%%%%%%% %%%%%%%+++++++++  -------------------------   ",
" ++++++++++++++++ ++++++++++++++++ ++++++++++++++++ ++++++++++++++++ ++++++++++++++++ ++++++++++++++++ ++++++++++++++++ ++++++++++++++++ ++++++++++++==== ====++++++++++++  &&&&&&&&&&&&&&&&&&&&&&&&&    ++++++++++++++++ ++++++++++++++++ ++++++++++++++++ ++++++++++++++++ ++++++++++++++++ ++++++++++++++++ ++++++++++++++++ ++++++++++++++++ ++++++++++++==== ====++++++++++++  *************************    ++++++++++++++++ ++++++++++++++++ ++++++++++++++++ ++++++++++++++++ ++++++++++++++++ ++++++++++++++++ ++++++++++++++++ ++++++++++++++++ ++++++++++++@@@@ @@@@++++++++++++  >>>>>>>>>>>>>>>>>>>>>>>>>    ++++++++++++++++ ++++++++++++++++ ++++++++++++++++ ++++++++++++++++ ++++++++++++++++ ++++++++++++++++ ++++++++++++++++ ++++++++++++++++ ++++++++++++@@@@ @@@@++++++++++++  -------------------------    ++++++++++++++++ ++++++++++++++++ ++++++++++++++++ ++++++++++++++++ ++++++++++++++++ ++++++++++++++++ ++++++++++++++++ ++++++++++++++++ ++++++++++++%%%% %%%%++++++++++++  -------------------------   ",
"                                                                                                                                                                            &&&&&&&&&&&&&&&&&&&&&&&&&                                                                                                                                                                               *************************                                                                                                                                                                               >>>>>>>>>>>>>>>>>>>>>>>>>                                                                                                                                                                               -------------------------                                                                                                                                                                               -------------------------   ",
" ++++++++++++++++ ++++++++++++++++ ++++++++++++++++ ++++++++++++++++ ++++++++++++++++ ++++++++++++++++ ++++++++++++++++ ++++++++++++++++ ++++++++++++==== ====++++++++++++  &&&&&&&&&&&&&&&&&&&&&&&&&    ++++++++++++++++ ++++++++++++++++ ++++++++++++++++ ++++++++++++++++ ++++++++++++++++ ++++++++++++++++ ++++++++++++++++ ++++++++++++++++ ++++++++++++==== ====++++++++++++  *************************    ++++++++++++++++ ++++++++++++++++ ++++++++++++++++ ++++++++++++++++ ++++++++++++++++ ++++++++++++++++ ++++++++++++++++ ++++++++++++++++ ++++++++++++@@@@ @@@@++++++++++++  >>>>>>>>>>>>>>>>>>>>>>>>>    ++++++++++++++++ ++++++++++++++++ ++++++++++++++++ ++++++++++++++++ ++++++++++++++++ ++++++++++++++++ ++++++++++++++++ ++++++++++++++++ ++++++++++++@@@@ @@@@++++++++++++  -------------------------    ++++++++++++++++ ++++++++++++++++ ++++++++++++++++ ++++++++++++++++ ++++++++++++++++ ++++++++++++++++ ++++++++++++++++ ++++++++++++++++ ++++++++++++%%%% %%%%++++++++++++  -------------------------   ",
" ++++++++++++++++ ++++++++++++++++ ++++++++++++++++ ++++++++++++++++ ++++++++++++++++ ++++++++++++++++ +++++@@@@@++++++ +++++@@@@@++++++ +++++++++======= =======+++++++++  &&&&&&&&&&&&&&&&&&&&&&&&&    ++++++++++++++++ ++++++++++++++++ ++++++++++++++++ ++++++++++++++++ ++++++++++++++++ ++++++++++++++++ +++++&&&&&++++++ +++++&&&&&++++++ +++++++++======= =======+++++++++  *************************    ++++++++++++++++ ++++++++++++++++ ++++++++++++++++ ++++++++++++++++ ++++++++++++++++ ++++++++++++++++ +++++=====++++++ +++++=====++++++ +++++++++@@@@@@@ @@@@@@@+++++++++  >>>>>>>>>>>>>>>>>>>>>>>>>    ++++++++++++++++ ++++++++++++++++ ++++++++++++++++ ++++++++++++++++ ++++++++++++++++ ++++++++++++++++ +++++=====++++++ +++++=====++++++ +++++++++@@@@@@@ @@@@@@@+++++++++  -------------------------    ++++++++++++++++ ++++++++++++++++ ++++++++++++++++ ++++++++++++++++ ++++++++++++++++ ++++++++++++++++ +++++>>>>>++++++ +++++>>>>>++++++ +++++++++%%%%%%% %%%%%%%+++++++++  -------------------------   ",
" ++++++++++++++++ ++++++++++++++++ ++++++++++++++++ ++++++++++++++++ ++++++++++++++++ ++++++++++++++++ +++@@@@@@@@@++++ +++@@@@@@@@@++++ +++++++========= ========++++++++  &&&&&&&&&&&&&&&&&&&&&&&&&    ++++++++++++++++ ++++++++++++++++ ++++++++++++++++ ++++++++++++++++ ++++++++++++++++ ++++++++++++++++ +++&&&&&&&&&++++ +++&&&&&&&&&++++ +++++++========= ========++++++++  *************************    ++++++++++++++++ ++++++++++++++++ ++++++++++++++++ ++++++++++++++++ ++++++++++++++++ ++++++++++++++++ +++=========++++ +++=========++++ +++++++@@@@@@@@@ @@@@@@@@++++++++  >>>>>>>>>>>>>>>>>>>>>>>>>    ++++++++++++++++ ++++++++++++++++ ++++++++++++++++ ++++++++++++++++ ++++++++++++++++ ++++++++++++++++ +++=========++++ +++=========++++ +++++++@@@@@@@@@ @@@@@@@@++++++++  -------------------------    ++++++++++++++++ ++++++++++++++++ ++++++++++++++++ ++++++++++++++++ ++++++++++++++++ ++++++++++++++++ +++>>>>>>>>>++++ +++>>>>>>>>>++++ +++++++%%%%%%%%% %%%%%%%%++++++++  -------------------------   ",
" ++++++++++++++++ ++++++++++++++++ ++++++++++++++++ ++++++++++++++++ ++++++++++++++++ ++++++++++++++++ ++@@@@@@@@@@@+++ ++@@@@@@@@@@@+++ ++++++========== ========++++++++  &&&&&&&&&&&&&&&&&&&&&&&&&    ++++++++++++++++ ++++++++++++++++ ++++++++++++++++ ++++++++++++++++ ++++++++++++++++ ++++++++++++++++ ++&&&&&&&&&&&+++ ++&&&&&&&&&&&+++ ++++++========== ========++++++++  *************************    ++++++++++++++++ ++++++++++++++++ ++++++++++++++++ ++++++++++++++++ ++++++++++++++++ ++++++++++++++++ ++===========+++ ++===========+++ ++++++@@@@@@@@@@ @@@@@@@@++++++++  >>>>>>>>>>>>>>>>>>>>>>>>>    ++++++++++++++++ ++++++++++++++++ ++++++++++++++++ ++++++++++++++++ ++++++++++++++++ ++++++++++++++++ ++===========+++ ++===========+++ ++++++@@@@@@@@@@ @@@@@@@@++++++++  -------------------------    ++++++++++++++++ ++++++++++++++++ ++++++++++++++++ ++++++++++++++++ ++++++++++++++++ ++++++++++++++++ ++>>>>>>>>>>>+++ ++>>>>>>>>>>>+++ ++++++%%%%%%%%%% %%%%%%%%++++++++  -------------------------   ",
" ++++++++++++++++ ++++++++++++++++ ++++++++++++++++ ++++++++++++++++ ++++++++++++++++ ++++++++++++++++ ++@@@@@@@@@@@+++ ++@@@@@@@@@@@+++ +++++=========== =======+++++++++  &&&&&&&&&&&&&&&&&&&&&&&&&    ++++++++++++++++ ++++++++++++++++ ++++++++++++++++ ++++++++++++++++ ++++++++++++++++ ++++++++++++++++ ++&&&&&&&&&&&+++ ++&&&&&&&&&&&+++ +++++=========== =======+++++++++  *************************    ++++++++++++++++ ++++++++++++++++ ++++++++++++++++ ++++++++++++++++ ++++++++++++++++ ++++++++++++++++ ++===========+++ ++===========+++ +++++@@@@@@@@@@@ @@@@@@@+++++++++  >>>>>>>>>>>>>>>>>>>>>>>>>    ++++++++++++++++ ++++++++++++++++ ++++++++++++++++ ++++++++++++++++ ++++++++++++++++ ++++++++++++++++ ++===========+++ ++===========+++ +++++@@@@@@@@@@@ @@@@@@@+++++++++  -------------------------    ++++++++++++++++ ++++++++++++++++ ++++++++++++++++ ++++++++++++++++ ++++++++++++++++ ++++++++++++++++ ++>>>>>>>>>>>+++ ++>>>>>>>>>>>+++ +++++%%%%%%%%%%% %%%%%%%+++++++++  -------------------------   ",
" ++++++++++++++++ ++++++++++++++++ ++++++++++++++++ ++++++++++++++++ ++++++++++++++++ ++++++++++++++++ +@@@@@@@@@@+++++ +@@@@@@@@@@@@@++ ++++============ ======++++++++++  &&&&&&&&&&&&&&&&&&&&&&&&&    ++++++++++++++++ ++++++++++++++++ ++++++++++++++++ ++++++++++++++++ ++++++++++++++++ ++++++++++++++++ +&&&&&&&&&&+++++ +&&&&&&&&&&&&&++ ++++============ ======++++++++++  *************************    ++++++++++++++++ ++++++++++++++++ ++++++++++++++++ ++++++++++++++++ ++++++++++++++++ ++++++++++++++++ +==========+++++ +=============++ ++++@@@@@@@@@@@@ @@@@@@++++++++++  >>>>>>>>>>>>>>>>>>>>>>>>>    ++++++++++++++++ ++++++++++++++++ ++++++++++++++++ ++++++++++++++++ ++++++++++++++++ ++++++++++++++++ +==========+++++ +=============++ ++++@@@@@@@@@@@@ @@@@@@++++++++++  -------------------------    ++++++++++++++++ ++++++++++++++++ ++++++++++++++++ ++++++++++++++++ ++++++++++++++++ ++++++++++++++++ +>>>>>>>>>>+++++ +>>>>>>>>>>>>>++ ++++%%%%%%%%%%%% %%%%%%++++++++++  -------------------------   ",
" ++++++++++++++++ ++++++++++++++++ ++++++++++++++++ ++++++++++++++++ +++++@+++@++++++ ++++++++++++++++ +@@@@@@@++++++++ +@@@@@@+@@@@@@++ +++============= =====+++++++++++  &&&&&&&&&&&&&&&&&&&&&&&&&    ++++++++++++++++ ++++++++++++++++ ++++++++++++++++ ++++++++++++++++ +++++&+++&++++++ ++++++++++++++++ +&&&&&&&++++++++ +&&&&&&+&&&&&&++ +++============= =====+++++++++++  *************************    ++++++++++++++++ ++++++++++++++++ ++++++++++++++++ ++++++++++++++++ +++++=+++=++++++ ++++++++++++++++ +=======++++++++ +======+======++ +++@@@@@@@@@@@@@ @@@@@+++++++++++  >>>>>>>>>>>>>>>>>>>>>>>>>    ++++++++++++++++ ++++++++++++++++ ++++++++++++++++ ++++++++++++++++ +++++=+++=++++++ ++++++++++++++++ +=======++++++++ +======+======++ +++@@@@@@@@@@@@@ @@@@@+++++++++++  -------------------------    ++++++++++++++++ ++++++++++++++++ ++++++++++++++++ ++++++++++++++++ +++++>+++>++++++ ++++++++++++++++ +>>>>>>>++++++++ +>>>>>>+>>>>>>++ +++%%%%%%%%%%%%% %%%%%+++++++++++  -------------------------   ",
" ++++++++++++++++ ++++++++++++++++ ++++++++++++++++ ++++++++++++++++ +++@++@+@+++++++ ++++++++++++++++ +@@@@+++++++++++ +@@@@@@+@@@@@@++ ++============== ====++++++++++++  @@@@@@@@@@@@@@@@@@@@@@@@@    ++++++++++++++++ ++++++++++++++++ ++++++++++++++++ ++++++++++++++++ +++&++&+&+++++++ ++++++++++++++++ +&&&&+++++++++++ +&&&&&&+&&&&&&++ ++============== ====++++++++++++  &&&&&&&&&&&&&&&&&&&&&&&&&    ++++++++++++++++ ++++++++++++++++ ++++++++++++++++ ++++++++++++++++ +++=++=+=+++++++ ++++++++++++++++ +====+++++++++++ +======+======++ ++@@@@@@@@@@@@@@ @@@@++++++++++++  =========================    ++++++++++++++++ ++++++++++++++++ ++++++++++++++++ ++++++++++++++++ +++=++=+=+++++++ ++++++++++++++++ +====+++++++++++ +======+======++ ++@@@@@@@@@@@@@@ @@@@++++++++++++  =========================    ++++++++++++++++ ++++++++++++++++ ++++++++++++++++ ++++++++++++++++ +++>++>+>+++++++ ++++++++++++++++ +>>>>+++++++++++ +>>>>>>+>>>>>>++ ++%%%%%%%%%%%%%% %%%%++++++++++++  >>>>>>>>>>>>>>>>>>>>>>>>>   ",
" +++++++@++++++++ +++++++@++++++++ +++++++@++++++++ +++++++@++++++++ ++++@++++++@++++ ++++++++++++++++ +@@@@@@@++++++++ +@@@@@+++@@@@@++ ++============== ===+++++++++++++  @@@@@@@@@@@@@@@@@@@@@@@@@    +++++++&++++++++ +++++++&++++++++ +++++++&++++++++ +++++++&++++++++ ++++&++++++&++++ ++++++++++++++++ +&&&&&&&++++++++ +&&&&&+++&&&&&++ ++============== ===+++++++++++++  &&&&&&&&&&&&&&&&&&&&&&&&&    +++++++=++++++++ +++++++=++++++++ +++++++=++++++++ +++++++=++++++++ ++++=++++++=++++ ++++++++++++++++ +=======++++++++ +=====+++=====++ ++@@@@@@@@@@@@@@ @@@+++++++++++++  =========================    +++++++=++++++++ +++++++=++++++++ +++++++=++++++++ +++++++=++++++++ ++++=++++++=++++ ++++++++++++++++ +=======++++++++ +=====+++=====++ ++@@@@@@@@@@@@@@ @@@+++++++++++++  =========================    +++++++>++++++++ +++++++>++++++++ +++++++>++++++++ +++++++>++++++++ ++++>++++++>++++ ++++++++++++++++ +>>>>>>>++++++++ +>>>>>+++>>>>>++ ++%%%%%%%%%%%%%% %%%+++++++++++++  >>>>>>>>>>>>>>>>>>>>>>>>>   ",
" ++++++@@@+++++++ ++++++@@@+++++++ +++++++@++++++++ +++++++@++++++++ ++++++++++@+++++ ++++++++++++++++ +@@@@@@@@@@+++++ +@@@@@+++@@@@@++ +=============== ==++++++++++++++  @@@@@@@@@@@@@@@@@@@@@@@@@    ++++++&&&+++++++ ++++++&&&+++++++ +++++++&++++++++ +++++++&++++++++ ++++++++++&+++++ ++++++++++++++++ +&&&&&&&&&&+++++ +&&&&&+++&&&&&++ +=============== ==++++++++++++++  &&&&&&&&&&&&&&&&&&&&&&&&&    ++++++===+++++++ ++++++===+++++++ +++++++=++++++++ +++++++=++++++++ ++++++++++=+++++ ++++++++++++++++ +==========+++++ +=====+++=====++ +@@@@@@@@@@@@@@@ @@++++++++++++++  =========================    ++++++===+++++++ ++++++===+++++++ +++++++=++++++++ +++++++=++++++++ ++++++++++=+++++ ++++++++++++++++ +==========+++++ +=====+++=====++ +@@@@@@@@@@@@@@@ @@++++++++++++++  =========================    ++++++>>>+++++++ ++++++>>>+++++++ +++++++>++++++++ +++++++>++++++++ ++++++++++>+++++ ++++++++++++++++ +>>>>>>>>>>+++++ +>>>>>+++>>>>>++ +%%%%%%%%%%%%%%% %%++++++++++++++  >>>>>>>>>>>>>>>>>>>>>>>>>   ",
" ++++@@@@@@@+++++ +++++@@@@@++++++ ++++++@@@+++++++ +++++++@++++++++ ++@@++++++++++++ ++++++++++++++++ ++@@@@@@@@@@@+++ ++@@@@+++@@@@+++ +=============== =+++++++++++++++  @@@@@@@@@@@@@@@@@@@@@@@@@    ++++&&&&&&&+++++ +++++&&&&&++++++ ++++++&&&+++++++ +++++++&++++++++ ++&&++++++++++++ ++++++++++++++++ ++&&&&&&&&&&&+++ ++&&&&+++&&&&+++ +=============== =+++++++++++++++  &&&&&&&&&&&&&&&&&&&&&&&&&    ++++=======+++++ +++++=====++++++ ++++++===+++++++ +++++++=++++++++ ++==++++++++++++ ++++++++++++++++ ++===========+++ ++====+++====+++ +@@@@@@@@@@@@@@@ @+++++++++++++++  =========================    ++++=======+++++ +++++=====++++++ ++++++===+++++++ +++++++=++++++++ ++==++++++++++++ ++++++++++++++++ ++===========+++ ++====+++====+++ +@@@@@@@@@@@@@@@ @+++++++++++++++  =========================    ++++>>>>>>>+++++ +++++>>>>>++++++ ++++++>>>+++++++ +++++++>++++++++ ++>>++++++++++++ ++++++++++++++++ ++>>>>>>>>>>>+++ ++>>>>+++>>>>+++ +%%%%%%%%%%%%%%% %+++++++++++++++  >>>>>>>>>>>>>>>>>>>>>>>>>   ",
" +++@@@@@@@@@++++ +++++@@@@@++++++ ++++++@@@+++++++ +++++++@++++++++ +++++++++++@@+++ ++++++++++++++++ ++@@@@@@@@@@@+++ ++@@@+++++@@@+++ +=============== ++++++++++++++++  @@@@@@@@@@@@@@@@@@@@@@@@@    +++&&&&&&&&&++++ +++++&&&&&++++++ ++++++&&&+++++++ +++++++&++++++++ +++++++++++&&+++ ++++++++++++++++ ++&&&&&&&&&&&+++ ++&&&+++++&&&+++ +=============== ++++++++++++++++  &&&&&&&&&&&&&&&&&&&&&&&&&    +++=========++++ +++++=====++++++ ++++++===+++++++ +++++++=++++++++ +++++++++++==+++ ++++++++++++++++ ++===========+++ ++===+++++===+++ +@@@@@@@@@@@@@@@ ++++++++++++++++  =========================    +++=========++++ +++++=====++++++ ++++++===+++++++ +++++++=++++++++ +++++++++++==+++ ++++++++++++++++ ++===========+++ ++===+++++===+++ +@@@@@@@@@@@@@@@ ++++++++++++++++  =========================    +++>>>>>>>>>++++ +++++>>>>>++++++ ++++++>>>+++++++ +++++++>++++++++ +++++++++++>>+++ ++++++++++++++++ ++>>>>>>>>>>>+++ ++>>>+++++>>>+++ +%%%%%%%%%%%%%%% ++++++++++++++++  >>>>>>>>>>>>>>>>>>>>>>>>>   ",
" +@@@@@@@@@@@@@++ ++++@@@@@@@+++++ ++++++@@@+++++++ +++++++@++++++++ ++++@+++++++++++ ++++++++++++++++ +++@@@@@@@@@++++ +++@@+++++@@++++ ===============+ ++++++++++++++++  @@@@@@@@@@@@@@@@@@@@@@@@@    +&&&&&&&&&&&&&++ ++++&&&&&&&+++++ ++++++&&&+++++++ +++++++&++++++++ ++++&+++++++++++ ++++++++++++++++ +++&&&&&&&&&++++ +++&&+++++&&++++ ===============+ ++++++++++++++++  &&&&&&&&&&&&&&&&&&&&&&&&&    +=============++ ++++=======+++++ ++++++===+++++++ +++++++=++++++++ ++++=+++++++++++ ++++++++++++++++ +++=========++++ +++==+++++==++++ @@@@@@@@@@@@@@@+ ++++++++++++++++  =========================    +=============++ ++++=======+++++ ++++++===+++++++ +++++++=++++++++ ++++=+++++++++++ ++++++++++++++++ +++=========++++ +++==+++++==++++ @@@@@@@@@@@@@@@+ ++++++++++++++++  =========================    +>>>>>>>>>>>>>++ ++++>>>>>>>+++++ ++++++>>>+++++++ +++++++>++++++++ ++++>+++++++++++ ++++++++++++++++ +++>>>>>>>>>++++ +++>>+++++>>++++ %%%%%%%%%%%%%%%+ ++++++++++++++++  >>>>>>>>>>>>>>>>>>>>>>>>>   ",
" +@@@@@@+@@@@@@++ +++@@@@@@@@@++++ +++++@@@@@++++++ +++++++@++++++++ +++@++++++@+++++ ++++++++++++++++ +++++@@@@@++++++ ++++++++++++++++ ==============++ ++++++++++++++++  @@@@@@@@@@@@@@@@@@@@@@@@@    +&&&&&&+&&&&&&++ +++&&&&&&&&&++++ +++++&&&&&++++++ +++++++&++++++++ +++&++++++&+++++ ++++++++++++++++ +++++&&&&&++++++ ++++++++++++++++ ==============++ ++++++++++++++++  &&&&&&&&&&&&&&&&&&&&&&&&&    +======+======++ +++=========++++ +++++=====++++++ +++++++=++++++++ +++=++++++=+++++ ++++++++++++++++ +++++=====++++++ ++++++++++++++++ @@@@@@@@@@@@@@++ ++++++++++++++++  =========================    +======+======++ +++=========++++ +++++=====++++++ +++++++=++++++++ +++=++++++=+++++ ++++++++++++++++ +++++=====++++++ ++++++++++++++++ @@@@@@@@@@@@@@++ ++++++++++++++++  =========================    +>>>>>>+>>>>>>++ +++>>>>>>>>>++++ +++++>>>>>++++++ +++++++>++++++++ +++>++++++>+++++ ++++++++++++++++ +++++>>>>>++++++ ++++++++++++++++ %%%%%%%%%%%%%%++ ++++++++++++++++  >>>>>>>>>>>>>>>>>>>>>>>>>   ",
" ++@@@@+++@@@@+++ ++++@@@+@@@+++++ ++++++@+@+++++++ ++++++++++++++++ ++++++@+@++@++++ ++++++++++++++++ ++++++++++++++++ ++++++++++++++++ =============+++ ++++++++++++++++  @@@@@@@@@@@@@@@@@@@@@@@@@    ++&&&&+++&&&&+++ ++++&&&+&&&+++++ ++++++&+&+++++++ ++++++++++++++++ ++++++&+&++&++++ ++++++++++++++++ ++++++++++++++++ ++++++++++++++++ =============+++ ++++++++++++++++  &&&&&&&&&&&&&&&&&&&&&&&&&    ++====+++====+++ ++++===+===+++++ ++++++=+=+++++++ ++++++++++++++++ ++++++=+=++=++++ ++++++++++++++++ ++++++++++++++++ ++++++++++++++++ @@@@@@@@@@@@@+++ ++++++++++++++++  =========================    ++====+++====+++ ++++===+===+++++ ++++++=+=+++++++ ++++++++++++++++ ++++++=+=++=++++ ++++++++++++++++ ++++++++++++++++ ++++++++++++++++ @@@@@@@@@@@@@+++ ++++++++++++++++  =========================    ++>>>>+++>>>>+++ ++++>>>+>>>+++++ ++++++>+>+++++++ ++++++++++++++++ ++++++>+>++>++++ ++++++++++++++++ ++++++++++++++++ ++++++++++++++++ %%%%%%%%%%%%%+++ ++++++++++++++++  >>>>>>>>>>>>>>>>>>>>>>>>>   ",
" ++++++++++++++++ ++++++++++++++++ ++++++++++++++++ ++++++++++++++++ +++++@+++@++++++ ++++++++++++++++ ++++++++++++++++ ++++++++++++++++ ============++++ ++++++++++++++++  @@@@@@@@@@@@@@@@@@@@@@@@@    ++++++++++++++++ ++++++++++++++++ ++++++++++++++++ ++++++++++++++++ +++++&+++&++++++ ++++++++++++++++ ++++++++++++++++ ++++++++++++++++ ============++++ ++++++++++++++++  &&&&&&&&&&&&&&&&&&&&&&&&&    ++++++++++++++++ ++++++++++++++++ ++++++++++++++++ ++++++++++++++++ +++++=+++=++++++ ++++++++++++++++ ++++++++++++++++ ++++++++++++++++ @@@@@@@@@@@@++++ ++++++++++++++++  =========================    ++++++++++++++++ ++++++++++++++++ ++++++++++++++++ ++++++++++++++++ +++++=+++=++++++ ++++++++++++++++ ++++++++++++++++ ++++++++++++++++ @@@@@@@@@@@@++++ ++++++++++++++++  =========================    ++++++++++++++++ ++++++++++++++++ ++++++++++++++++ ++++++++++++++++ +++++>+++>++++++ ++++++++++++++++ ++++++++++++++++ ++++++++++++++++ %%%%%%%%%%%%++++ ++++++++++++++++  >>>>>>>>>>>>>>>>>>>>>>>>>   ",
"                                                                                                                       ..................                                   @@@@@@@@@@@@@@@@@@@@@@@@@                                                                                                                          ..................                                   &&&&&&&&&&&&&&&&&&&&&&&&&                                                                                                                          ..................                                   =========================                                                                                                                          ..................                                   =========================                                                                                                                          ..................                                   >>>>>>>>>>>>>>>>>>>>>>>>>   ",
" ++++++++++++++++ ++++++++++++++++ ++++++++++++++++ ++++++++++++++++ ++++++++++++++++ ++++++++++++++++ ++++++++++++++++.+=+++++++++=++++.============++++ ++++++++++++++++  @@@@@@@@@@@@@@@@@@@@@@@@@    ++++++++++++++++ ++++++++++++++++ ++++++++++++++++ ++++++++++++++++ ++++++++++++++++ ++++++++++++++++ ++++++++++++++++.+=+++++++++=++++.============++++ ++++++++++++++++  &&&&&&&&&&&&&&&&&&&&&&&&&    ++++++++++++++++ ++++++++++++++++ ++++++++++++++++ ++++++++++++++++ ++++++++++++++++ ++++++++++++++++ ++++++++++++++++.+@+++++++++@++++.@@@@@@@@@@@@++++ ++++++++++++++++  =========================    ++++++++++++++++ ++++++++++++++++ ++++++++++++++++ ++++++++++++++++ ++++++++++++++++ ++++++++++++++++ ++++++++++++++++.+@+++++++++@++++.@@@@@@@@@@@@++++ ++++++++++++++++  =========================    ++++++++++++++++ ++++++++++++++++ ++++++++++++++++ ++++++++++++++++ ++++++++++++++++ ++++++++++++++++ ++++++++++++++++.+%+++++++++%++++.%%%%%%%%%%%%++++ ++++++++++++++++  >>>>>>>>>>>>>>>>>>>>>>>>>   ",
" ++++++&&&&++++++ ++++++&&&&++++++ ++++++++++++++++ ++++++++++++++++ ++++++++++++++++ ++++++++++++++++ +++++@@@@@++++++.++=+++++++=+++++.=============+++ ++++++++++++++++  @@@@@@@@@@@@@@@@@@@@@@@@@    ++++++****++++++ ++++++****++++++ ++++++++++++++++ ++++++++++++++++ ++++++++++++++++ ++++++++++++++++ +++++&&&&&++++++.++=+++++++=+++++.=============+++ ++++++++++++++++  &&&&&&&&&&&&&&&&&&&&&&&&&    ++++++>>>>++++++ ++++++>>>>++++++ ++++++++++++++++ ++++++++++++++++ ++++++++++++++++ ++++++++++++++++ +++++=====++++++.++@+++++++@+++++.@@@@@@@@@@@@@+++ ++++++++++++++++  =========================    ++++++----++++++ ++++++----++++++ ++++++++++++++++ ++++++++++++++++ ++++++++++++++++ ++++++++++++++++ +++++=====++++++.++@+++++++@+++++.@@@@@@@@@@@@@+++ ++++++++++++++++  =========================    ++++++----++++++ ++++++----++++++ ++++++++++++++++ ++++++++++++++++ ++++++++++++++++ ++++++++++++++++ +++++>>>>>++++++.++%+++++++%+++++.%%%%%%%%%%%%%+++ ++++++++++++++++  >>>>>>>>>>>>>>>>>>>>>>>>>   ",
" ++++&&&&&&&&++++ ++++&&&&&&&&++++ ++++++++++++++++ ++++++++++++++++ ++++++++++++++++ ++++++++++++++++ +++@@@@@@@@@++++.+++=+++++=++++++.==============++ ++++++++++++++++  @@@@@@@@@@@@@@@@@@@@@@@@@    ++++********++++ ++++********++++ ++++++++++++++++ ++++++++++++++++ ++++++++++++++++ ++++++++++++++++ +++&&&&&&&&&++++.+++=+++++=++++++.==============++ ++++++++++++++++  &&&&&&&&&&&&&&&&&&&&&&&&&    ++++>>>>>>>>++++ ++++>>>>>>>>++++ ++++++++++++++++ ++++++++++++++++ ++++++++++++++++ ++++++++++++++++ +++=========++++.+++@+++++@++++++.@@@@@@@@@@@@@@++ ++++++++++++++++  =========================    ++++--------++++ ++++--------++++ ++++++++++++++++ ++++++++++++++++ ++++++++++++++++ ++++++++++++++++ +++=========++++.+++@+++++@++++++.@@@@@@@@@@@@@@++ ++++++++++++++++  =========================    ++++--------++++ ++++--------++++ ++++++++++++++++ ++++++++++++++++ ++++++++++++++++ ++++++++++++++++ +++>>>>>>>>>++++.+++%+++++%++++++.%%%%%%%%%%%%%%++ ++++++++++++++++  >>>>>>>>>>>>>>>>>>>>>>>>>   ",
" +++&&&&&&&&&&+++ +++&&&&&&&&&&+++ ++++++++++++++++ ++++++++++++++++ ++++++++++++++++ ++++++++++++++++ ++@@@@@@@@@@@+++.+++====++===+++=.===============+ ++++++++++++++++  @@@@@@@@@@@@@@@@@@@@@@@@@    +++**********+++ +++**********+++ ++++++++++++++++ ++++++++++++++++ ++++++++++++++++ ++++++++++++++++ ++&&&&&&&&&&&+++.+++====++===+++=.===============+ ++++++++++++++++  &&&&&&&&&&&&&&&&&&&&&&&&&    +++>>>>>>>>>>+++ +++>>>>>>>>>>+++ ++++++++++++++++ ++++++++++++++++ ++++++++++++++++ ++++++++++++++++ ++===========+++.+++@@@@++@@@+++@.@@@@@@@@@@@@@@@+ ++++++++++++++++  =========================    +++----------+++ +++----------+++ ++++++++++++++++ ++++++++++++++++ ++++++++++++++++ ++++++++++++++++ ++===========+++.+++@@@@++@@@+++@.@@@@@@@@@@@@@@@+ ++++++++++++++++  =========================    +++----------+++ +++----------+++ ++++++++++++++++ ++++++++++++++++ ++++++++++++++++ ++++++++++++++++ ++>>>>>>>>>>>+++.+++%%%%++%%%+++%.%%%%%%%%%%%%%%%+ ++++++++++++++++  >>>>>>>>>>>>>>>>>>>>>>>>>   ",
" ++&&&&&&&&&&&&++ ++&&&&&&&&&&&&++ +===+++==+++==++ +++=+++==+++==++ +===+++==+++==++ =++===++==+++==+ ++@@@@@@@@@@@+++.++++=&=+=@&@=+=+.+=============== ++++++++++++++++  @@@@@@@@@@@@@@@@@@@@@@@@@    ++************++ ++************++ +===+++==+++==++ +++=+++==+++==++ +===+++==+++==++ =++===++==+++==+ ++&&&&&&&&&&&+++.++++=*=+=&*&=+=+.+=============== ++++++++++++++++  &&&&&&&&&&&&&&&&&&&&&&&&&    ++>>>>>>>>>>>>++ ++>>>>>>>>>>>>++ +@@@+++@@+++@@++ +++@+++@@+++@@++ +@@@+++@@+++@@++ @++@@@++@@+++@@+ ++===========+++.++++@>@+@=>=@+@+.+@@@@@@@@@@@@@@@ ++++++++++++++++  =========================    ++------------++ ++------------++ +@@@+++@@+++@@++ +++@+++@@+++@@++ +@@@+++@@+++@@++ @++@@@++@@+++@@+ ++===========+++.++++@-@+@=-=@+@+.+@@@@@@@@@@@@@@@ ++++++++++++++++  =========================    ++------------++ ++------------++ +%%%+++%%+++%%++ +++%+++%%+++%%++ +%%%+++%%+++%%++ %++%%%++%%+++%%+ ++>>>>>>>>>>>+++.++++%-%+%>->%+%+.+%%%%%%%%%%%%%%% ++++++++++++++++  >>>>>>>>>>>>>>>>>>>>>>>>>   ",
" ++&&&&&&&&&&&&++ ++&&&&&&&&&&&&++ =+++=+=++=+=++=+ ++==++=++=+=++=+ =+++=+=++=+=++=+ =+=++++=++=+=++= +@@@@@@@@@@@@@++.+++=@+@=&&@&&=++.+=============== =+++++++++++++++  @@@@@@@@@@@@@@@@@@@@@@@@@    ++************++ ++************++ =+++=+=++=+=++=+ ++==++=++=+=++=+ =+++=+=++=+=++=+ =+=++++=++=+=++= +&&&&&&&&&&&&&++.+++=&+&=**&**=++.+=============== =+++++++++++++++  &&&&&&&&&&&&&&&&&&&&&&&&&    ++>>>>>>>>>>>>++ ++>>>>>>>>>>>>++ @+++@+@++@+@++@+ ++@@++@++@+@++@+ @+++@+@++@+@++@+ @+@++++@++@+@++@ +=============++.+++@=+=@>>=>>@++.+@@@@@@@@@@@@@@@ @+++++++++++++++  =========================    ++------------++ ++------------++ @+++@+@++@+@++@+ ++@@++@++@+@++@+ @+++@+@++@+@++@+ @+@++++@++@+@++@ +=============++.+++@=+=@--=--@++.+@@@@@@@@@@@@@@@ @+++++++++++++++  =========================    ++------------++ ++------------++ %+++%+%++%+%++%+ ++%%++%++%+%++%+ %+++%+%++%+%++%+ %+%++++%++%+%++% +>>>>>>>>>>>>>++.+++%>+>%-->--%++.+%%%%%%%%%%%%%%% %+++++++++++++++  >>>>>>>>>>>>>>>>>>>>>>>>>   ",
" ++&&&@@&&@@&&&++ ++&&&@@&&@@&&&++ =+++=+=++=+=++=+ +=+=++=++=+=++=+ =+++=+=++=+=++=+ =+=++++=++=+=++= +@@@@@@@@@@@@@++.+++=&@+@@@&@&=++.+=============== ==++++++++++++++  @@@@@@@@@@@@@@@@@@@@@@@@@    ++***&&**&&***++ ++***&&**&&***++ =+++=+=++=+=++=+ +=+=++=++=+=++=+ =+++=+=++=+=++=+ =+=++++=++=+=++= +&&&&&&&&&&&&&++.+++=*&+&&&*&*=++.+=============== ==++++++++++++++  &&&&&&&&&&&&&&&&&&&&&&&&&    ++>>>==>>==>>>++ ++>>>==>>==>>>++ @+++@+@++@+@++@+ +@+@++@++@+@++@+ @+++@+@++@+@++@+ @+@++++@++@+@++@ +=============++.+++@>=+===>=>@++.+@@@@@@@@@@@@@@@ @@++++++++++++++  =========================    ++---==--==---++ ++---==--==---++ @+++@+@++@+@++@+ +@+@++@++@+@++@+ @+++@+@++@+@++@+ @+@++++@++@+@++@ +=============++.+++@-=+===-=-@++.+@@@@@@@@@@@@@@@ @@++++++++++++++  =========================    ++--->>-->>---++ ++--->>-->>---++ %+++%+%++%+%++%+ +%+%++%++%+%++%+ %+++%+%++%+%++%+ %+%++++%++%+%++% +>>>>>>>>>>>>>++.+++%->+>>>->-%++.+%%%%%%%%%%%%%%% %%++++++++++++++  >>>>>>>>>>>>>>>>>>>>>>>>>   ",
" +&&&&@@&&@@&&&&+ +&&&&@@&&@@&&&&+ +++=++=++=+=++=+ =++=++=++=+=++=+ +===++=++=+=++=+ =+====+=++=+=++= +@@@@@@@@@@@@@++.+++=&&@+@+@&&=++.++============== ===+++++++++++++  @@@@@@@@@@@@@@@@@@@@@@@@@    +****&&**&&****+ +****&&**&&****+ +++=++=++=+=++=+ =++=++=++=+=++=+ +===++=++=+=++=+ =+====+=++=+=++= +&&&&&&&&&&&&&++.+++=**&+&+&**=++.++============== ===+++++++++++++  &&&&&&&&&&&&&&&&&&&&&&&&&    +>>>>==>>==>>>>+ +>>>>==>>==>>>>+ +++@++@++@+@++@+ @++@++@++@+@++@+ +@@@++@++@+@++@+ @+@@@@+@++@+@++@ +=============++.+++@>>=+=+=>>@++.++@@@@@@@@@@@@@@ @@@+++++++++++++  =========================    +----==--==----+ +----==--==----+ +++@++@++@+@++@+ @++@++@++@+@++@+ +@@@++@++@+@++@+ @+@@@@+@++@+@++@ +=============++.+++@--=+=+=--@++.++@@@@@@@@@@@@@@ @@@+++++++++++++  =========================    +---->>-->>----+ +---->>-->>----+ +++%++%++%+%++%+ %++%++%++%+%++%+ +%%%++%++%+%++%+ %+%%%%+%++%+%++% +>>>>>>>>>>>>>++.+++%-->+>+>--%++.++%%%%%%%%%%%%%% %%%+++++++++++++  >>>>>>>>>>>>>>>>>>>>>>>>>   ",
" +&&&&&&&&&&&&&&+ +&&&&&&&&&&&&&&+ ++=+++=++=+=++=+ =====+=++=+=++=+ =+++=+=++=+=++=+ =+=++=+=++=+=++= +@@@@@@@@@@@@@++.++=&@@&+++@&=+++.++============== ====++++++++++++  @@@@@@@@@@@@@@@@@@@@@@@@@    +**************+ +**************+ ++=+++=++=+=++=+ =====+=++=+=++=+ =+++=+=++=+=++=+ =+=++=+=++=+=++= +&&&&&&&&&&&&&++.++=*&&*+++&*=+++.++============== ====++++++++++++  &&&&&&&&&&&&&&&&&&&&&&&&&    +>>>>>>>>>>>>>>+ +>>>>>>>>>>>>>>+ ++@+++@++@+@++@+ @@@@@+@++@+@++@+ @+++@+@++@+@++@+ @+@++@+@++@+@++@ +=============++.++@>==>+++=>@+++.++@@@@@@@@@@@@@@ @@@@++++++++++++  =========================    +--------------+ +--------------+ ++@+++@++@+@++@+ @@@@@+@++@+@++@+ @+++@+@++@+@++@+ @+@++@+@++@+@++@ +=============++.++@-==-+++=-@+++.++@@@@@@@@@@@@@@ @@@@++++++++++++  =========================    +--------------+ +--------------+ ++%+++%++%+%++%+ %%%%%+%++%+%++%+ %+++%+%++%+%++%+ %+%++%+%++%+%++% +>>>>>>>>>>>>>++.++%->>-+++>-%+++.++%%%%%%%%%%%%%% %%%%++++++++++++  >>>>>>>>>>>>>>>>>>>>>>>>>   ",
" +&&&&&&&&&&&&&&+ +&&&&&&&&&&&&&&+ +=++++=++=+=++=+ +++=++=++=+=++=+ =+++=+=++=+=++=+ =+=++=+=++=+=++= +@@@@@@@@@@@@@++.++=&@@@&+@&=++++.+++============= =====+++++++++++  @@@@@@@@@@@@@@@@@@@@@@@@@    +**************+ +**************+ +=++++=++=+=++=+ +++=++=++=+=++=+ =+++=+=++=+=++=+ =+=++=+=++=+=++= +&&&&&&&&&&&&&++.++=*&&&*+&*=++++.+++============= =====+++++++++++  &&&&&&&&&&&&&&&&&&&&&&&&&    +>>>>>>>>>>>>>>+ +>>>>>>>>>>>>>>+ +@++++@++@+@++@+ +++@++@++@+@++@+ @+++@+@++@+@++@+ @+@++@+@++@+@++@ +=============++.++@>===>+=>@++++.+++@@@@@@@@@@@@@ @@@@@+++++++++++  =========================    +--------------+ +--------------+ +@++++@++@+@++@+ +++@++@++@+@++@+ @+++@+@++@+@++@+ @+@++@+@++@+@++@ +=============++.++@-===-+=-@++++.+++@@@@@@@@@@@@@ @@@@@+++++++++++  =========================    +--------------+ +--------------+ +%++++%++%+%++%+ +++%++%++%+%++%+ %+++%+%++%+%++%+ %+%++%+%++%+%++% +>>>>>>>>>>>>>++.++%->>>-+>-%++++.+++%%%%%%%%%%%%% %%%%%+++++++++++  >>>>>>>>>>>>>>>>>>>>>>>>>   ",
" +&&@@&&@@&&@@&&+ +&&@@&&@@&&@@&&+ =====++==+++==++ +++=+++==+++==++ +===+++==+++==++ =++==+++==+++==+ ++@@@@@@@@@@@+++.++=@&+@@@@@&=+++.++++============ ======++++++++++  @@@@@@@@@@@@@@@@@@@@@@@@@    +**&&**&&**&&**+ +**&&**&&**&&**+ =====++==+++==++ +++=+++==+++==++ +===+++==+++==++ =++==+++==+++==+ ++&&&&&&&&&&&+++.++=&*+&&&&&*=+++.++++============ ======++++++++++  &&&&&&&&&&&&&&&&&&&&&&&&&    +>>==>>==>>==>>+ +>>==>>==>>==>>+ @@@@@++@@+++@@++ +++@+++@@+++@@++ +@@@+++@@+++@@++ @++@@+++@@+++@@+ ++===========+++.++@=>+=====>@+++.++++@@@@@@@@@@@@ @@@@@@++++++++++  =========================    +--==--==--==--+ +--==--==--==--+ @@@@@++@@+++@@++ +++@+++@@+++@@++ +@@@+++@@+++@@++ @++@@+++@@+++@@+ ++===========+++.++@=-+=====-@+++.++++@@@@@@@@@@@@ @@@@@@++++++++++  =========================    +-->>-->>-->>--+ +-->>-->>-->>--+ %%%%%++%%+++%%++ +++%+++%%+++%%++ +%%%+++%%+++%%++ %++%%+++%%+++%%+ ++>>>>>>>>>>>+++.++%>-+>>>>>-%+++.++++%%%%%%%%%%%% %%%%%%++++++++++  >>>>>>>>>>>>>>>>>>>>>>>>>   ",
" +&@&&@@&&@@&&@&+ +&@&&@@&&@@&&@&+ ++++++++++++++++ ++++++++++++++++ ++++++++++++++++ ++++++++++++++++ ++@@@@@@@@@@@+++.+++=&++&&@+@=+++.+++++=========== =======+++++++++  @@@@@@@@@@@@@@@@@@@@@@@@@    +*&**&&**&&**&*+ +*&**&&**&&**&*+ ++++++++++++++++ ++++++++++++++++ ++++++++++++++++ ++++++++++++++++ ++&&&&&&&&&&&+++.+++=*++**&+&=+++.+++++=========== =======+++++++++  &&&&&&&&&&&&&&&&&&&&&&&&&    +>=>>==>>==>>=>+ +>=>>==>>==>>=>+ ++++++++++++++++ ++++++++++++++++ ++++++++++++++++ ++++++++++++++++ ++===========+++.+++@>++>>=+=@+++.+++++@@@@@@@@@@@ @@@@@@@+++++++++  =========================    +-=--==--==--=-+ +-=--==--==--=-+ ++++++++++++++++ ++++++++++++++++ ++++++++++++++++ ++++++++++++++++ ++===========+++.+++@-++--=+=@+++.+++++@@@@@@@@@@@ @@@@@@@+++++++++  =========================    +->-->>-->>-->-+ +->-->>-->>-->-+ ++++++++++++++++ ++++++++++++++++ ++++++++++++++++ ++++++++++++++++ ++>>>>>>>>>>>+++.+++%-++-->+>%+++.+++++%%%%%%%%%%% %%%%%%%+++++++++  >>>>>>>>>>>>>>>>>>>>>>>>>   ",
" +&&&&&&&&&&&&&&+ +&&&&&&&&&&&&&&+ ++++++++++++++++ ++++++++++++++++ ++++++++++++++++ ++++++++++++++++ +++@@@@@@@@@++++.+++==&&==&&==+++.++++++========== ========++++++++  @@@@@@@@@@@@@@@@@@@@@@@@@    +**************+ +**************+ ++++++++++++++++ ++++++++++++++++ ++++++++++++++++ ++++++++++++++++ +++&&&&&&&&&++++.+++==**==**==+++.++++++========== ========++++++++  &&&&&&&&&&&&&&&&&&&&&&&&&    +>>>>>>>>>>>>>>+ +>>>>>>>>>>>>>>+ ++++++++++++++++ ++++++++++++++++ ++++++++++++++++ ++++++++++++++++ +++=========++++.+++@@>>@@>>@@+++.++++++@@@@@@@@@@ @@@@@@@@++++++++  =========================    +--------------+ +--------------+ ++++++++++++++++ ++++++++++++++++ ++++++++++++++++ ++++++++++++++++ +++=========++++.+++@@--@@--@@+++.++++++@@@@@@@@@@ @@@@@@@@++++++++  =========================    +--------------+ +--------------+ ++++++++++++++++ ++++++++++++++++ ++++++++++++++++ ++++++++++++++++ +++>>>>>>>>>++++.+++%%--%%--%%+++.++++++%%%%%%%%%% %%%%%%%%++++++++  >>>>>>>>>>>>>>>>>>>>>>>>>   ",
" +&&+&&&++&&&+&&+ +&&&&+&&&&+&&&&+ ++++++++++++++++ ++++++++++++++++ ++++++++++++++++ ++++++++++++++++ +++++@@@@@++++++.++==+==++==+==++.+++++++========= ========++++++++  @@@@@@@@@@@@@@@@@@@@@@@@@    +**+***++***+**+ +****+****+****+ ++++++++++++++++ ++++++++++++++++ ++++++++++++++++ ++++++++++++++++ +++++&&&&&++++++.++==+==++==+==++.+++++++========= ========++++++++  &&&&&&&&&&&&&&&&&&&&&&&&&    +>>+>>>++>>>+>>+ +>>>>+>>>>+>>>>+ ++++++++++++++++ ++++++++++++++++ ++++++++++++++++ ++++++++++++++++ +++++=====++++++.++@@+@@++@@+@@++.+++++++@@@@@@@@@ @@@@@@@@++++++++  =========================    +--+---++---+--+ +----+----+----+ ++++++++++++++++ ++++++++++++++++ ++++++++++++++++ ++++++++++++++++ +++++=====++++++.++@@+@@++@@+@@++.+++++++@@@@@@@@@ @@@@@@@@++++++++  =========================    +--+---++---+--+ +----+----+----+ ++++++++++++++++ ++++++++++++++++ ++++++++++++++++ ++++++++++++++++ +++++>>>>>++++++.++%%+%%++%%+%%++.+++++++%%%%%%%%% %%%%%%%%++++++++  >>>>>>>>>>>>>>>>>>>>>>>>>   ",
" +&+++&&++&&+++&+ ++&&+++&&+++&&++ ++++++++++++++++ ++++++++++++++++ ++++++++++++++++ ++++++++++++++++ ++++++++++++++++.+=++++++++++++=+.+++++++++======= =======+++++++++  @@@@@@@@@@@@@@@@@@@@@@@@@    +*+++**++**+++*+ ++**+++**+++**++ ++++++++++++++++ ++++++++++++++++ ++++++++++++++++ ++++++++++++++++ ++++++++++++++++.+=++++++++++++=+.+++++++++======= =======+++++++++  &&&&&&&&&&&&&&&&&&&&&&&&&    +>+++>>++>>+++>+ ++>>+++>>+++>>++ ++++++++++++++++ ++++++++++++++++ ++++++++++++++++ ++++++++++++++++ ++++++++++++++++.+@++++++++++++@+.+++++++++@@@@@@@ @@@@@@@+++++++++  =========================    +-+++--++--+++-+ ++--+++--+++--++ ++++++++++++++++ ++++++++++++++++ ++++++++++++++++ ++++++++++++++++ ++++++++++++++++.+@++++++++++++@+.+++++++++@@@@@@@ @@@@@@@+++++++++  =========================    +-+++--++--+++-+ ++--+++--+++--++ ++++++++++++++++ ++++++++++++++++ ++++++++++++++++ ++++++++++++++++ ++++++++++++++++.+%++++++++++++%+.+++++++++%%%%%%% %%%%%%%+++++++++  >>>>>>>>>>>>>>>>>>>>>>>>>   ",
" ++++++++++++++++ ++++++++++++++++ ++++++++++++++++ ++++++++++++++++ ++++++++++++++++ ++++++++++++++++ ++++++++++++++++.=++++++++++++++=.++++++++++++==== ====++++++++++++                               ++++++++++++++++ ++++++++++++++++ ++++++++++++++++ ++++++++++++++++ ++++++++++++++++ ++++++++++++++++ ++++++++++++++++.=++++++++++++++=.++++++++++++==== ====++++++++++++                               ++++++++++++++++ ++++++++++++++++ ++++++++++++++++ ++++++++++++++++ ++++++++++++++++ ++++++++++++++++ ++++++++++++++++.@++++++++++++++@.++++++++++++@@@@ @@@@++++++++++++                               ++++++++++++++++ ++++++++++++++++ ++++++++++++++++ ++++++++++++++++ ++++++++++++++++ ++++++++++++++++ ++++++++++++++++.@++++++++++++++@.++++++++++++@@@@ @@@@++++++++++++                               ++++++++++++++++ ++++++++++++++++ ++++++++++++++++ ++++++++++++++++ ++++++++++++++++ ++++++++++++++++ ++++++++++++++++.%++++++++++++++%.++++++++++++%%%% %%%%++++++++++++                              ",
"                                                                                                                       ..................                                                                                                                                                                                      ..................                                                                                                                                                                                      ..................                                                                                                                                                                                      ..................                                                                                                                                                                                      ..................                                                               ",
"                                                                                                                                                                                                                                                                                                                                                                                                                                                                                                                                                                                                                                                                                                                                                                                                                                                                                                                                                                                                                                        ",
"                                                                                          .......................................................                                                                                                                                                 .......................................................                                                                                                                                                 .......................................................                                                                                                                                                 .......................................................                                                                                                                                                                                                                                                               ",
" ++++++++ ++++++++ ++++++++ ++++++++ ++++++++ ++++++++ ++++++++ ++++++++ ++++++++ ++++++++.++++++++.++++++++.++++++++.++++++++.++++++++.++++++++.++++++++ ++++++++ ++++++++ ++++++++ ++++++++ ++++++++   ++++++++ ++++++++ ++++++++ ++++++++ ++++++++ ++++++++ ++++++++ ++++++++ ++++++++ ++++++++.++++++++.++++++++.++++++++.++++++++.++++++++.++++++++.++++++++ ++++++++ ++++++++ ++++++++ ++++++++ ++++++++   ++++++++ ++++++++ ++++++++ ++++++++ ++++++++ ++++++++ ++++++++ ++++++++ ++++++++ ++++++++.++++++++.++++++++.++++++++.++++++++.++++++++.++++++++.++++++++ ++++++++ ++++++++ ++++++++ ++++++++ ++++++++   ++++++++ ++++++++ ++++++++ ++++++++ ++++++++ ++++++++ ++++++++ ++++++++ ++++++++ ++++++++.++++++++.++++++++.++++++++.++++++++.++++++++.++++++++.++++++++ ++++++++ ++++++++ ++++++++ ++++++++ ++++++++   ++++++++++++++++++++++++++++++++++++++++++++++++++++++++++++++++++++++++++++++++++++++++++++++++++++++++++++++++++++++++++++++++++++++++++++++++++++++++                                               ",
" +++===++ ++++==++ ++=====+ ++====== ++++===+ +======+ +++====+ +======= ++====++ ++=====+.+++===++.+======+.+++====+.+=====++.++======.+=======.++++++++ ++++++++ ++++++++ ++++++++ ++++++++ ++++++++   +++;;;++ ++++;;++ ++;;;;;+ ++;;;;;; ++++;;;+ +;;;;;;+ +++;;;;+ +;;;;;;; ++;;;;++ ++;;;;;+.+++;;;++.+;;;;;;+.+++;;;;+.+;;;;;++.++;;;;;;.+;;;;;;;.++++++++ ++++++++ ++++++++ ++++++++ ++++++++ ++++++++   +++===++ ++++==++ ++=====+ ++====== ++++===+ +======+ +++====+ +======= ++====++ ++=====+.+++===++.+======+.+++====+.+=====++.++======.+=======.++++++++ ++++++++ ++++++++ ++++++++ ++++++++ ++++++++   +++&&&++ ++++&&++ ++&&&&&+ ++&&&&&& ++++&&&+ +&&&&&&+ +++&&&&+ +&&&&&&& ++&&&&++ ++&&&&&+.+++&&&++.+&&&&&&+.+++&&&&+.+&&&&&++.++&&&&&&.+&&&&&&&.++++++++ ++++++++ ++++++++ ++++++++ ++++++++ ++++++++   ++++++++++++++++++++++++++++++++++++++++++++++++++++++++++++++++++++++++++++++++++++++++++++++++++++++++++++++++++++++++++++++++++++++++++++++++++++++++                                               ",
" ++=++==+ +++===++ +==+++== +++++==+ +++====+ +==+++++ ++==++++ +==+++== +==+++=+ +==+++==.++==+==+.+==+++==.++==++==.+==++==+.++==++++.+==+++++.++++++++ ++++++++ ++++++++ ++++++++ ++++++++ ++++++++   ++;++;;+ +++;;;++ +;;+++;; +++++;;+ +++;;;;+ +;;+++++ ++;;++++ +;;+++;; +;;+++;+ +;;+++;;.++;;+;;+.+;;+++;;.++;;++;;.+;;++;;+.++;;++++.+;;+++++.++++++++ ++++++++ ++++++++ ++++++++ ++++++++ ++++++++   ++=++==+ +++===++ +==+++== +++++==+ +++====+ +==+++++ ++==++++ +==+++== +==+++=+ +==+++==.++==+==+.+==+++==.++==++==.+==++==+.++==++++.+==+++++.++++++++ ++++++++ ++++++++ ++++++++ ++++++++ ++++++++   ++&++&&+ +++&&&++ +&&+++&& +++++&&+ +++&&&&+ +&&+++++ ++&&++++ +&&+++&& +&&+++&+ +&&+++&&.++&&+&&+.+&&+++&&.++&&++&&.+&&++&&+.++&&++++.+&&+++++.++++++++ ++++++++ ++++++++ ++++++++ ++++++++ ++++++++   ++++++++++++++++++++++++++++++++++++++++++++++++++++++++++++++++++++++++++++++++++++++++++++++++++++++++++++++++++++++++++++++++++++++++++++++++++++++++                                               ",
" +==+++== ++++==++ +++++=== ++++==++ ++==+==+ +======+ +==+++++ +++++==+ +===++=+ +==+++==.+==+++==.+==+++==.+==+++++.+==+++==.++==++++.+==+++++.++++++++ ++++++++ ++++++++ ++++++++ ++++++++ ++++++++   +;;+++;; ++++;;++ +++++;;; ++++;;++ ++;;+;;+ +;;;;;;+ +;;+++++ +++++;;+ +;;;++;+ +;;+++;;.+;;+++;;.+;;+++;;.+;;+++++.+;;+++;;.++;;++++.+;;+++++.++++++++ ++++++++ ++++++++ ++++++++ ++++++++ ++++++++   +==+++== ++++==++ +++++=== ++++==++ ++==+==+ +======+ +==+++++ +++++==+ +===++=+ +==+++==.+==+++==.+==+++==.+==+++++.+==+++==.++==++++.+==+++++.++++++++ ++++++++ ++++++++ ++++++++ ++++++++ ++++++++   +&&+++&& ++++&&++ +++++&&& ++++&&++ ++&&+&&+ +&&&&&&+ +&&+++++ +++++&&+ +&&&++&+ +&&+++&&.+&&+++&&.+&&+++&&.+&&+++++.+&&+++&&.++&&++++.+&&+++++.++++++++ ++++++++ ++++++++ ++++++++ ++++++++ ++++++++   ++++++++++++++++++++++++++++++++++++++++++++++++++++++++++++++++++++++++++++++++++++++++++++++++++++++++++++++++++++++++++++++++++++++++++++++++++++++++                                               ",
" +==+++== ++++==++ +++====+ +++====+ +==++==+ ++++++== +======+ ++++==++ ++====++ ++======.+==+++==.+======+.+==+++++.+==+++==.++=====+.+======+.++++++== ======== ==++++++ ++++==== ======== ====++++   +;;+++;; ++++;;++ +++;;;;+ +++;;;;+ +;;++;;+ ++++++;; +;;;;;;+ ++++;;++ ++;;;;++ ++;;;;;;.+;;+++;;.+;;;;;;+.+;;+++++.+;;+++;;.++;;;;;+.+;;;;;;+.++++++;; ;;;;;;;; ;;++++++ ++++;;;; ;;;;;;;; ;;;;++++   +==+++== ++++==++ +++====+ +++====+ +==++==+ ++++++== +======+ ++++==++ ++====++ ++======.+==+++==.+======+.+==+++++.+==+++==.++=====+.+======+.++++++== ======== ==++++++ ++++==== ======== ====++++   +&&+++&& ++++&&++ +++&&&&+ +++&&&&+ +&&++&&+ ++++++&& +&&&&&&+ ++++&&++ ++&&&&++ ++&&&&&&.+&&+++&&.+&&&&&&+.+&&+++++.+&&+++&&.++&&&&&+.+&&&&&&+.++++++&& &&&&&&&& &&++++++ ++++&&&& &&&&&&&& &&&&++++   ++++++++++++++++++++++++++++++++++++++++++++++++++++++++++++++++++++++++++++++++++++++++++++++++++++++++++++++++++++++++++++++++++++++++++++++++++++++++                                               ",
" +==+++== ++++==++ ++====++ ++++++== +======= ++++++== +==+++== +++==+++ +=++==== ++++++==.+=======.+==+++==.+==+++++.+==+++==.++==++++.+==+++++.+++++=-- -------- --=+++++ ++++=--- -------- ---=++++   +;;+++;; ++++;;++ ++;;;;++ ++++++;; +;;;;;;; ++++++;; +;;+++;; +++;;+++ +;++;;;; ++++++;;.+;;;;;;;.+;;+++;;.+;;+++++.+;;+++;;.++;;++++.+;;+++++.+++++;@@ @@@@@@@@ @@;+++++ ++++;@@@ @@@@@@@@ @@@;++++   +==+++== ++++==++ ++====++ ++++++== +======= ++++++== +==+++== +++==+++ +=++==== ++++++==.+=======.+==+++==.+==+++++.+==+++==.++==++++.+==+++++.+++++=,, ,,,,,,,, ,,=+++++ ++++=,,, ,,,,,,,, ,,,=++++   +&&+++&& ++++&&++ ++&&&&++ ++++++&& +&&&&&&& ++++++&& +&&+++&& +++&&+++ +&++&&&& ++++++&&.+&&&&&&&.+&&+++&&.+&&+++++.+&&+++&&.++&&++++.+&&+++++.+++++&++ ++++++++ ++&+++++ ++++&+++ ++++++++ +++&++++   ++++++++++++++++++++++++++++++++++++++++++++++++++++++++++++++++++++++++++++++++++++++++++++++++++++++++++++++++++++++++++++++++++++++++++++++++++++++++                                               ",
" ++==++=+ ++++==++ +===++++ +==+++== +++++==+ +==+++== +==+++== +++==+++ +=++++== +++++==+.+==+++==.+==+++==.++==++==.+==++==+.++==++++.+==+++++.++++=--- -------- ---=++++ ++++=--- -------- ---=++++   ++;;++;+ ++++;;++ +;;;++++ +;;+++;; +++++;;+ +;;+++;; +;;+++;; +++;;+++ +;++++;; +++++;;+.+;;+++;;.+;;+++;;.++;;++;;.+;;++;;+.++;;++++.+;;+++++.++++;@@@ @@@@@@@@ @@@;++++ ++++;@@@ @@@@@@@@ @@@;++++   ++==++=+ ++++==++ +===++++ +==+++== +++++==+ +==+++== +==+++== +++==+++ +=++++== +++++==+.+==+++==.+==+++==.++==++==.+==++==+.++==++++.+==+++++.++++=,,, ,,,,,,,, ,,,=++++ ++++=,,, ,,,,,,,, ,,,=++++   ++&&++&+ ++++&&++ +&&&++++ +&&+++&& +++++&&+ +&&+++&& +&&+++&& +++&&+++ +&++++&& +++++&&+.+&&+++&&.+&&+++&&.++&&++&&.+&&++&&+.++&&++++.+&&+++++.++++&+++ ++++++++ +++&++++ ++++&+++ ++++++++ +++&++++   ++++++++++++++++++++++++++++++++++++++++++++++++++++++++++++++++++++++++++++++++++++++++++++++++++++++++++++++++++++++++++++++++++++++++++++++++++++++++                                               ",
" +++===++ ++====== +======= ++=====+ +++++==+ ++=====+ ++=====+ +++==+++ ++=====+ ++====++.+==+++==.+======+.+++====+.+=====++.++======.+==+++++.++++=--- -------- ---=++++ ++++=--= ======== =--=++++   +++;;;++ ++;;;;;; +;;;;;;; ++;;;;;+ +++++;;+ ++;;;;;+ ++;;;;;+ +++;;+++ ++;;;;;+ ++;;;;++.+;;+++;;.+;;;;;;+.+++;;;;+.+;;;;;++.++;;;;;;.+;;+++++.++++;@@@ @@@@@@@@ @@@;++++ ++++;@@; ;;;;;;;; ;@@;++++   +++===++ ++====== +======= ++=====+ +++++==+ ++=====+ ++=====+ +++==+++ ++=====+ ++====++.+==+++==.+======+.+++====+.+=====++.++======.+==+++++.++++=,,, ,,,,,,,, ,,,=++++ ++++=,,= ======== =,,=++++   +++&&&++ ++&&&&&& +&&&&&&& ++&&&&&+ +++++&&+ ++&&&&&+ ++&&&&&+ +++&&+++ ++&&&&&+ ++&&&&++.+&&+++&&.+&&&&&&+.+++&&&&+.+&&&&&++.++&&&&&&.+&&+++++.++++&+++ ++++++++ +++&++++ ++++&++& &&&&&&&& &++&++++   ++++++++++++++++++++++++++++++++++++++++++++++++++++++++++++++++++++++++++++++++++++++++++++++++++++++++++++++++++++++++++++++++++++++++++++++++++++++++                                               ",
"                                                                                          .......................................................                                                                                                                                                 .......................................................                                                                                                                                                 .......................................................                                                                                                                                                 .......................................................                                                        ================================----------------========$$$$$$$$&&&&&&&&&&&&&&&&================@@@@@@@@@@@@@@@@%%%%%%%%''''''''********;;;;;;;;========                                               ",
" =======+ +++===== =+++==== =====+++ +======= +++===== =+++++++ ++++++++ ++++++++ ++++++++ +++++++= ++++++++ ++++++++ ++++++++ ++++++++ ++++++++ ++++=--- -------- ---=++++ ++++=--= ++++++++ =--=++++   ;;;;;;;+ +++;;;;; ;+++;;;; ;;;;;+++ +;;;;;;; +++;;;;; ;+++++++ ++++++++ ++++++++ ++++++++ +++++++; ++++++++ ++++++++ ++++++++ ++++++++ ++++++++ ++++;@@@ @@@@@@@@ @@@;++++ ++++;@@; ++++++++ ;@@;++++   =======+ +++===== =+++==== =====+++ +======= +++===== =+++++++ ++++++++ ++++++++ ++++++++ +++++++= ++++++++ ++++++++ ++++++++ ++++++++ ++++++++ ++++=,,, ,,,,,,,, ,,,=++++ ++++=,,= ++++++++ =,,=++++   &&&&&&&+ +++&&&&& &+++&&&& &&&&&+++ +&&&&&&& +++&&&&& &+++++++ ++++++++ ++++++++ ++++++++ +++++++& ++++++++ ++++++++ ++++++++ ++++++++ ++++++++ ++++&+++ ++++++++ +++&++++ ++++&++& ++++++++ &++&++++   ================================----------------========$$$$$$$$&&&&&&&&&&&&&&&&================@@@@@@@@@@@@@@@@%%%%%%%%''''''''********;;;;;;;;========                                               ",
" ======== +++===== ==++==== ======++ ======== ++====== ==++++++ ++++++++ ++++++++ ++++++++ ++++++=+ ++++++++ ++++++++ ++++++++ ++++++++ ++++++++ ++++=--- -------- ---=++++ ++++=--= ++++++++ =--=++++   ;;;;;;;; +++;;;;; ;;++;;;; ;;;;;;++ ;;;;;;;; ++;;;;;; ;;++++++ ++++++++ ++++++++ ++++++++ ++++++;+ ++++++++ ++++++++ ++++++++ ++++++++ ++++++++ ++++;@@@ @@@@@@@@ @@@;++++ ++++;@@; ++++++++ ;@@;++++   ======== +++===== ==++==== ======++ ======== ++====== ==++++++ ++++++++ ++++++++ ++++++++ ++++++=+ ++++++++ ++++++++ ++++++++ ++++++++ ++++++++ ++++=,,, ,,,,,,,, ,,,=++++ ++++=,,= ++++++++ =,,=++++   &&&&&&&& +++&&&&& &&++&&&& &&&&&&++ &&&&&&&& ++&&&&&& &&++++++ ++++++++ ++++++++ ++++++++ ++++++&+ ++++++++ ++++++++ ++++++++ ++++++++ ++++++++ ++++&+++ ++++++++ +++&++++ ++++&++& ++++++++ &++&++++   ================================----------------========$$$$$$$$&&&&&&&&&&&&&&&&================@@@@@@@@@@@@@@@@%%%%%%%%''''''''********;;;;;;;;========                                               ",
" ==++++== ++++++++ ==++==++ ==++==++ ==++++++ ++==++++ ==++++++ ====++== ===++=== =+++++++ +++++=++ ++++++++ ++++++++ ++++++++ ++++++++ ++++++++ ++++=--- -------- ---=++++ ++++=--= ++++++++ =--=++++   ;;++++;; ++++++++ ;;++;;++ ;;++;;++ ;;++++++ ++;;++++ ;;++++++ ;;;;++;; ;;;++;;; ;+++++++ +++++;++ ++++++++ ++++++++ ++++++++ ++++++++ ++++++++ ++++;@@@ @@@@@@@@ @@@;++++ ++++;@@; ++++++++ ;@@;++++   ==++++== ++++++++ ==++==++ ==++==++ ==++++++ ++==++++ ==++++++ ====++== ===++=== =+++++++ +++++=++ ++++++++ ++++++++ ++++++++ ++++++++ ++++++++ ++++=,,, ,,,,,,,, ,,,=++++ ++++=,,= ++++++++ =,,=++++   &&++++&& ++++++++ &&++&&++ &&++&&++ &&++++++ ++&&++++ &&++++++ &&&&++&& &&&++&&& &+++++++ +++++&++ ++++++++ ++++++++ ++++++++ ++++++++ ++++++++ ++++&+++ ++++++++ +++&++++ ++++&++& ++++++++ &++&++++   ================================----------------========$$$$$$$$&&&&&&&&&&&&&&&&================@@@@@@@@@@@@@@@@%%%%%%%%''''''''********;;;;;;;;========                                               ",
" ==++++== ++====== ==++==++ ==++==++ ==++++++ ++==++++ ==++++++ =+++=+++ =+++=+++ ++++++++ ++++=+++ +++===++ ++++++++ ++++++++ ++++++++ +++''+++ ++++=--- -------- ---=++++ ++++=--= ++++++++ =--=++++   ;;++++;; ++;;;;;; ;;++;;++ ;;++;;++ ;;++++++ ++;;++++ ;;++++++ ;+++;+++ ;+++;+++ ++++++++ ++++;+++ +++;;;++ ++++++++ ++++++++ ++++++++ +++**+++ ++++;@@@ @@@@@@@@ @@@;++++ ++++;@@; ++++++++ ;@@;++++   ==++++== ++====== ==++==++ ==++==++ ==++++++ ++==++++ ==++++++ =+++=+++ =+++=+++ ++++++++ ++++=+++ +++===++ ++++++++ ++++++++ ++++++++ +++;;+++ ++++=,,, ,,,,,,,, ,,,=++++ ++++=,,= ++++++++ =,,=++++   &&++++&& ++&&&&&& &&++&&++ &&++&&++ &&++++++ ++&&++++ &&++++++ &+++&+++ &+++&+++ ++++++++ ++++&+++ +++&&&++ ++++++++ ++++++++ ++++++++ +++==+++ ++++&+++ ++++++++ +++&++++ ++++&++& ++++++++ &++&++++   ================================----------------========$$$$$$$$&&&&&&&&&&&&&&&&================@@@@@@@@@@@@@@@@%%%%%%%%''''''''********;;;;;;;;========                                               ",
" ==++++== ++====== ==++==++ ==++==++ ==++++++ ++==++++ ==++++++ ====++++ =++++=== ++++++++ +++=++++ ++++++++ ++++++++ ++++++== ==++++++ +++''+++ ++++=--- -------- ---=++++ ++++=--= ++++++++ =--=++++   ;;++++;; ++;;;;;; ;;++;;++ ;;++;;++ ;;++++++ ++;;++++ ;;++++++ ;;;;++++ ;++++;;; ++++++++ +++;++++ ++++++++ ++++++++ ++++++;; ;;++++++ +++**+++ ++++;@@@ @@@@@@@@ @@@;++++ ++++;@@; ++++++++ ;@@;++++   ==++++== ++====== ==++==++ ==++==++ ==++++++ ++==++++ ==++++++ ====++++ =++++=== ++++++++ +++=++++ ++++++++ ++++++++ ++++++== ==++++++ +++;;+++ ++++=,,, ,,,,,,,, ,,,=++++ ++++=,,= ++++++++ =,,=++++   &&++++&& ++&&&&&& &&++&&++ &&++&&++ &&++++++ ++&&++++ &&++++++ &&&&++++ &++++&&& ++++++++ +++&++++ ++++++++ ++++++++ ++++++&& &&++++++ +++==+++ ++++&+++ ++++++++ +++&++++ ++++&++& ++++++++ &++&++++   ================================----------------========$$$$$$$$&&&&&&&&&&&&&&&&================@@@@@@@@@@@@@@@@%%%%%%%%''''''''********;;;;;;;;========                                               ",
" ==++++== ++==++++ ==++==++ ==++==++ ==++++++ ++==++++ ==++++++ =+++++++ =+++++++ =+++++++ ++=+++++ ++++++++ +==+++++ ++++==== ====++++ ++++++++ ++++=--- -------- ---=++++ ++++=--= ++++++++ =--=++++   ;;++++;; ++;;++++ ;;++;;++ ;;++;;++ ;;++++++ ++;;++++ ;;++++++ ;+++++++ ;+++++++ ;+++++++ ++;+++++ ++++++++ +;;+++++ ++++;;;; ;;;;++++ ++++++++ ++++;@@@ @@@@@@@@ @@@;++++ ++++;@@; ++++++++ ;@@;++++   ==++++== ++==++++ ==++==++ ==++==++ ==++++++ ++==++++ ==++++++ =+++++++ =+++++++ =+++++++ ++=+++++ ++++++++ +==+++++ ++++==== ====++++ ++++++++ ++++=,,, ,,,,,,,, ,,,=++++ ++++=,,= ++++++++ =,,=++++   &&++++&& ++&&++++ &&++&&++ &&++&&++ &&++++++ ++&&++++ &&++++++ &+++++++ &+++++++ &+++++++ ++&+++++ ++++++++ +&&+++++ ++++&&&& &&&&++++ ++++++++ ++++&+++ ++++++++ +++&++++ ++++&++& ++++++++ &++&++++   ================================----------------========$$$$$$$$&&&&&&&&&&&&&&&&================@@@@@@@@@@@@@@@@%%%%%%%%''''''''********;;;;;;;;========                                               ",
" ==++++== ++====== ==++==++ ==++==++ ======== ++====== ==++++++ =+++++++ =+++==== ++++++++ +=++++++ ++++++++ +==+++++ +++===== =====+++ ++++++++ ++++=--- -------- ---=++++ ++++=--= ++++++++ =--=++++   ;;++++;; ++;;;;;; ;;++;;++ ;;++;;++ ;;;;;;;; ++;;;;;; ;;++++++ ;+++++++ ;+++;;;; ++++++++ +;++++++ ++++++++ +;;+++++ +++;;;;; ;;;;;+++ ++++++++ ++++;@@@ @@@@@@@@ @@@;++++ ++++;@@; ++++++++ ;@@;++++   ==++++== ++====== ==++==++ ==++==++ ======== ++====== ==++++++ =+++++++ =+++==== ++++++++ +=++++++ ++++++++ +==+++++ +++===== =====+++ ++++++++ ++++=,,, ,,,,,,,, ,,,=++++ ++++=,,= ++++++++ =,,=++++   &&++++&& ++&&&&&& &&++&&++ &&++&&++ &&&&&&&& ++&&&&&& &&++++++ &+++++++ &+++&&&& ++++++++ +&++++++ ++++++++ +&&+++++ +++&&&&& &&&&&+++ ++++++++ ++++&+++ ++++++++ +++&++++ ++++&++& ++++++++ &++&++++   ================================----------------========$$$$$$$$&&&&&&&&&&&&&&&&================@@@@@@@@@@@@@@@@%%%%%%%%''''''''********;;;;;;;;========                                               ",
" ==++++== ++====== ==++==++ ==++==++ +======= +++===== =+++++++ ++++++++ ++++++++ ++++++++ ++++++++ ++++++++ ++++++++ ++===''= ===''=++ ++++++++ ++++=--- -------- ---=++++ ++++=--= ++++++++ =--=++++   ;;++++;; ++;;;;;; ;;++;;++ ;;++;;++ +;;;;;;; +++;;;;; ;+++++++ ++++++++ ++++++++ ++++++++ ++++++++ ++++++++ ++++++++ ++;;;**; ;;;**;++ ++++++++ ++++;@@@ @@@@@@@@ @@@;++++ ++++;@@; ++++++++ ;@@;++++   ==++++== ++====== ==++==++ ==++==++ +======= +++===== =+++++++ ++++++++ ++++++++ ++++++++ ++++++++ ++++++++ ++++++++ ++===;;= ===;;=++ ++++++++ ++++=,,, ,,,,,,,, ,,,=++++ ++++=,,= ++++++++ =,,=++++   &&++++&& ++&&&&&& &&++&&++ &&++&&++ +&&&&&&& +++&&&&& &+++++++ ++++++++ ++++++++ ++++++++ ++++++++ ++++++++ ++++++++ ++&&&==& &&&==&++ ++++++++ ++++&+++ ++++++++ +++&++++ ++++&++& ++++++++ &++&++++   ****************************************========********########++++++++++++++++&&&&&&&&********>>>>>>>>------------------------@@@@@@@@,,,,,,,,++++++++                                               ",
"                                                                                                                                       ..........                                                                                                                                                                                              ..........                                                                                                                                                                                              ..........                                                                                                                                                                                              ..........                                                        ****************************************========********########++++++++++++++++&&&&&&&&********>>>>>>>>------------------------@@@@@@@@,,,,,,,,++++++++                                               ",
" +++===++ ++++==++ ++=====+ ++====== ++++===+ +======+ +++====+ +======= ++====++ ++=====+ ++==+==+ ++====++ ++++===+ ++=='''' ==''''++.++++++++.++++=--- -------- ---=++++ ++++=--= ======== =--=++++   +++;;;++ ++++;;++ ++;;;;;+ ++;;;;;; ++++;;;+ +;;;;;;+ +++;;;;+ +;;;;;;; ++;;;;++ ++;;;;;+ ++;;+;;+ ++;;;;++ ++++;;;+ ++;;**** ;;****++.++++++++.++++;@@@ @@@@@@@@ @@@;++++ ++++;@@; ;;;;;;;; ;@@;++++   +++===++ ++++==++ ++=====+ ++====== ++++===+ +======+ +++====+ +======= ++====++ ++=====+ ++==+==+ ++====++ ++++===+ ++==;;;; ==;;;;++.++++++++.++++=,,, ,,,,,,,, ,,,=++++ ++++=,,= ======== =,,=++++   +++&&&++ ++++&&++ ++&&&&&+ ++&&&&&& ++++&&&+ +&&&&&&+ +++&&&&+ +&&&&&&& ++&&&&++ ++&&&&&+ ++&&+&&+ ++&&&&++ ++++&&&+ ++&&==== &&====++.++++++++.++++&+++ ++++++++ +++&++++ ++++&++& &&&&&&&& &++&++++   ****************************************========********########++++++++++++++++&&&&&&&&********>>>>>>>>------------------------@@@@@@@@,,,,,,,,++++++++                                               ",
" ++=++==+ +++===++ +==+++== +++++==+ +++====+ +==+++++ ++==++++ +==+++== +==+++=+ +==+++== ++==+==+ +=++++=+ ++++===+ ++==''-- ==''--++.++++++++.++++=--- -------- ---=++++ ++++=--- -------- ---=++++   ++;++;;+ +++;;;++ +;;+++;; +++++;;+ +++;;;;+ +;;+++++ ++;;++++ +;;+++;; +;;+++;+ +;;+++;; ++;;+;;+ +;++++;+ ++++;;;+ ++;;**@@ ;;**@@++.++++++++.++++;@@@ @@@@@@@@ @@@;++++ ++++;@@@ @@@@@@@@ @@@;++++   ++=++==+ +++===++ +==+++== +++++==+ +++====+ +==+++++ ++==++++ +==+++== +==+++=+ +==+++== ++==+==+ +=++++=+ ++++===+ ++==;;,, ==;;,,++.++++++++.++++=,,, ,,,,,,,, ,,,=++++ ++++=,,, ,,,,,,,, ,,,=++++   ++&++&&+ +++&&&++ +&&+++&& +++++&&+ +++&&&&+ +&&+++++ ++&&++++ +&&+++&& +&&+++&+ +&&+++&& ++&&+&&+ +&++++&+ ++++&&&+ ++&&==++ &&==++++.++++++++.++++&+++ ++++++++ +++&++++ ++++&+++ ++++++++ +++&++++   ****************************************========********########++++++++++++++++&&&&&&&&********>>>>>>>>------------------------@@@@@@@@,,,,,,,,++++++++                                               ",
" +==+++== ++++==++ +++++=== ++++==++ ++==+==+ +======+ +==+++++ +++++==+ +===++=+ +==+++== +++=++=+ =++==++= +++===++ +===''-- ==''--=+.+++''+++.+++++=-- -------- --=+++++ ++++=--- -------- ---=++++   +;;+++;; ++++;;++ +++++;;; ++++;;++ ++;;+;;+ +;;;;;;+ +;;+++++ +++++;;+ +;;;++;+ +;;+++;; +++;++;+ ;++;;++; +++;;;++ +;;;**@@ ;;**@@;+.+++**+++.+++++;@@ @@@@@@@@ @@;+++++ ++++;@@@ @@@@@@@@ @@@;++++   +==+++== ++++==++ +++++=== ++++==++ ++==+==+ +======+ +==+++++ +++++==+ +===++=+ +==+++== +++=++=+ =++==++= +++===++ +===;;,, ==;;,,=+.+++;;+++.+++++=,, ,,,,,,,, ,,=+++++ ++++=,,, ,,,,,,,, ,,,=++++   +&&+++&& ++++&&++ +++++&&& ++++&&++ ++&&+&&+ +&&&&&&+ +&&+++++ +++++&&+ +&&&++&+ +&&+++&& +++&++&+ &++&&++& +++&&&++ +&&&==++ &&==++&+.+++==+++.+++++&++ ++++++++ ++&+++++ ++++&+++ ++++++++ +++&++++   ****************************************========********########++++++++++++++++&&&&&&&&********>>>>>>>>------------------------@@@@@@@@,,,,,,,,++++++++                                               ",
" +==+++== ++++==++ +++====+ +++====+ +==++==+ ++++++== +======+ ++++==++ ++====++ ++====== ++=++=++ =+=++++= +++==+++ +====''= ===''==+.++''''++.++++++== ======== ==++++++ ++++==== ======== ====++++   +;;+++;; ++++;;++ +++;;;;+ +++;;;;+ +;;++;;+ ++++++;; +;;;;;;+ ++++;;++ ++;;;;++ ++;;;;;; ++;++;++ ;+;++++; +++;;+++ +;;;;**; ;;;**;;+.++****++.++++++;; ;;;;;;;; ;;++++++ ++++;;;; ;;;;;;;; ;;;;++++   +==+++== ++++==++ +++====+ +++====+ +==++==+ ++++++== +======+ ++++==++ ++====++ ++====== ++=++=++ =+=++++= +++==+++ +====;;= ===;;==+.++;;;;++.++++++== ======== ==++++++ ++++==== ======== ====++++   +&&+++&& ++++&&++ +++&&&&+ +++&&&&+ +&&++&&+ ++++++&& +&&&&&&+ ++++&&++ ++&&&&++ ++&&&&&& ++&++&++ &+&++++& +++&&+++ +&&&&==& &&&==&&+.++====++.++++++&& &&&&&&&& &&++++++ ++++&&&& &&&&&&&& &&&&++++   ****************************************========********########++++++++++++++++&&&&&&&&********>>>>>>>>------------------------@@@@@@@@,,,,,,,,++++++++                                               ",
" +==+++== ++++==++ ++====++ ++++++== +======= ++++++== +==+++== +++==+++ +=++==== ++++++== ++++++++ =+=++++= +++=++++ +======= =======+.++''''++.++++++++ ++++++++ ++++++++ ++++++++ ++++++++ ++++++++   +;;+++;; ++++;;++ ++;;;;++ ++++++;; +;;;;;;; ++++++;; +;;+++;; +++;;+++ +;++;;;; ++++++;; ++++++++ ;+;++++; +++;++++ +;;;;;;; ;;;;;;;+.++****++.++++++++ ++++++++ ++++++++ ++++++++ ++++++++ ++++++++   +==+++== ++++==++ ++====++ ++++++== +======= ++++++== +==+++== +++==+++ +=++==== ++++++== ++++++++ =+=++++= +++=++++ +======= =======+.++;;;;++.++++++++ ++++++++ ++++++++ ++++++++ ++++++++ ++++++++   +&&+++&& ++++&&++ ++&&&&++ ++++++&& +&&&&&&& ++++++&& +&&+++&& +++&&+++ +&++&&&& ++++++&& ++++++++ &+&++++& +++&++++ +&&&&&&& &&&&&&&+.++====++.++++++++ ++++++++ ++++++++ ++++++++ ++++++++ ++++++++   ****************************************========********########++++++++++++++++&&&&&&&&********>>>>>>>>------------------------@@@@@@@@,,,,,,,,++++++++                                               ",
" ++==++=+ ++++==++ +===++++ +==+++== +++++==+ +==+++== +==+++== +++==+++ +=++++== +++++==+ ++++++++ =++==++= ++++++++ +======= =======+.+++''+++.++++++++ ++++++++ ++++++++ ++++++++ ++++++++ ++++++++   ++;;++;+ ++++;;++ +;;;++++ +;;+++;; +++++;;+ +;;+++;; +;;+++;; +++;;+++ +;++++;; +++++;;+ ++++++++ ;++;;++; ++++++++ +;;;;;;; ;;;;;;;+.+++**+++.++++++++ ++++++++ ++++++++ ++++++++ ++++++++ ++++++++   ++==++=+ ++++==++ +===++++ +==+++== +++++==+ +==+++== +==+++== +++==+++ +=++++== +++++==+ ++++++++ =++==++= ++++++++ +======= =======+.+++;;+++.++++++++ ++++++++ ++++++++ ++++++++ ++++++++ ++++++++   ++&&++&+ ++++&&++ +&&&++++ +&&+++&& +++++&&+ +&&+++&& +&&+++&& +++&&+++ +&++++&& +++++&&+ ++++++++ &++&&++& ++++++++ +&&&&&&& &&&&&&&+.+++==+++.++++++++ ++++++++ ++++++++ ++++++++ ++++++++ ++++++++   ****************************************========********########++++++++++++++++&&&&&&&&********>>>>>>>>------------------------@@@@@@@@,,,,,,,,++++++++                                               ",
" +++===++ ++====== +======= ++=====+ +++++==+ ++=====+ ++=====+ +++==+++ ++=====+ ++====++ ++++++++ +=++++=+ ++=+++++ +======= =======+.++++++++.++++++++ ++++++++ ++++++++ ++++++++ ++++++++ ++++++++   +++;;;++ ++;;;;;; +;;;;;;; ++;;;;;+ +++++;;+ ++;;;;;+ ++;;;;;+ +++;;+++ ++;;;;;+ ++;;;;++ ++++++++ +;++++;+ ++;+++++ +;;;;;;; ;;;;;;;+.++++++++.++++++++ ++++++++ ++++++++ ++++++++ ++++++++ ++++++++   +++===++ ++====== +======= ++=====+ +++++==+ ++=====+ ++=====+ +++==+++ ++=====+ ++====++ ++++++++ +=++++=+ ++=+++++ +======= =======+.++++++++.++++++++ ++++++++ ++++++++ ++++++++ ++++++++ ++++++++   +++&&&++ ++&&&&&& +&&&&&&& ++&&&&&+ +++++&&+ ++&&&&&+ ++&&&&&+ +++&&+++ ++&&&&&+ ++&&&&++ ++++++++ +&++++&+ ++&+++++ +&&&&&&& &&&&&&&+.++++++++.++++++++ ++++++++ ++++++++ ++++++++ ++++++++ ++++++++   @@@@@@@@########$$$$$$$$%%%%%%%%&&&&&&&&@@@@@@@@++++++++;;;;;;;;********========@@@@@@@@&&&&&&&&================>>>>>>>>========;;;;;;;;========&&&&&&&&                                               ",
" ++++++++ ++++++++ ++++++++ ++++++++ ++++++++ ++++++++ ++++++++ ++++++++ ++++++++ ++++++++ ++++++++ ++====++ ++++++++ +======= =======+.++++++++.++++++++ ++++++++ ++++++++ ++++++++ ++++++++ ++++++++   ++++++++ ++++++++ ++++++++ ++++++++ ++++++++ ++++++++ ++++++++ ++++++++ ++++++++ ++++++++ ++++++++ ++;;;;++ ++++++++ +;;;;;;; ;;;;;;;+.++++++++.++++++++ ++++++++ ++++++++ ++++++++ ++++++++ ++++++++   ++++++++ ++++++++ ++++++++ ++++++++ ++++++++ ++++++++ ++++++++ ++++++++ ++++++++ ++++++++ ++++++++ ++====++ ++++++++ +======= =======+.++++++++.++++++++ ++++++++ ++++++++ ++++++++ ++++++++ ++++++++   ++++++++ ++++++++ ++++++++ ++++++++ ++++++++ ++++++++ ++++++++ ++++++++ ++++++++ ++++++++ ++++++++ ++&&&&++ ++++++++ +&&&&&&& &&&&&&&+.++++++++.++++++++ ++++++++ ++++++++ ++++++++ ++++++++ ++++++++   @@@@@@@@########$$$$$$$$%%%%%%%%&&&&&&&&@@@@@@@@++++++++;;;;;;;;********========@@@@@@@@&&&&&&&&================>>>>>>>>========;;;;;;;;========&&&&&&&&                                               ",
"                                                                                                                                       ..........                                   ...................                                                                                                                                        ..........                                   ...................                                                                                                                                        ..........                                   ...................                                                                                                                                        ..........                                   ...................  @@@@@@@@########$$$$$$$$%%%%%%%%&&&&&&&&@@@@@@@@++++++++;;;;;;;;********========@@@@@@@@&&&&&&&&================>>>>>>>>========;;;;;;;;========&&&&&&&&                                               ",
" +++===++ +======+ +++====+ +=====++ ++====== +======= +++===== +==+++== ++====== ++++++== +==+++== ++==++++ +==+++== +==+===+ +===+==+ ++''''++ ++++==== ======== ======== ====++++.++++++++.++++++++.  +++;;;++ +;;;;;;+ +++;;;;+ +;;;;;++ ++;;;;;; +;;;;;;; +++;;;;; +;;+++;; ++;;;;;; ++++++;; +;;+++;; ++;;++++ +;;+++;; +;;+;;;+ +;;;+;;+ ++****++ ++++;;;; ;;;;;;;; ;;;;;;;; ;;;;++++.++++++++.++++++++.  +++===++ +======+ +++====+ +=====++ ++====== +======= +++===== +==+++== ++====== ++++++== +==+++== ++==++++ +==+++== +==+===+ +===+==+ ++;;;;++ ++++==== ======== ======== ====++++.++++++++.++++++++.  +++&&&++ +&&&&&&+ +++&&&&+ +&&&&&++ ++&&&&&& +&&&&&&& +++&&&&& +&&+++&& ++&&&&&& ++++++&& +&&+++&& ++&&++++ +&&+++&& +&&+&&&+ +&&&+&&+ ++====++ ++++&&&& &&&&&&&& &&&&&&&& &&&&++++.++++++++.++++++++.  @@@@@@@@########$$$$$$$$%%%%%%%%&&&&&&&&@@@@@@@@++++++++;;;;;;;;********========@@@@@@@@&&&&&&&&================>>>>>>>>========;;;;;;;;========&&&&&&&&                                               ",
" ++==+==+ +==+++== ++==++== +==++==+ ++==++++ +==+++++ ++==++++ +==+++== ++++==++ ++++++== +==++==+ ++==++++ +===+=== +=+++==+ +==+++=+ +''''''+ ++==---- -------- -------- ----==++.++++++++.++++++++.  ++;;+;;+ +;;+++;; ++;;++;; +;;++;;+ ++;;++++ +;;+++++ ++;;++++ +;;+++;; ++++;;++ ++++++;; +;;++;;+ ++;;++++ +;;;+;;; +;+++;;+ +;;+++;+ +******+ ++;;@@@@ @@@@@@@@ @@@@@@@@ @@@@;;++.++++++++.++++++++.  ++==+==+ +==+++== ++==++== +==++==+ ++==++++ +==+++++ ++==++++ +==+++== ++++==++ ++++++== +==++==+ ++==++++ +===+=== +=+++==+ +==+++=+ +;;;;;;+ ++==,,,, ,,,,,,,, ,,,,,,,, ,,,,==++.++++++++.++++++++.  ++&&+&&+ +&&+++&& ++&&++&& +&&++&&+ ++&&++++ +&&+++++ ++&&++++ +&&+++&& ++++&&++ ++++++&& +&&++&&+ ++&&++++ +&&&+&&& +&+++&&+ +&&+++&+ +======+ ++&&++++ ++++++++ ++++++++ ++++&&++.++++++++.++++++++.  @@@@@@@@########$$$$$$$$%%%%%%%%&&&&&&&&@@@@@@@@++++++++;;;;;;;;********========@@@@@@@@&&&&&&&&================>>>>>>>>========;;;;;;;;========&&&&&&&&                                               ",
" +==+++== +==+++== +==+++++ +==+++== ++==++++ +==+++++ +==+++++ +==+++== ++++==++ ++++++== +==+==++ ++==++++ +======= ++++++++ ++++++++ '''''''' +=------ -------- -------- ------=+.++++++++.++++++++.  +;;+++;; +;;+++;; +;;+++++ +;;+++;; ++;;++++ +;;+++++ +;;+++++ +;;+++;; ++++;;++ ++++++;; +;;+;;++ ++;;++++ +;;;;;;; ++++++++ ++++++++ ******** +;@@@@@@ @@@@@@@@ @@@@@@@@ @@@@@@;+.++++++++.++++++++.  +==+++== +==+++== +==+++++ +==+++== ++==++++ +==+++++ +==+++++ +==+++== ++++==++ ++++++== +==+==++ ++==++++ +======= ++++++++ ++++++++ ;;;;;;;; +=,,,,,, ,,,,,,,, ,,,,,,,, ,,,,,,=+.++++++++.++++++++.  +&&+++&& +&&+++&& +&&+++++ +&&+++&& ++&&++++ +&&+++++ +&&+++++ +&&+++&& ++++&&++ ++++++&& +&&+&&++ ++&&++++ +&&&&&&& ++++++++ ++++++++ ======== +&++++++ ++++++++ ++++++++ ++++++&+.++++++++.++++++++.  @@@@@@@@########$$$$$$$$%%%%%%%%&&&&&&&&@@@@@@@@++++++++;;;;;;;;********========@@@@@@@@&&&&&&&&================>>>>>>>>========;;;;;;;;========&&&&&&&&                                               ",
" +==+++== +======+ +==+++++ +==+++== ++=====+ +======+ +==++=== +======= ++++==++ ++++++== +====+++ ++==++++ +======= ++++++++ ++++++++ '''''''' +=---=== ===----- -----=== ===---=+.++++++++.++++++++.  +;;+++;; +;;;;;;+ +;;+++++ +;;+++;; ++;;;;;+ +;;;;;;+ +;;++;;; +;;;;;;; ++++;;++ ++++++;; +;;;;+++ ++;;++++ +;;;;;;; ++++++++ ++++++++ ******** +;@@@;;; ;;;@@@@@ @@@@@;;; ;;;@@@;+.++++++++.++++++++.  +==+++== +======+ +==+++++ +==+++== ++=====+ +======+ +==++=== +======= ++++==++ ++++++== +====+++ ++==++++ +======= ++++++++ ++++++++ ;;;;;;;; +=,,,=== ===,,,,, ,,,,,=== ===,,,=+.++++++++.++++++++.  +&&+++&& +&&&&&&+ +&&+++++ +&&+++&& ++&&&&&+ +&&&&&&+ +&&++&&& +&&&&&&& ++++&&++ ++++++&& +&&&&+++ ++&&++++ +&&&&&&& ++++++++ ++++++++ ======== +&+++&&& &&&+++++ +++++&&& &&&+++&+.++++++++.++++++++.  @@@@@@@@########$$$$$$$$%%%%%%%%&&&&&&&&@@@@@@@@++++++++;;;;;;;;********========@@@@@@@@&&&&&&&&================>>>>>>>>========;;;;;;;;========&&&&&&&&                                               ",
" +======= +==+++== +==+++++ +==+++== ++==++++ +==+++++ +==+++== +==+++== ++++==++ ++++++== +=====++ ++==++++ +==+=+== ++++++++ ++++++++ '''''''' =---=+++ +++=---- ----=+++ +++=---=.++++====.====++++.  +;;;;;;; +;;+++;; +;;+++++ +;;+++;; ++;;++++ +;;+++++ +;;+++;; +;;+++;; ++++;;++ ++++++;; +;;;;;++ ++;;++++ +;;+;+;; ++++++++ ++++++++ ******** ;@@@;+++ +++;@@@@ @@@@;+++ +++;@@@;.++++;;;;.;;;;++++.  +======= +==+++== +==+++++ +==+++== ++==++++ +==+++++ +==+++== +==+++== ++++==++ ++++++== +=====++ ++==++++ +==+=+== ++++++++ ++++++++ ;;;;;;;; =,,,=+++ +++=,,,, ,,,,=+++ +++=,,,=.++++====.====++++.  +&&&&&&& +&&+++&& +&&+++++ +&&+++&& ++&&++++ +&&+++++ +&&+++&& +&&+++&& ++++&&++ ++++++&& +&&&&&++ ++&&++++ +&&+&+&& ++++++++ ++++++++ ======== &+++&+++ +++&++++ ++++&+++ +++&+++&.++++&&&&.&&&&++++.  @@@@@@@@########$$$$$$$$%%%%%%%%&&&&&&&&@@@@@@@@++++++++;;;;;;;;********========@@@@@@@@&&&&&&&&================>>>>>>>>========;;;;;;;;========&&&&&&&&                                               ",
" +==+++== +==+++== ++==++== +==++==+ ++==++++ +==+++++ ++==++== +==+++== ++++==++ +==+++== +==+===+ ++==++++ +==+++== ++++++++ ++++++++ '''''''' =--=++++ ++++=--- ---=++++ ++++=--=.++==----.----==++.  +;;+++;; +;;+++;; ++;;++;; +;;++;;+ ++;;++++ +;;+++++ ++;;++;; +;;+++;; ++++;;++ +;;+++;; +;;+;;;+ ++;;++++ +;;+++;; ++++++++ ++++++++ ******** ;@@;++++ ++++;@@@ @@@;++++ ++++;@@;.++;;@@@@.@@@@;;++.  +==+++== +==+++== ++==++== +==++==+ ++==++++ +==+++++ ++==++== +==+++== ++++==++ +==+++== +==+===+ ++==++++ +==+++== ++++++++ ++++++++ ;;;;;;;; =,,=++++ ++++=,,, ,,,=++++ ++++=,,=.++==,,,,.,,,,==++.  +&&+++&& +&&+++&& ++&&++&& +&&++&&+ ++&&++++ +&&+++++ ++&&++&& +&&+++&& ++++&&++ +&&+++&& +&&+&&&+ ++&&++++ +&&+++&& ++++++++ ++++++++ ======== &++&++++ ++++&+++ +++&++++ ++++&++&.++&&++++.++++&&++.                                                                                                                                                                                                         ",
" +==+++== +======+ +++====+ +=====++ ++====== +==+++++ +++===== +==+++== ++====== ++=====+ +==++=== ++====== +==+++== ++++++++ ++++++++ +''''''+ =--=++++ ++++=--- ---=++++ ++++=--=.+=------.------=+.  +;;+++;; +;;;;;;+ +++;;;;+ +;;;;;++ ++;;;;;; +;;+++++ +++;;;;; +;;+++;; ++;;;;;; ++;;;;;+ +;;++;;; ++;;;;;; +;;+++;; ++++++++ ++++++++ +******+ ;@@;++++ ++++;@@@ @@@;++++ ++++;@@;.+;@@@@@@.@@@@@@;+.  +==+++== +======+ +++====+ +=====++ ++====== +==+++++ +++===== +==+++== ++====== ++=====+ +==++=== ++====== +==+++== ++++++++ ++++++++ +;;;;;;+ =,,=++++ ++++=,,, ,,,=++++ ++++=,,=.+=,,,,,,.,,,,,,=+.  +&&+++&& +&&&&&&+ +++&&&&+ +&&&&&++ ++&&&&&& +&&+++++ +++&&&&& +&&+++&& ++&&&&&& ++&&&&&+ +&&++&&& ++&&&&&& +&&+++&& ++++++++ ++++++++ +======+ &++&++++ ++++&+++ +++&++++ ++++&++&.+&++++++.++++++&+.                                                                                                                                                                                                         ",
" ++++++++ ++++++++ ++++++++ ++++++++ ++++++++ ++++++++ ++++++++ ++++++++ ++++++++ ++++++++ ++++++++ ++++++++ ++++++++ ++++++++ ++++++++ ++''''++ =--=++++ ++++=--- ---=++++ ++++=--=.+=------.------=+.  ++++++++ ++++++++ ++++++++ ++++++++ ++++++++ ++++++++ ++++++++ ++++++++ ++++++++ ++++++++ ++++++++ ++++++++ ++++++++ ++++++++ ++++++++ ++****++ ;@@;++++ ++++;@@@ @@@;++++ ++++;@@;.+;@@@@@@.@@@@@@;+.  ++++++++ ++++++++ ++++++++ ++++++++ ++++++++ ++++++++ ++++++++ ++++++++ ++++++++ ++++++++ ++++++++ ++++++++ ++++++++ ++++++++ ++++++++ ++;;;;++ =,,=++++ ++++=,,, ,,,=++++ ++++=,,=.+=,,,,,,.,,,,,,=+.  ++++++++ ++++++++ ++++++++ ++++++++ ++++++++ ++++++++ ++++++++ ++++++++ ++++++++ ++++++++ ++++++++ ++++++++ ++++++++ ++++++++ ++++++++ ++====++ &++&++++ ++++&+++ +++&++++ ++++&++&.+&++++++.++++++&+.  .......        ++   ++ ++   ++ ++   ++  ++++   +++++++ +++++                                                                                                                                           ",
"                                                                                                                                                                                    ...................                                                                                                                                                                                     ...................                                                                                                                                                                                     ...................                                                                                                                                                                                     ...................  .+++++.        ++   ++ +++  ++ ++   ++ ++  ++  ++      ++  ++                                                                                                                                          ",
" +==+++== ++=====+ +======+ ++=====+ +======+ ++====++ ++====== +==+++== +==+++== +==+++== +==+++== ++==++== +======= ++++++++ ++++++++ ++++++++ =--=++++ ++++=--- ---=++++ ++++=--=.+=------.------=+.  +;;+++;; ++;;;;;+ +;;;;;;+ ++;;;;;+ +;;;;;;+ ++;;;;++ ++;;;;;; +;;+++;; +;;+++;; +;;+++;; +;;+++;; ++;;++;; +;;;;;;; ++++++++ ++++++++ ++++++++ ;@@;++++ ++++;@@@ @@@;++++ ++++;@@;.+;@@@@@@.@@@@@@;+.  +==+++== ++=====+ +======+ ++=====+ +======+ ++====++ ++====== +==+++== +==+++== +==+++== +==+++== ++==++== +======= ++++++++ ++++++++ ++++++++ =,,=++++ ++++=,,, ,,,=++++ ++++=,,=.+=,,,,,,.,,,,,,=+.  +&&+++&& ++&&&&&+ +&&&&&&+ ++&&&&&+ +&&&&&&+ ++&&&&++ ++&&&&&& +&&+++&& +&&+++&& +&&+++&& +&&+++&& ++&&++&& +&&&&&&& ++++++++ ++++++++ ++++++++ &++&++++ ++++&+++ +++&++++ ++++&++&.+&++++++.++++++&+.  .+++++.  +++   ++   ++ ++++ ++ ++   ++ ++      ++      ++   ++                                                                                                                                         ",
" +===++== +==+++== +==+++== +==+++== +==+++== +==++==+ ++++==++ +==+++== +==+++== +==+++== +===+=== ++==++== +++++=== ++++++++ ++++++++ ++++++++ =--=++++ ++++=--- ---=++++ ++++=--=.+=------.------=+.  +;;;++;; +;;+++;; +;;+++;; +;;+++;; +;;+++;; +;;++;;+ ++++;;++ +;;+++;; +;;+++;; +;;+++;; +;;;+;;; ++;;++;; +++++;;; ++++++++ ++++++++ ++++++++ ;@@;++++ ++++;@@@ @@@;++++ ++++;@@;.+;@@@@@@.@@@@@@;+.  +===++== +==+++== +==+++== +==+++== +==+++== +==++==+ ++++==++ +==+++== +==+++== +==+++== +===+=== ++==++== +++++=== ++++++++ ++++++++ ++++++++ =,,=++++ ++++=,,, ,,,=++++ ++++=,,=.+=,,,,,,.,,,,,,=+.  +&&&++&& +&&+++&& +&&+++&& +&&+++&& +&&+++&& +&&++&&+ ++++&&++ +&&+++&& +&&+++&& +&&+++&& +&&&+&&& ++&&++&& +++++&&& ++++++++ ++++++++ ++++++++ &++&++++ ++++&+++ +++&++++ ++++&++&.+&++++++.++++++&+.  .+++++.        ++   ++ +++++++ ++   ++  +++++  ++++++  ++   ++                                                                                                                                         ",
" +====+== +==+++== +==+++== +==+++== +==+++== +==+++++ ++++==++ +==+++== +==+++== +==+=+== ++=====+ ++==++== ++++===+ ++++++++ ++++++++ ++++++++ =--=++++ ++++=--- ---=++++ ++++=--=.++==----.----==++.  +;;;;+;; +;;+++;; +;;+++;; +;;+++;; +;;+++;; +;;+++++ ++++;;++ +;;+++;; +;;+++;; +;;+;+;; ++;;;;;+ ++;;++;; ++++;;;+ ++++++++ ++++++++ ++++++++ ;@@;++++ ++++;@@@ @@@;++++ ++++;@@;.++;;@@@@.@@@@;;++.  +====+== +==+++== +==+++== +==+++== +==+++== +==+++++ ++++==++ +==+++== +==+++== +==+=+== ++=====+ ++==++== ++++===+ ++++++++ ++++++++ ++++++++ =,,=++++ ++++=,,, ,,,=++++ ++++=,,=.++==,,,,.,,,,==++.  +&&&&+&& +&&+++&& +&&+++&& +&&+++&& +&&+++&& +&&+++++ ++++&&++ +&&+++&& +&&+++&& +&&+&+&& ++&&&&&+ ++&&++&& ++++&&&+ ++++++++ ++++++++ ++++++++ &++&++++ ++++&+++ +++&++++ ++++&++&.++&&++++.++++&&++.  .+++++.  +++   ++   ++ ++ ++++ ++   ++      ++ ++      ++   ++                                                                                                                                         ",
" +======= +==+++== +==+++== +==+++== +==++=== ++=====+ ++++==++ +==+++== +===+=== +======= +++===++ +++====+ +++===++ ++++++++ ++++++++ ++++++++ =---=+++ +++=---- ----=+++ +++=---=.++++====.====++++.  +;;;;;;; +;;+++;; +;;+++;; +;;+++;; +;;++;;; ++;;;;;+ ++++;;++ +;;+++;; +;;;+;;; +;;;;;;; +++;;;++ +++;;;;+ +++;;;++ ++++++++ ++++++++ ++++++++ ;@@@;+++ +++;@@@@ @@@@;+++ +++;@@@;.++++;;;;.;;;;++++.  +======= +==+++== +==+++== +==+++== +==++=== ++=====+ ++++==++ +==+++== +===+=== +======= +++===++ +++====+ +++===++ ++++++++ ++++++++ ++++++++ =,,,=+++ +++=,,,, ,,,,=+++ +++=,,,=.++++====.====++++.  +&&&&&&& +&&+++&& +&&+++&& +&&+++&& +&&++&&& ++&&&&&+ ++++&&++ +&&+++&& +&&&+&&& +&&&&&&& +++&&&++ +++&&&&+ +++&&&++ ++++++++ ++++++++ ++++++++ &+++&+++ +++&++++ ++++&+++ +++&+++&.++++&&&&.&&&&++++.  .+++++.        ++   ++ ++  +++ ++   ++ ++   ++ ++      ++  ++                                                                                                                                          ",
" +==+==== +==+++== +======+ +==+==== +=====++ ++++++== ++++==++ +==+++== ++=====+ +======= ++=====+ ++++==++ ++===+++ ======== ++++++++ ======== =----=== ===----- -----=== ===----=.++++++++.++++++++.  +;;+;;;; +;;+++;; +;;;;;;+ +;;+;;;; +;;;;;++ ++++++;; ++++;;++ +;;+++;; ++;;;;;+ +;;;;;;; ++;;;;;+ ++++;;++ ++;;;+++ ;;;;;;;; ++++++++ ;;;;;;;; ;@@@@;;; ;;;@@@@@ @@@@@;;; ;;;@@@@;.++++++++.++++++++.  +==+==== +==+++== +======+ +==+==== +=====++ ++++++== ++++==++ +==+++== ++=====+ +======= ++=====+ ++++==++ ++===+++ ======== ++++++++ ======== =,,,,=== ===,,,,, ,,,,,=== ===,,,,=.++++++++.++++++++.  +&&+&&&& +&&+++&& +&&&&&&+ +&&+&&&& +&&&&&++ ++++++&& ++++&&++ +&&+++&& ++&&&&&+ +&&&&&&& ++&&&&&+ ++++&&++ ++&&&+++ &&&&&&&& ++++++++ &&&&&&&& &++++&&& &&&+++++ +++++&&& &&&++++&.++++++++.++++++++.  .......         +++++  ++   ++  +++++   +++++  +++++++ +++++                                                                                                                                           ",
" +==++=== +==+++== +==+++++ +==++==+ +==+===+ +==+++== ++++==++ +==+++== +++===++ +===+=== +===+=== ++++==++ +===++++ -------= -------- =------- =------- -------- -------- -------=.++++++++.++++++++.  +;;++;;; +;;+++;; +;;+++++ +;;++;;+ +;;+;;;+ +;;+++;; ++++;;++ +;;+++;; +++;;;++ +;;;+;;; +;;;+;;; ++++;;++ +;;;++++ @@@@@@@; @@@@@@@@ ;@@@@@@@ ;@@@@@@@ @@@@@@@@ @@@@@@@@ @@@@@@@;.++++++++.++++++++.  +==++=== +==+++== +==+++++ +==++==+ +==+===+ +==+++== ++++==++ +==+++== +++===++ +===+=== +===+=== ++++==++ +===++++ ,,,,,,,= ,,,,,,,, =,,,,,,, =,,,,,,, ,,,,,,,, ,,,,,,,, ,,,,,,,=.++++++++.++++++++.  +&&++&&& +&&+++&& +&&+++++ +&&++&&+ +&&+&&&+ +&&+++&& ++++&&++ +&&+++&& +++&&&++ +&&&+&&& +&&&+&&& ++++&&++ +&&&++++ +++++++& ++++++++ &+++++++ &+++++++ ++++++++ ++++++++ +++++++&.++++++++.++++++++.                                                                                                                                                                                                         ",
" +==+++== ++=====+ +==+++++ ++====+= +==++=== ++=====+ ++++==++ ++=====+ ++++=+++ +==+++== +==+++== ++++==++ +======= -------= -------- =------- =------- -------- -------- -------=.++++++++.++++++++.  +;;+++;; ++;;;;;+ +;;+++++ ++;;;;+; +;;++;;; ++;;;;;+ ++++;;++ ++;;;;;+ ++++;+++ +;;+++;; +;;+++;; ++++;;++ +;;;;;;; @@@@@@@; @@@@@@@@ ;@@@@@@@ ;@@@@@@@ @@@@@@@@ @@@@@@@@ @@@@@@@;.++++++++.++++++++.  +==+++== ++=====+ +==+++++ ++====+= +==++=== ++=====+ ++++==++ ++=====+ ++++=+++ +==+++== +==+++== ++++==++ +======= ,,,,,,,= ,,,,,,,, =,,,,,,, =,,,,,,, ,,,,,,,, ,,,,,,,, ,,,,,,,=.++++++++.++++++++.  +&&+++&& ++&&&&&+ +&&+++++ ++&&&&+& +&&++&&& ++&&&&&+ ++++&&++ ++&&&&&+ ++++&+++ +&&+++&& +&&+++&& ++++&&++ +&&&&&&& +++++++& ++++++++ &+++++++ &+++++++ ++++++++ ++++++++ +++++++&.++++++++.++++++++.                                                                                                                                                                                                         ",
" ++++++++ ++++++++ ++++++++ ++++++++ ++++++++ ++++++++ ++++++++ ++++++++ ++++++++ ++++++++ ++++++++ ++++++++ ++++++++ ======== ++++++++ ======== =------- -------- -------- -------=.++++++++.++++++++.  ++++++++ ++++++++ ++++++++ ++++++++ ++++++++ ++++++++ ++++++++ ++++++++ ++++++++ ++++++++ ++++++++ ++++++++ ++++++++ ;;;;;;;; ++++++++ ;;;;;;;; ;@@@@@@@ @@@@@@@@ @@@@@@@@ @@@@@@@;.++++++++.++++++++.  ++++++++ ++++++++ ++++++++ ++++++++ ++++++++ ++++++++ ++++++++ ++++++++ ++++++++ ++++++++ ++++++++ ++++++++ ++++++++ ======== ++++++++ ======== =,,,,,,, ,,,,,,,, ,,,,,,,, ,,,,,,,=.++++++++.++++++++.  ++++++++ ++++++++ ++++++++ ++++++++ ++++++++ ++++++++ ++++++++ ++++++++ ++++++++ ++++++++ ++++++++ ++++++++ ++++++++ &&&&&&&& ++++++++ &&&&&&&& &+++++++ ++++++++ ++++++++ +++++++&.++++++++.++++++++.                                                                                                                                                                                                         ",
"                                                                                                                                                                                    ...................                                                                                                                                                                                     ...................                                                                                                                                                                                     ...................                                                                                                                                                                                     ...................                                                                                                                                                                                                         ",
" ++++++++ ++++++++ ++++++++ ++++++++ ++++++++ ++++++++ ++++++++ ++++++++ ++++++++ ++++++++ ++++++++ ++++++++ ++++++++ ++++++++ ++++++++ ++++++++ =------- -------- -------- -------=.========.========.  ++++++++ ++++++++ ++++++++ ++++++++ ++++++++ ++++++++ ++++++++ ++++++++ ++++++++ ++++++++ ++++++++ ++++++++ ++++++++ ++++++++ ++++++++ ++++++++ ;@@@@@@@ @@@@@@@@ @@@@@@@@ @@@@@@@;.;;;;;;;;.;;;;;;;;.  ++++++++ ++++++++ ++++++++ ++++++++ ++++++++ ++++++++ ++++++++ ++++++++ ++++++++ ++++++++ ++++++++ ++++++++ ++++++++ ++++++++ ++++++++ ++++++++ =,,,,,,, ,,,,,,,, ,,,,,,,, ,,,,,,,=.========.========.  ++++++++ ++++++++ ++++++++ ++++++++ ++++++++ ++++++++ ++++++++ ++++++++ ++++++++ ++++++++ ++++++++ ++++++++ ++++++++ ++++++++ ++++++++ ++++++++ &+++++++ ++++++++ ++++++++ +++++++&.&&&&&&&&.&&&&&&&&.                                                                                                                                                                                                         ",
" ++++++++ ++++++++ ++++++++ ++++++++ ++++++++ ++++++++ ++++++++ ++++++++ +++++'++ ++++++++ ++++++++ ++++++++ ++++++++ ++++++++ ++++++++ ++++++++ =------- -------- -------- -------=.=+++++++.+++++++=.  ++++++++ ++++++++ ++++++++ ++++++++ ++++++++ ++++++++ ++++++++ ++++++++ +++++*++ ++++++++ ++++++++ ++++++++ ++++++++ ++++++++ ++++++++ ++++++++ ;@@@@@@@ @@@@@@@@ @@@@@@@@ @@@@@@@;.;+++++++.+++++++;.  ++++++++ ++++++++ ++++++++ ++++++++ ++++++++ ++++++++ ++++++++ ++++++++ +++++;++ ++++++++ ++++++++ ++++++++ ++++++++ ++++++++ ++++++++ ++++++++ =,,,,,,, ,,,,,,,, ,,,,,,,, ,,,,,,,=.=+++++++.+++++++=.  ++++++++ ++++++++ ++++++++ ++++++++ ++++++++ ++++++++ ++++++++ ++++++++ +++++=++ ++++++++ ++++++++ ++++++++ ++++++++ ++++++++ ++++++++ ++++++++ &+++++++ ++++++++ ++++++++ +++++++&.&+++++++.+++++++&.     ++++++    +++     ++++          ++   ++   +++   ++   ++           ++++   +++++  ++   ++ ++++++  ++       ++++++  ++++++  ++++++          ++++   ++++++  ++++++   ++++++  ++++++  ++++++             ",
" ++++++++ ++++--++ +++++++= ++++++++ ++++++++ +--+++++ ++++++++ -+++++++ ++++++'' '''+++++ ++++++++ ++++++++ +++++++' '+++++++ ++++++-- -+++++++ =------- -------- -------- -------=.=+++++++.+++++++=.  ++++++++ ++++@@++ +++++++; ++++++++ ++++++++ +@@+++++ ++++++++ @+++++++ ++++++** ***+++++ ++++++++ ++++++++ +++++++* *+++++++ ++++++@@ @+++++++ ;@@@@@@@ @@@@@@@@ @@@@@@@@ @@@@@@@;.;+++++++.+++++++;.  ++++++++ ++++,,++ +++++++= ++++++++ ++++++++ +,,+++++ ++++++++ ,+++++++ ++++++;; ;;;+++++ ++++++++ ++++++++ +++++++; ;+++++++ ++++++,, ,+++++++ =,,,,,,, ,,,,,,,, ,,,,,,,, ,,,,,,,=.=+++++++.+++++++=.  ++++++++ ++++++++ +++++++& ++++++++ ++++++++ ++++++++ ++++++++ ++++++++ ++++++== ===+++++ ++++++++ ++++++++ +++++++= =+++++++ ++++++++ ++++++++ &+++++++ ++++++++ ++++++++ +++++++&.&+++++++.+++++++&.     ++   ++  ++ ++   ++  ++         +++ +++  ++ ++  +++  ++          ++  ++ ++   ++ +++ +++ ++   ++ ++       ++        ++    ++             ++  ++  ++   ++ ++   ++    ++      ++    ++                 ",
" ++++++++ ++----++ ++++---= ---+++++ +++++++= -----+++ +++'''+- +'''++++ ++++++++ '+++++++ +++++++- ++++++++ +++++''+ +''+++++ ++++--++ +--+++++ =----=== ===----- -----=== ===----=.=+++++++.+++++++=.  ++++++++ ++@@@@++ ++++@@@; @@@+++++ +++++++; @@@@@+++ +++***+@ +***++++ ++++++++ *+++++++ +++++++@ ++++++++ +++++**+ +**+++++ ++++@@++ +@@+++++ ;@@@@;;; ;;;@@@@@ @@@@@;;; ;;;@@@@;.;+++++++.+++++++;.  ++++++++ ++,,,,++ ++++,,,= ,,,+++++ +++++++= ,,,,,+++ +++;;;+, +;;;++++ ++++++++ ;+++++++ +++++++, ++++++++ +++++;;+ +;;+++++ ++++,,++ +,,+++++ =,,,,=== ===,,,,, ,,,,,=== ===,,,,=.=+++++++.+++++++=.  ++++++++ ++++++++ +++++++& ++++++++ +++++++& ++++++++ +++===++ +===++++ ++++++++ =+++++++ ++++++++ ++++++++ +++++==+ +==+++++ ++++++++ ++++++++ &++++&&& &&&+++++ +++++&&& &&&++++&.&+++++++.+++++++&.     ++   ++ ++   ++ ++              +++++++ ++   ++ ++++ ++         ++      ++   ++ +++++++ ++   ++ ++       ++        ++    ++             ++      ++   ++ ++   ++    ++      ++    ++                 ",
" ++++++++ --+-++++ +++''--- --''++++ +++++++= +---++++ ++'''''- '''''+++ +++++++- =-++++++ ++'+++-- -+++'+++ ++++'''' ''''++++ ++++---- ---+++++ =---=+++ +++=---- ----=+++ +++=---=.=+++++++.+++++++=.  ++++++++ @@+@++++ +++**@@@ @@**++++ +++++++; +@@@++++ ++*****@ *****+++ +++++++@ ;@++++++ ++*+++@@ @+++*+++ ++++**** ****++++ ++++@@@@ @@@+++++ ;@@@;+++ +++;@@@@ @@@@;+++ +++;@@@;.;+++++++.+++++++;.  ++++++++ ,,+,++++ +++;;,,, ,,;;++++ +++++++= +,,,++++ ++;;;;;, ;;;;;+++ +++++++, =,++++++ ++;+++,, ,+++;+++ ++++;;;; ;;;;++++ ++++,,,, ,,,+++++ =,,,=+++ +++=,,,, ,,,,=+++ +++=,,,=.=+++++++.+++++++=.  ++++++++ ++++++++ +++==+++ ++==++++ +++++++& ++++++++ ++=====+ =====+++ ++++++++ &+++++++ ++=+++++ ++++=+++ ++++==== ====++++ ++++++++ ++++++++ &+++&+++ +++&++++ ++++&+++ +++&+++&.&+++++++.+++++++&.     ++   ++ ++   ++ ++        +++   +++++++ ++   ++ +++++++         ++      ++   ++ +++++++ ++   ++ ++       +++++     ++    +++++           +++++  ++   ++ ++  +++    ++      ++    +++++              ",
" +++++++- +++-++++ ++'''''- '''='+++ ++++''== ='''++++ ++'''''' ''''''++ +++++--- '---++++ ++'++--- --++'+++ ++++''+' ''''++++ ++++---- ---+++++ =--=++++ ++++=--- ---=++++ ++++=--=.=+++++++.+++++++=.  +++++++@ +++@++++ ++*****@ ***;*+++ ++++**;; ;***++++ ++****** ******++ +++++@@@ *@@@++++ ++*++@@@ @@++*+++ ++++**+* ****++++ ++++@@@@ @@@+++++ ;@@;++++ ++++;@@@ @@@;++++ ++++;@@;.;+++++++.+++++++;.  +++++++, +++,++++ ++;;;;;, ;;;=;+++ ++++;;== =;;;++++ ++;;;;;; ;;;;;;++ +++++,,, ;,,,++++ ++;++,,, ,,++;+++ ++++;;+; ;;;;++++ ++++,,,, ,,,+++++ =,,=++++ ++++=,,, ,,,=++++ ++++=,,=.=+++++++.+++++++=.  ++++++++ ++++++++ ++=====+ ===&=+++ ++++==&& &===++++ ++====== ======++ ++++++++ =+++++++ ++=+++++ ++++=+++ ++++==+= ====++++ ++++++++ ++++++++ &++&++++ ++++&+++ +++&++++ ++++&++&.&+++++++.+++++++&.     ++++++  +++++++ ++              ++ + ++ +++++++ ++ ++++         ++      ++   ++ ++ + ++ ++++++  ++       ++        ++    ++                  ++ ++++++  +++++      ++      ++    ++                 ",
" +++'''-+ ++-+++++ ++'='''' '='''+++ +++''''= '''''+++ ++'''''' ''''''++ ++++-'=' ---'-+++ ++'=--=- =--='+++ ++++'+'' ''''++++ ++++---- ---+++++ =--=++++ ++++=--- ---=++++ ++++=--=.=+++++++.+++++++=.  +++***@+ ++@+++++ ++*;**** *;***+++ +++****; *****+++ ++****** ******++ ++++@*;* @@@*@+++ ++*;@@;@ ;@@;*+++ ++++*+** ****++++ ++++@@@@ @@@+++++ ;@@;++++ ++++;@@@ @@@;++++ ++++;@@;.;+++++++.+++++++;.  +++;;;,+ ++,+++++ ++;=;;;; ;=;;;+++ +++;;;;= ;;;;;+++ ++;;;;;; ;;;;;;++ ++++,;=; ,,,;,+++ ++;=,,=, =,,=;+++ ++++;+;; ;;;;++++ ++++,,,, ,,,+++++ =,,=++++ ++++=,,, ,,,=++++ ++++=,,=.=+++++++.+++++++=.  +++===++ ++++++++ ++=&==== =&===+++ +++====& =====+++ ++====== ======++ +++++=&= +++=++++ ++=&++&+ &++&=+++ ++++=+== ====++++ ++++++++ ++++++++ &++&++++ ++++&+++ +++&++++ ++++&++&.&+++++++.+++++++&.     ++      ++   ++  ++  ++         ++   ++ ++   ++ ++  +++          ++  ++ ++   ++ ++   ++ ++      ++       ++        ++    ++             ++   ++ ++      ++ +++     ++      ++    ++                 ",
" ++'''-'' +-++++++ ++'''='= '''''+++ ++'''''' ''''''++ ++'''''' ''''''++ ++++--'- -='--+++ ++'====- ===='+++ +++''+'' '''''+++ ++++++=+ =+++++++ =--=++++ ++++=--- ---=++++ ++++=--=.=+++++++.+++++++=.  ++***@** +@++++++ ++***;*; *****+++ ++****** ******++ ++****** ******++ ++++@@*@ @;*@@+++ ++*;;;;@ ;;;;*+++ +++**+** *****+++ ++++++;+ ;+++++++ ;@@;++++ ++++;@@@ @@@;++++ ++++;@@;.;+++++++.+++++++;.  ++;;;,;; +,++++++ ++;;;=;= ;;;;;+++ ++;;;;;; ;;;;;;++ ++;;;;;; ;;;;;;++ ++++,,;, ,=;,,+++ ++;====, ====;+++ +++;;+;; ;;;;;+++ ++++++=+ =+++++++ =,,=++++ ++++=,,, ,,,=++++ ++++=,,=.=+++++++.+++++++=.  ++===+== ++++++++ ++===&=& =====+++ ++====== ======++ ++====== ======++ ++++++=+ +&=+++++ ++=&&&&+ &&&&=+++ +++==+== =====+++ ++++++&+ &+++++++ &++&++++ ++++&+++ +++&++++ ++++&++&.&+++++++.+++++++&.     ++      ++   ++   ++++          ++   ++ ++   ++ ++   ++           ++++   +++++  ++   ++ ++      +++++++  ++++++    ++    ++++++          +++++  ++      ++  +++  ++++++    ++    ++++++             ",
"                                                                                                                                                                                    ...................                                                                                                                                                                                     ...................                                                                                                                                                                                     ...................                                                                                                                                                                                     ...................                                                                                                                                                                                                         ",
" ++'''''+ '-''++++ ++'''''' ''=''+++ ++'''''' ''''''++ ++'''''' '''=''++ +++-='-- -'-'--++ ++''==== ===''+++ +++''+'' '''''+++ ++++++=+ ==++++++ =--=++++                   ++++=--=.=+++++++.+++++++=.  ++*****+ *@**++++ ++****** **;**+++ ++****** ******++ ++****** ***;**++ +++@;*@@ @*@*@@++ ++**;;;; ;;;**+++ +++**+** *****+++ ++++++;+ ;;++++++ ;@@;++++                   ++++;@@;.;+++++++.+++++++;.  ++;;;;;+ ;,;;++++ ++;;;;;; ;;=;;+++ ++;;;;;; ;;;;;;++ ++;;;;;; ;;;=;;++ +++,=;,, ,;,;,,++ ++;;==== ===;;+++ +++;;+;; ;;;;;+++ ++++++=+ ==++++++ =,,=++++                   ++++=,,=.=+++++++.+++++++=.  ++=====+ =+==++++ ++====== ==&==+++ ++====== ======++ ++====== ===&==++ ++++&=++ +=+=++++ ++==&&&& &&&==+++ +++==+== =====+++ ++++++&+ &&++++++ &++&++++                   ++++&++&.&+++++++.+++++++&.      ++++   ++   ++  ++++++  ++++++  ++++++           ++    ++   ++       +           +++   ++      ++              ++++++    +++   ++      +++++++  ++++++  ++++++ +++++++  ++++   ++                  ",
" ++'=''+' '-'''+++ +++'=''= ''''++++ ++'''''' ''''''++ ++'''''' '''=''++ +++-'--= '--='-++ +++''=+= +=''++++ +++''''' '''''+++ ++++++=+ =+++++++ =--=++++                   ++++=--=.=+++++++.+++++++=.  ++*;**+* *@***+++ +++*;**; ****++++ ++****** ******++ ++****** ***;**++ +++@*@@; *@@;*@++ +++**;+; +;**++++ +++***** *****+++ ++++++;+ ;+++++++ ;@@;++++                   ++++;@@;.;+++++++.+++++++;.  ++;=;;+; ;,;;;+++ +++;=;;= ;;;;++++ ++;;;;;; ;;;;;;++ ++;;;;;; ;;;=;;++ +++,;,,= ;,,=;,++ +++;;=+= +=;;++++ +++;;;;; ;;;;;+++ ++++++=+ =+++++++ =,,=++++                   ++++=,,=.=+++++++.+++++++=.  ++=&==+= =+===+++ +++=&==& ====++++ ++====== ======++ ++====== ===&==++ ++++=++& =++&=+++ +++==&+& +&==++++ +++===== =====+++ ++++++&+ &+++++++ &++&++++                   ++++&++&.&+++++++.+++++++&.     ++  ++  ++   ++  ++      ++        ++            ++     ++   ++      +           ++ ++  ++      ++              ++   ++  ++ ++  ++      ++         ++      ++   ++      ++  ++   ++                 ",
" ++''='+' '''''+++ +++''''' ''''++++ ++'''''' ''''''++ +++''''' ''=''+++ +++-='-- -'----++ ++++''+= +''+++++ ++''+''' ''''''++ ++++++=+ ++++++++ =--=++++                   ++++=--=.=+++++++.+++++++=.  ++**;*+* *****+++ +++***** ****++++ ++****** ******++ +++***** **;**+++ +++@;*@@ @*@@@@++ ++++**+; +**+++++ ++**+*** ******++ ++++++;+ ++++++++ ;@@;++++                   ++++;@@;.;+++++++.+++++++;.  ++;;=;+; ;;;;;+++ +++;;;;; ;;;;++++ ++;;;;;; ;;;;;;++ +++;;;;; ;;=;;+++ +++,=;,, ,;,,,,++ ++++;;+= +;;+++++ ++;;+;;; ;;;;;;++ ++++++=+ ++++++++ =,,=++++                   ++++=,,=.=+++++++.+++++++=.  ++==&=+= =====+++ +++===== ====++++ ++====== ======++ +++===== ==&==+++ ++++&=++ +=++++++ ++++==+& +==+++++ ++==+=== ======++ ++++++&+ ++++++++ &++&++++                   ++++&++&.&+++++++.+++++++&.     ++      ++   ++  ++      ++        ++           ++      ++ + ++     +           ++   ++ ++      ++              ++   ++ ++   ++ ++      ++         ++      ++   ++      ++        ++                ",
" +++'''+' =''''+++ ++++''=' '=++++++ +++''''' '''''+++ +++''''' '''''+++ ++++--'= '='--+++ +++++'+= +'++++++ ++''+''' ''''''++ ++++++=+ =+++++++ =---=+++                   +++=---=.=+++++++.+++++++=.  +++***+* ;****+++ ++++**;* *;++++++ +++***** *****+++ +++***** *****+++ ++++@@*; *;*@@+++ +++++*+; +*++++++ ++**+*** ******++ ++++++;+ ;+++++++ ;@@@;+++                   +++;@@@;.;+++++++.+++++++;.  +++;;;+; =;;;;+++ ++++;;=; ;=++++++ +++;;;;; ;;;;;+++ +++;;;;; ;;;;;+++ ++++,,;= ;=;,,+++ +++++;+= +;++++++ ++;;+;;; ;;;;;;++ ++++++=+ =+++++++ =,,,=+++                   +++=,,,=.=+++++++.+++++++=.  +++===+= &====+++ ++++==&= =&++++++ +++===== =====+++ +++===== =====+++ ++++++=& =&=+++++ +++++=+& +=++++++ ++==+=== ======++ ++++++&+ &+++++++ &+++&+++                   +++&+++&.&+++++++.+++++++&.      +++++  +++++++  +++++   +++++     ++           ++      +++++++    +            ++   ++ ++      ++              ++   ++ ++   ++ ++      ++++++     ++      ++   ++++++   +++++    ++                ",
" +++++++' '='''+++ +++++''' ''++++++ +++''''' '''''+++ ++++'''' ''''++++ ++++---' ---'-+++ +++++++= ++++++++ ++'''''' ''''''++ ++++++=+ ==++++++ +=---===                   ===---=+.=+++++++.+++++++=.  +++++++* *;***+++ +++++*** **++++++ +++***** *****+++ ++++**** ****++++ ++++@@@* @@@*@+++ +++++++; ++++++++ ++****** ******++ ++++++;+ ;;++++++ +;@@@;;;                   ;;;@@@;+.;+++++++.+++++++;.  +++++++; ;=;;;+++ +++++;;; ;;++++++ +++;;;;; ;;;;;+++ ++++;;;; ;;;;++++ ++++,,,; ,,,;,+++ +++++++= ++++++++ ++;;;;;; ;;;;;;++ ++++++=+ ==++++++ +=,,,===                   ===,,,=+.=+++++++.+++++++=.  +++++++= =&===+++ +++++=== ==++++++ +++===== =====+++ ++++==== ====++++ +++++++= +++=++++ +++++++& ++++++++ ++====== ======++ ++++++&+ &&++++++ +&+++&&&                   &&&+++&+.&+++++++.+++++++&.          ++ ++   ++  ++      ++        ++           ++      +++++++   +             +++++++ ++      ++              ++++++  +++++++ ++      ++         ++      ++   ++           ++   ++                ",
" ++++++++ ''''++++ +++++++' ++++++++ +++++''' '''+++++ +++++''+ '''+++++ +++++-'- --'-++++ +++++++= ++++++++ ++'----- ==---'++ ++++++=+ =+++++++ +=------                   ------=+.=+++++++.+++++++=.  ++++++++ ****++++ +++++++* ++++++++ +++++*** ***+++++ +++++**+ ***+++++ +++++@*@ @@*@++++ +++++++; ++++++++ ++*@@@@@ ;;@@@*++ ++++++;+ ;+++++++ +;@@@@@@                   @@@@@@;+.;+++++++.+++++++;.  ++++++++ ;;;;++++ +++++++; ++++++++ +++++;;; ;;;+++++ +++++;;+ ;;;+++++ +++++,;, ,,;,++++ +++++++= ++++++++ ++;,,,,, ==,,,;++ ++++++=+ =+++++++ +=,,,,,,                   ,,,,,,=+.=+++++++.+++++++=.  ++++++++ ====++++ +++++++= ++++++++ +++++=== ===+++++ +++++==+ ===+++++ ++++++=+ ++=+++++ +++++++& ++++++++ ++=+++++ &&+++=++ ++++++&+ &+++++++ +&++++++                   ++++++&+.&+++++++.+++++++&.     ++   ++ ++   ++  ++      ++        ++            ++     +++ +++  +              ++   ++ ++      ++              ++      ++   ++ ++      ++         ++      ++   ++      ++   ++  ++                 ",
" ++++++++ ++++++++ ++++++++ ++++++++ ++++++++ ++++++++ ++++++++ ++++++++ +++++++- -'++++++ ++++++++ ++++++++ +++----- ==---+++ +++++++= ++++++++ ++==----                   ----==++.=+++++++.+++++++=.  ++++++++ ++++++++ ++++++++ ++++++++ ++++++++ ++++++++ ++++++++ ++++++++ +++++++@ @*++++++ ++++++++ ++++++++ +++@@@@@ ;;@@@+++ +++++++; ++++++++ ++;;@@@@                   @@@@;;++.;+++++++.+++++++;.  ++++++++ ++++++++ ++++++++ ++++++++ ++++++++ ++++++++ ++++++++ ++++++++ +++++++, ,;++++++ ++++++++ ++++++++ +++,,,,, ==,,,+++ +++++++= ++++++++ ++==,,,,                   ,,,,==++.=+++++++.+++++++=.  ++++++++ ++++++++ ++++++++ ++++++++ ++++++++ ++++++++ ++++++++ ++++++++ ++++++++ +=++++++ ++++++++ ++++++++ ++++++++ &&++++++ +++++++& ++++++++ ++&&++++                   ++++&&++.&+++++++.+++++++&.      +++++  ++   ++  ++++++  ++++++    ++             ++    ++   ++ +               ++   ++ +++++++ +++++++         ++      ++   ++ +++++++ +++++++    ++      ++   +++++++  +++++  ++                  ",
" ++++++++ ++++++++ ++++++++ ++++++++ ++++++++ ++++++++ ++++++++ ++++++++ ++++++++ ++++++++ ++++++++ ++++++++ ++++++++ ++++++++ ++++++++ ++++++++ ++++====                   ====++++.========.========.  ++++++++ ++++++++ ++++++++ ++++++++ ++++++++ ++++++++ ++++++++ ++++++++ ++++++++ ++++++++ ++++++++ ++++++++ ++++++++ ++++++++ ++++++++ ++++++++ ++++;;;;                   ;;;;++++.;;;;;;;;.;;;;;;;;.  ++++++++ ++++++++ ++++++++ ++++++++ ++++++++ ++++++++ ++++++++ ++++++++ ++++++++ ++++++++ ++++++++ ++++++++ ++++++++ ++++++++ ++++++++ ++++++++ ++++====                   ====++++.========.========.  ++++++++ ++++++++ ++++++++ ++++++++ ++++++++ ++++++++ ++++++++ ++++++++ ++++++++ ++++++++ ++++++++ ++++++++ ++++++++ ++++++++ ++++++++ ++++++++ ++++&&&&                   &&&&++++.&&&&&&&&.&&&&&&&&.                                                                                                                                                                                                         ",
"                                                                                                                                                                                    ...................                                                                                                                                                                                     ...................                                                                                                                                                                                     ...................                                                                                                                                                                                     ...................     ++++++   ++++++ ++++++  ++++++  +++++++ +++++             +++   ++   ++ +++++            ++++    +++++  ++++++   ++++++ +++++++ +++++           ++++++   ++  ++                                     ",
" ++++++++ ++++++++ ++++++++ ++++++++ ++++++++ ++++++++ ++++++++ ++++++++ ++++++++ ++++++++ ++++++++ ++++++++ ++++++++ +++=+++= ++++++++ =====++= ++++++++ =====++= ++++++++ =====++= =+++==++ ++++++++   ++++++++ ++++++++ ++++++++ ++++++++ ++++++++ ++++++++ ++++++++ ++++++++ ++++++++ ++++++++ ++++++++ ++++++++ ++++++++ +++;+++; ++++++++ ;;;;;++; ++++++++ ;;;;;++; ++++++++ ;;;;;++; ;+++;;++ ++++++++   ++++++++ ++++++++ ++++++++ ++++++++ ++++++++ ++++++++ ++++++++ ++++++++ ++++++++ ++++++++ ++++++++ ++++++++ ++++++++ +++=+++= ++++++++ =====++= ++++++++ =====++= ++++++++ =====++= =+++==++ ++++++++   ++++++++ ++++++++ ++++++++ ++++++++ ++++++++ ++++++++ ++++++++ ++++++++ ++++++++ ++++++++ ++++++++ ++++++++ ++++++++ +++&+++& ++++++++ &&&&&++& ++++++++ &&&&&++& ++++++++ &&&&&++& &+++&&++ ++++++++      ++   ++    ++   ++   ++ ++   ++ ++      ++  ++           ++ ++  +++  ++ ++  ++          ++  ++  ++   ++ ++   ++    ++   ++      ++  ++          ++   ++  ++  ++                                     ",
" ++++++++ ++++++++ ++++++++ ++++++++ ++++++++ ++++++++ ++++++++ ++++++++ ++++++++ ++++++++ ++++++++ ++++++++ ++++++++ ++==++=+ ++++++++ +++=++=+ ++++++++ =+++++=+ ++++++++ =+++=+=+ +=+=++=+ ++++++++   ++++++++ ++++++++ ++++++++ ++++++++ ++++++++ ++++++++ ++++++++ ++++++++ ++++++++ ++++++++ ++++++++ ++++++++ ++++++++ ++;;++;+ ++++++++ +++;++;+ ++++++++ ;+++++;+ ++++++++ ;+++;+;+ +;+;++;+ ++++++++   ++++++++ ++++++++ ++++++++ ++++++++ ++++++++ ++++++++ ++++++++ ++++++++ ++++++++ ++++++++ ++++++++ ++++++++ ++++++++ ++==++=+ ++++++++ +++=++=+ ++++++++ =+++++=+ ++++++++ =+++=+=+ +=+=++=+ ++++++++   ++++++++ ++++++++ ++++++++ ++++++++ ++++++++ ++++++++ ++++++++ ++++++++ ++++++++ ++++++++ ++++++++ ++++++++ ++++++++ ++&&++&+ ++++++++ +++&++&+ ++++++++ &+++++&+ ++++++++ &+++&+&+ +&+&++&+ ++++++++      ++   ++    ++   ++   ++ ++   ++ ++      ++   ++         ++   ++ ++++ ++ ++   ++         ++      ++   ++ ++   ++    ++   ++      ++   ++         ++   ++  ++  ++                                     ",
" +++++=== ==++++++ ++++++++ ++++++++ ++++++++ +====+++ +++++=== ==++++++ +++====+ ++++++++ ++++++++ ++++++++ ++++++++ +++=++=+ ++++++++ ++=+++=+ ++++++++ ====++=+ ++++++++ +++=++=+ +=+=++=+ ++++++++   +++++;;; ;;++++++ ++++++++ ++++++++ ++++++++ +;;;;+++ +++++;;; ;;++++++ +++;;;;+ ++++++++ ++++++++ ++++++++ ++++++++ +++;++;+ ++++++++ ++;+++;+ ++++++++ ;;;;++;+ ++++++++ +++;++;+ +;+;++;+ ++++++++   +++++=== ==++++++ ++++++++ ++++++++ ++++++++ +====+++ +++++=== ==++++++ +++====+ ++++++++ ++++++++ ++++++++ ++++++++ +++=++=+ ++++++++ ++=+++=+ ++++++++ ====++=+ ++++++++ +++=++=+ +=+=++=+ ++++++++   +++++&&& &&++++++ ++++++++ ++++++++ ++++++++ +&&&&+++ +++++&&& &&++++++ +++&&&&+ ++++++++ ++++++++ ++++++++ ++++++++ +++&++&+ ++++++++ ++&+++&+ ++++++++ &&&&++&+ ++++++++ +++&++&+ +&+&++&+ ++++++++      ++  +++    ++   ++   ++ ++   ++ ++++++  ++   ++         ++   ++ +++++++ ++   ++          +++++  ++   ++ ++  +++    ++   ++++++  ++   ++         ++++++    ++++                                      ",
" ++++==== ===+++++ ++++++++ ++++++++ ++++++++ +====+++ +++++=== ===+++++ +++===== ++++++++ ++++++++ ++++++++ ++++++++ +++=++=+ ++++++++ +++=++=+ ++++++++ ++++=+=+ ++++++++ +++=++=+ +=+=++=+ ++++++++   ++++;;;; ;;;+++++ ++++++++ ++++++++ ++++++++ +;;;;+++ +++++;;; ;;;+++++ +++;;;;; ++++++++ ++++++++ ++++++++ ++++++++ +++;++;+ ++++++++ +++;++;+ ++++++++ ++++;+;+ ++++++++ +++;++;+ +;+;++;+ ++++++++   ++++==== ===+++++ ++++++++ ++++++++ ++++++++ +====+++ +++++=== ===+++++ +++===== ++++++++ ++++++++ ++++++++ ++++++++ +++=++=+ ++++++++ +++=++=+ ++++++++ ++++=+=+ ++++++++ +++=++=+ +=+=++=+ ++++++++   ++++&&&& &&&+++++ ++++++++ ++++++++ ++++++++ +&&&&+++ +++++&&& &&&+++++ +++&&&&& ++++++++ ++++++++ ++++++++ ++++++++ +++&++&+ ++++++++ +++&++&+ ++++++++ ++++&+&+ ++++++++ +++&++&+ +&+&++&+ ++++++++      +++++      ++   ++++++  ++++++  ++      ++   ++         +++++++ ++ ++++ ++   ++              ++ ++   ++ +++++      ++   ++      ++   ++         ++   ++    ++                                       ",
" +++===== ====++++ ++++++++ ++++++++ ++++++++ +=====++ +++++=== ====++++ +++===== =+++++++ ++++++++ ++++++++ ++++++++ +++=++=+ ++++++++ ++++=+=+ ++++++++ ++++=+=+ ++++++++ ++=+++=+ +=+=++=+ ++++++++   +++;;;;; ;;;;++++ ++++++++ ++++++++ ++++++++ +;;;;;++ +++++;;; ;;;;++++ +++;;;;; ;+++++++ ++++++++ ++++++++ ++++++++ +++;++;+ ++++++++ ++++;+;+ ++++++++ ++++;+;+ ++++++++ ++;+++;+ +;+;++;+ ++++++++   +++===== ====++++ ++++++++ ++++++++ ++++++++ +=====++ +++++=== ====++++ +++===== =+++++++ ++++++++ ++++++++ ++++++++ +++=++=+ ++++++++ ++++=+=+ ++++++++ ++++=+=+ ++++++++ ++=+++=+ +=+=++=+ ++++++++   +++&&&&& &&&&++++ ++++++++ ++++++++ ++++++++ +&&&&&++ +++++&&& &&&&++++ +++&&&&& &+++++++ ++++++++ ++++++++ ++++++++ +++&++&+ ++++++++ ++++&+&+ ++++++++ ++++&+&+ ++++++++ ++&+++&+ +&+&++&+ ++++++++      ++ +++     ++   ++      ++      ++      ++  ++          ++   ++ ++  +++ ++  ++          ++   ++ ++   ++ ++ +++     ++   ++      ++  ++          ++   ++    ++                                       ",
" +++++=== =====+++ ++++++++ ++++++++ ++++++++ +======+ +++++=== ======++ +++===== ===+++++ ++++++++ ++++++++ ++++++++ +++=++=+ ++++++++ =+++=+=+ ++++++++ =+++=+=+ ++++++++ ++=+++=+ +=+=++=+ ++++++++   +++++;;; ;;;;;+++ ++++++++ ++++++++ ++++++++ +;;;;;;+ +++++;;; ;;;;;;++ +++;;;;; ;;;+++++ ++++++++ ++++++++ ++++++++ +++;++;+ ++++++++ ;+++;+;+ ++++++++ ;+++;+;+ ++++++++ ++;+++;+ +;+;++;+ ++++++++   +++++=== =====+++ ++++++++ ++++++++ ++++++++ +======+ +++++=== ======++ +++===== ===+++++ ++++++++ ++++++++ ++++++++ +++=++=+ ++++++++ =+++=+=+ ++++++++ =+++=+=+ ++++++++ ++=+++=+ +=+=++=+ ++++++++   +++++&&& &&&&&+++ ++++++++ ++++++++ ++++++++ +&&&&&&+ +++++&&& &&&&&&++ +++&&&&& &&&+++++ ++++++++ ++++++++ ++++++++ +++&++&+ ++++++++ &+++&+&+ ++++++++ &+++&+&+ ++++++++ ++&+++&+ +&+&++&+ ++++++++      ++  +++  ++++++ ++      ++      +++++++ +++++           ++   ++ ++   ++ +++++            +++++   +++++  ++  +++    ++   +++++++ +++++           ++++++     ++                                       ",
" +++++++= =====+++ ++++++++ ++++++++ ++++++++ +======= +++++=== ======== +++===== ======== ++++++++ +++++++= ++++++++ ++===++= ++++++++ +===+++= ++++++++ +===+++= ++++++++ ++=++++= =+++==++ ++++++++   +++++++; ;;;;;+++ ++++++++ ++++++++ ++++++++ +;;;;;;; +++++;;; ;;;;;;;; +++;;;;; ;;;;;;;; ++++++++ +++++++; ++++++++ ++;;;++; ++++++++ +;;;+++; ++++++++ +;;;+++; ++++++++ ++;++++; ;+++;;++ ++++++++   +++++++= =====+++ ++++++++ ++++++++ ++++++++ +======= +++++=== ======== +++===== ======== ++++++++ +++++++= ++++++++ ++===++= ++++++++ +===+++= ++++++++ +===+++= ++++++++ ++=++++= =+++==++ ++++++++   +++++++& &&&&&+++ ++++++++ ++++++++ ++++++++ +&&&&&&& +++++&&& &&&&&&&& +++&&&&& &&&&&&&& ++++++++ +++++++& ++++++++ ++&&&++& ++++++++ +&&&+++& ++++++++ +&&&+++& ++++++++ ++&++++& &+++&&++ ++++++++                                                                                                                                                                                                          ",
" ++++++++ +====+++ ++++++++ +++++++' ++++++++ +======= +++++=== ======== +++===== ======== ++++++++ ++++++== ++++++++ ++++++++ ++++++++ ++++++++ ++++++++ ++++++++ ++++++++ ++++++++ ++++++++ ++++++++   ++++++++ +;;;;+++ ++++++++ +++++++* ++++++++ +;;;;;;; +++++;;; ;;;;;;;; +++;;;;; ;;;;;;;; ++++++++ ++++++;; ++++++++ ++++++++ ++++++++ ++++++++ ++++++++ ++++++++ ++++++++ ++++++++ ++++++++ ++++++++   ++++++++ +====+++ ++++++++ +++++++; ++++++++ +======= +++++=== ======== +++===== ======== ++++++++ ++++++== ++++++++ ++++++++ ++++++++ ++++++++ ++++++++ ++++++++ ++++++++ ++++++++ ++++++++ ++++++++   ++++++++ +&&&&+++ ++++++++ +++++++= ++++++++ +&&&&&&& +++++&&& &&&&&&&& +++&&&&& &&&&&&&& ++++++++ ++++++&& ++++++++ ++++++++ ++++++++ ++++++++ ++++++++ ++++++++ ++++++++ ++++++++ ++++++++ ++++++++        ++++    +++    ++  ++ ++       ++++++ +++++++           ++++                  ++   ++  ++++    ++++++ ++   ++   +++++          +++++  ++++++   ++++++   +++++  ++++++ ++   ++   +++   ++          ",
"                                                                                                                                                                                                                                                                                                                                                                                                                                                                                                                                                                                                                                                                                                                                                                                                                                     ++  ++  ++ ++   ++  ++ ++         ++   ++               ++  ++                 ++   ++ ++  ++     ++   +++  ++  ++             ++   ++ ++   ++    ++    ++        ++   +++  ++  ++ ++  ++          ",
" +++++++= =====+++ ++++++++ +++++++' ++++++++ +======= +++++=== ======== +++===== ======== ++++++++ ++++==== ++++++++ +=+++==+ +++++++= ==+++==+ ++++++== ===++==+ ++++++== ===++==+ ++==+++= =+++++++   +++++++; ;;;;;+++ ++++++++ +++++++* ++++++++ +;;;;;;; +++++;;; ;;;;;;;; +++;;;;; ;;;;;;;; ++++++++ ++++;;;; ++++++++ +;+++;;+ +++++++; ;;+++;;+ ++++++;; ;;;++;;+ ++++++;; ;;;++;;+ ++;;+++; ;+++++++   +++++++= =====+++ ++++++++ +++++++; ++++++++ +======= +++++=== ======== +++===== ======== ++++++++ ++++==== ++++++++ +=+++==+ +++++++= ==+++==+ ++++++== ===++==+ ++++++== ===++==+ ++==+++= =+++++++   +++++++& &&&&&+++ ++++++++ +++++++= ++++++++ +&&&&&&& +++++&&& &&&&&&&& +++&&&&& &&&&&&&& ++++++++ ++++&&&& ++++++++ +&+++&&+ +++++++& &&+++&&+ ++++++&& &&&++&&+ ++++++&& &&&++&&+ ++&&+++& &+++++++      ++      ++   ++  ++  ++ ++         ++   ++              ++                      ++   ++ ++         ++   ++++ ++ ++              ++   ++ ++   ++    ++   ++         ++   ++++ ++ ++   ++ ++          ",
" +++++=== =====+++ ++++++++ +++++++' ++++++++ +======= +++++=== ======== +++===== ======== ++++++++ +++===== ++++++++ ==++=++= ++++++=+ ++=+=++= ++++++++ +=++=++= ++++++=+ ++++=++= +=++=+=+ +=++++++   +++++;;; ;;;;;+++ ++++++++ +++++++* ++++++++ +;;;;;;; +++++;;; ;;;;;;;; +++;;;;; ;;;;;;;; ++++++++ +++;;;;; ++++++++ ;;++;++; ++++++;+ ++;+;++; ++++++++ +;++;++; ++++++;+ ++++;++; +;++;+;+ +;++++++   +++++=== =====+++ ++++++++ +++++++; ++++++++ +======= +++++=== ======== +++===== ======== ++++++++ +++===== ++++++++ ==++=++= ++++++=+ ++=+=++= ++++++++ +=++=++= ++++++=+ ++++=++= +=++=+=+ +=++++++   +++++&&& &&&&&+++ ++++++++ +++++++= ++++++++ +&&&&&&& +++++&&& &&&&&&&& +++&&&&& &&&&&&&& ++++++++ +++&&&&& ++++++++ &&++&++& ++++++&+ ++&+&++& ++++++++ +&++&++& ++++++&+ ++++&++& +&++&+&+ +&++++++      ++      ++   ++   ++++  ++         ++   ++++++          ++                      ++   ++  +++++     ++   +++++++ ++  +++         ++   ++ ++  +++    ++   ++  +++    ++   +++++++ ++   ++ ++          ",
" +++===== ====++++ ++++++++ +++++++' ++++++++ +======= +++++=== ======== +++===== ======== ++++++++ +======' ++++++++ +=++=++= ++++++=+ ++=+=++= ++++++++ =+++=++= ++++++== ==++=++= +=++=+=+ +=++++++   +++;;;;; ;;;;++++ ++++++++ +++++++* ++++++++ +;;;;;;; +++++;;; ;;;;;;;; +++;;;;; ;;;;;;;; ++++++++ +;;;;;;* ++++++++ +;++;++; ++++++;+ ++;+;++; ++++++++ ;+++;++; ++++++;; ;;++;++; +;++;+;+ +;++++++   +++===== ====++++ ++++++++ +++++++; ++++++++ +======= +++++=== ======== +++===== ======== ++++++++ +======; ++++++++ +=++=++= ++++++=+ ++=+=++= ++++++++ =+++=++= ++++++== ==++=++= +=++=+=+ +=++++++   +++&&&&& &&&&++++ ++++++++ +++++++= ++++++++ +&&&&&&& +++++&&& &&&&&&&& +++&&&&& &&&&&&&& ++++++++ +&&&&&&= ++++++++ +&++&++& ++++++&+ ++&+&++& ++++++++ &+++&++& ++++++&& &&++&++& +&++&+&+ +&++++++      ++      +++++++    ++   ++         ++   ++              ++                      ++   ++      ++    ++   ++ ++++ ++   ++         ++   ++ +++++      ++   ++   ++    ++   ++ ++++ +++++++ ++          ",
" ++++==== ===+++++ ++++++++ ++++++++ ++++++++ ++++++++ ++++++++ ++++++++ ++++++++ ++++++++ ++++++++ ++++++++ ++++++++ +=++=++= ++++++++ +=++=++= ++++++++ +=++=++= ++++++++ ++=+=++= +=++=+=+ +=++++++   ++++;;;; ;;;+++++ ++++++++ ++++++++ ++++++++ ++++++++ ++++++++ ++++++++ ++++++++ ++++++++ ++++++++ ++++++++ ++++++++ +;++;++; ++++++++ +;++;++; ++++++++ +;++;++; ++++++++ ++;+;++; +;++;+;+ +;++++++   ++++==== ===+++++ ++++++++ ++++++++ ++++++++ ++++++++ ++++++++ ++++++++ ++++++++ ++++++++ ++++++++ ++++++++ ++++++++ +=++=++= ++++++++ +=++=++= ++++++++ +=++=++= ++++++++ ++=+=++= +=++=+=+ +=++++++   ++++&&&& &&&+++++ ++++++++ ++++++++ ++++++++ ++++++++ ++++++++ ++++++++ ++++++++ ++++++++ ++++++++ ++++++++ ++++++++ +&++&++& ++++++++ +&++&++& ++++++++ +&++&++& ++++++++ ++&+&++& +&++&+&+ +&++++++       ++  ++ ++   ++    ++   ++         ++   ++               ++  ++ ++              ++   ++ ++   ++    ++   ++  +++  ++  ++         ++   ++ ++ +++     ++    ++  ++    ++   ++  +++ ++   ++ ++          ",
" +++++=== ==++++++ ++++++++ ++++++++ ++++++++ ++++++++ ++++++++ ++++++++ ++++++++ ++++++++ ++++++++ ++++++++ ++++++++ +=++=++= ++++++++ =+++=++= ++++++++ ++=+=++= ++++++++ ++=+=++= +=++=+=+ +=++++++   +++++;;; ;;++++++ ++++++++ ++++++++ ++++++++ ++++++++ ++++++++ ++++++++ ++++++++ ++++++++ ++++++++ ++++++++ ++++++++ +;++;++; ++++++++ ;+++;++; ++++++++ ++;+;++; ++++++++ ++;+;++; +;++;+;+ +;++++++   +++++=== ==++++++ ++++++++ ++++++++ ++++++++ ++++++++ ++++++++ ++++++++ ++++++++ ++++++++ ++++++++ ++++++++ ++++++++ +=++=++= ++++++++ =+++=++= ++++++++ ++=+=++= ++++++++ ++=+=++= +=++=+=+ +=++++++   +++++&&& &&++++++ ++++++++ ++++++++ ++++++++ ++++++++ ++++++++ ++++++++ ++++++++ ++++++++ ++++++++ ++++++++ ++++++++ +&++&++& ++++++++ &+++&++& ++++++++ ++&+&++& ++++++++ ++&+&++& +&++&+&+ +&++++++        ++++  ++   ++    ++   +++++++  ++++++ +++++++           ++++  ++               +++++   +++++   ++++++ ++   ++   +++++          +++++  ++  +++  ++++++   +++++  ++++++ ++   ++ ++   ++ +++++++     ",
" ++++++++ ++++++++ ++++++++ ++++++++ ++++++++ ++++++++ ++++++++ ++++++++ ++++++++ ++++++++ ++++++++ ++++++++ ++++++++ +=++=++= +++++++= ++++=++= ++++++=+ ++=+=++= ++++++=+ ++=+=++= +=++=+=+ +=++++++   ++++++++ ++++++++ ++++++++ ++++++++ ++++++++ ++++++++ ++++++++ ++++++++ ++++++++ ++++++++ ++++++++ ++++++++ ++++++++ +;++;++; +++++++; ++++;++; ++++++;+ ++;+;++; ++++++;+ ++;+;++; +;++;+;+ +;++++++   ++++++++ ++++++++ ++++++++ ++++++++ ++++++++ ++++++++ ++++++++ ++++++++ ++++++++ ++++++++ ++++++++ ++++++++ ++++++++ +=++=++= +++++++= ++++=++= ++++++=+ ++=+=++= ++++++=+ ++=+=++= +=++=+=+ +=++++++   ++++++++ ++++++++ ++++++++ ++++++++ ++++++++ ++++++++ ++++++++ ++++++++ ++++++++ ++++++++ ++++++++ ++++++++ ++++++++ +&++&++& +++++++& ++++&++& ++++++&+ ++&+&++& ++++++&+ ++&+&++& +&++&+&+ +&++++++                                                                                                                                                                                                          ",
" ++++++++ ++++++++ ++++++++ ++++++++ ++++++++ ++++++++ ++++++++ ++++++++ ++++++++ ++++++++ ++++++++ ++++++++ ++++++++ ===++==+ ++++++== ===++==+ +++++++= ==+++==+ +++++++= ==+++==+ ++==+++= =+++++++   ++++++++ ++++++++ ++++++++ ++++++++ ++++++++ ++++++++ ++++++++ ++++++++ ++++++++ ++++++++ ++++++++ ++++++++ ++++++++ ;;;++;;+ ++++++;; ;;;++;;+ +++++++; ;;+++;;+ +++++++; ;;+++;;+ ++;;+++; ;+++++++   ++++++++ ++++++++ ++++++++ ++++++++ ++++++++ ++++++++ ++++++++ ++++++++ ++++++++ ++++++++ ++++++++ ++++++++ ++++++++ ===++==+ ++++++== ===++==+ +++++++= ==+++==+ +++++++= ==+++==+ ++==+++= =+++++++   ++++++++ ++++++++ ++++++++ ++++++++ ++++++++ ++++++++ ++++++++ ++++++++ ++++++++ ++++++++ ++++++++ ++++++++ ++++++++ &&&++&&+ ++++++&& &&&++&&+ +++++++& &&+++&&+ +++++++& &&+++&&+ ++&&+++& &+++++++        +++    ++++    ++++   +++++++  ++++++  ++++           ++   ++   +++   +++++   +++++++         ++++++   ++  ++         +++++++    ++++++   +++++++++    +++++++   ++++++                           ",
" ++++++++ ++++++++ ++++++++ ++++++++ ++++++++ ++++++++ ++++++++ ++++++++ ++++++++ ++++++++ ++++++++ ++++++++ ++++++++ ++++++++ ++++++++ ++++++++ ++++++++ ++++++++ ++++++++ ++++++++ ++++++++ ++++++++   ++++++++ ++++++++ ++++++++ ++++++++ ++++++++ ++++++++ ++++++++ ++++++++ ++++++++ ++++++++ ++++++++ ++++++++ ++++++++ ++++++++ ++++++++ ++++++++ ++++++++ ++++++++ ++++++++ ++++++++ ++++++++ ++++++++   ++++++++ ++++++++ ++++++++ ++++++++ ++++++++ ++++++++ ++++++++ ++++++++ ++++++++ ++++++++ ++++++++ ++++++++ ++++++++ ++++++++ ++++++++ ++++++++ ++++++++ ++++++++ ++++++++ ++++++++ ++++++++ ++++++++   ++++++++ ++++++++ ++++++++ ++++++++ ++++++++ ++++++++ ++++++++ ++++++++ ++++++++ ++++++++ ++++++++ ++++++++ ++++++++ ++++++++ ++++++++ ++++++++ ++++++++ ++++++++ ++++++++ ++++++++ ++++++++ ++++++++       ++ ++  ++  ++  ++  ++  ++         ++   ++  ++          +++ +++  ++ ++  ++  ++  ++              ++   ++  ++  ++         ++++++++   +++++++  ++++++++++  ++++++++  ++++++++                          ",
"                                                                                                                                                                                                                                                                                                                                                                                                                                                                                                                                                                                                                                                                                                                                                                                                                                    ++   ++ ++      ++      ++         ++   ++              +++++++ ++   ++ ++   ++ ++              ++   ++  ++  ++         ++    ++        ++  ++  ++  ++  ++        ++    ++                          ",
"                                                                                                                                                                                                                                                                                                                                                                                                                                                                                                                                                                                                                                                                                                                                                                                                                                    ++   ++  +++++   +++++  ++++++     ++    +++++          +++++++ ++   ++ ++   ++ ++++++          ++++++    ++++          ++    ++  ++++++++  ++  ++  ++  ++        ++    ++                          ",
" ++++++++++++++++ ++++++++++++++++ ++++++++++++++++ ++++++++++++++++ ++++++++++++++++ ++++++++++++++++ ++++++++++++++++ ++++++++++++++++ ++++++++++++'''' ''''++++++++++++  +++++++++++++++++++++++++    ++++++++++++++++ ++++++++++++++++ ++++++++++++++++ ++++++++++++++++ ++++++++++++++++ ++++++++++++++++ ++++++++++++++++ ++++++++++++++++ ++++++++++++**** ****++++++++++++  +++++++++++++++++++++++++    ++++++++++++++++ ++++++++++++++++ ++++++++++++++++ ++++++++++++++++ ++++++++++++++++ ++++++++++++++++ ++++++++++++++++ ++++++++++++++++ ++++++++++++;;;; ;;;;++++++++++++  +++++++++++++++++++++++++    ++++++++++++++++ ++++++++++++++++ ++++++++++++++++ ++++++++++++++++ ++++++++++++++++ ++++++++++++++++ ++++++++++++++++ ++++++++++++++++ ++++++++++++==== ====++++++++++++  +++++++++++++++++++++++++       +++++++      ++      ++ ++         ++        ++         ++ + ++ +++++++ ++   ++ ++              ++   ++    ++           ++    ++  ++++++++  ++  ++  ++  ++        ++    ++                          ",
" ++++++====++++++ ++++++====++++++ ++++++====++++++ ++++++====++++++ ++++++====++++++ ++++++====++++++ ++++++====++++++ ++++++====++++++ +++++++++''''''' '''''''+++++++++  +++++++++++++++++++++++++    ++++++;;;;++++++ ++++++;;;;++++++ ++++++;;;;++++++ ++++++;;;;++++++ ++++++;;;;++++++ ++++++;;;;++++++ ++++++;;;;++++++ ++++++;;;;++++++ +++++++++******* *******+++++++++  +++++++++++++++++++++++++    ++++++====++++++ ++++++====++++++ ++++++====++++++ ++++++====++++++ ++++++====++++++ ++++++====++++++ ++++++====++++++ ++++++====++++++ +++++++++;;;;;;; ;;;;;;;+++++++++  +++++++++++++++++++++++++    ++++++&&&&++++++ ++++++&&&&++++++ ++++++&&&&++++++ ++++++&&&&++++++ ++++++&&&&++++++ ++++++&&&&++++++ ++++++&&&&++++++ ++++++&&&&++++++ +++++++++======= =======+++++++++  +++++++++++++++++++++++++       ++   ++ ++   ++ ++   ++ ++         ++   ++   ++         ++   ++ ++   ++ ++  ++  ++              ++   ++    ++           ++    ++  ++    ++  ++  ++  ++  ++        ++    ++                          ",
" ++++========++++ ++++========++++ ++++========++++ ++++========++++ ++++========++++ ++++========++++ ++++--====--++++ ++++--====--++++ +++++++''''''''' '''''''''+++++++  +++++++++++++++++++++++++    ++++;;;;;;;;++++ ++++;;;;;;;;++++ ++++;;;;;;;;++++ ++++;;;;;;;;++++ ++++;;;;;;;;++++ ++++;;;;;;;;++++ ++++@@;;;;@@++++ ++++@@;;;;@@++++ +++++++********* *********+++++++  +++++++++++++++++++++++++    ++++========++++ ++++========++++ ++++========++++ ++++========++++ ++++========++++ ++++========++++ ++++,,====,,++++ ++++,,====,,++++ +++++++;;;;;;;;; ;;;;;;;;;+++++++  +++++++++++++++++++++++++    ++++&&&&&&&&++++ ++++&&&&&&&&++++ ++++&&&&&&&&++++ ++++&&&&&&&&++++ ++++&&&&&&&&++++ ++++&&&&&&&&++++ ++++++&&&&++++++ ++++++&&&&++++++ +++++++========= =========+++++++  +++++++++++++++++++++++++       ++   ++  +++++   +++++  +++++++    ++    +++++          ++   ++ ++   ++ +++++   +++++++         ++++++     ++           ++    ++  ++++++++  ++  ++  ++  ++++++++  ++++++++                          ",
" +++==========+++ +++==========+++ +++==========+++ +++==========+++ +++==========+++ +++==========+++ +++'--'=='--'+++ +++'--'=='--'+++ ++++++'''''''''' ''''''''''++++++  +++++++++++++++++++++++++    +++;;;;;;;;;;+++ +++;;;;;;;;;;+++ +++;;;;;;;;;;+++ +++;;;;;;;;;;+++ +++;;;;;;;;;;+++ +++;;;;;;;;;;+++ +++*@@*;;*@@*+++ +++*@@*;;*@@*+++ ++++++********** **********++++++  +++++++++++++++++++++++++    +++==========+++ +++==========+++ +++==========+++ +++==========+++ +++==========+++ +++==========+++ +++;,,;==;,,;+++ +++;,,;==;,,;+++ ++++++;;;;;;;;;; ;;;;;;;;;;++++++  +++++++++++++++++++++++++    +++&&&&&&&&&&+++ +++&&&&&&&&&&+++ +++&&&&&&&&&&+++ +++&&&&&&&&&&+++ +++&&&&&&&&&&+++ +++&&&&&&&&&&+++ +++=++=&&=++=+++ +++=++=&&=++=+++ ++++++========== ==========++++++  +++++++++++++++++++++++++                                                                                                                               ++    ++  ++++++++  ++  ++  ++   +++++++   ++++++                           ",
" ++===''====''=++ ++===''====''=++ ++============++ ++============++ ++=''====''===++ ++=''====''===++ ++=''''==''''=++ ++=''''==''''=++ +++++''''''''''' '''''''''''+++++  +++++++++++++++++++++++++    ++;;;**;;;;**;++ ++;;;**;;;;**;++ ++;;;;;;;;;;;;++ ++;;;;;;;;;;;;++ ++;**;;;;**;;;++ ++;**;;;;**;;;++ ++;****;;****;++ ++;****;;****;++ +++++*********** ***********+++++  +++++++++++++++++++++++++    ++===;;====;;=++ ++===;;====;;=++ ++============++ ++============++ ++=;;====;;===++ ++=;;====;;===++ ++=;;;;==;;;;=++ ++=;;;;==;;;;=++ +++++;;;;;;;;;;; ;;;;;;;;;;;+++++  +++++++++++++++++++++++++    ++&&&==&&&&==&++ ++&&&==&&&&==&++ ++&&&&&&&&&&&&++ ++&&&&&&&&&&&&++ ++&==&&&&==&&&++ ++&==&&&&==&&&++ ++&====&&====&++ ++&====&&====&++ +++++=========== ===========+++++  +++++++++++++++++++++++++                                                                                                                                                                                                           ",
" ++==''''==''''++ ++==''''==''''++ ++==''====''==++ ++==''====''==++ ++''''==''''==++ ++''''==''''==++ ++=''''==''''=++ ++=''''==''''=++ ++++'''''''''''' ''''''''''''++++  +++++++++++++++++++++++++    ++;;****;;****++ ++;;****;;****++ ++;;**;;;;**;;++ ++;;**;;;;**;;++ ++****;;****;;++ ++****;;****;;++ ++;****;;****;++ ++;****;;****;++ ++++************ ************++++  +++++++++++++++++++++++++    ++==;;;;==;;;;++ ++==;;;;==;;;;++ ++==;;====;;==++ ++==;;====;;==++ ++;;;;==;;;;==++ ++;;;;==;;;;==++ ++=;;;;==;;;;=++ ++=;;;;==;;;;=++ ++++;;;;;;;;;;;; ;;;;;;;;;;;;++++  +++++++++++++++++++++++++    ++&&====&&====++ ++&&====&&====++ ++&&==&&&&==&&++ ++&&==&&&&==&&++ ++====&&====&&++ ++====&&====&&++ ++&====&&====&++ ++&====&&====&++ ++++============ ============++++  +++++++++++++++++++++++++                                                                                                                                                                                                           ",
" ++==''--==''--++ ++==''--==''--++ ++=''''==''''=++ ++=''''==''''=++ ++--''==--''==++ ++--''==--''==++ ++==''====''==++ ++==''====''==++ +++''''''''''''' '''''''''''''+++  +++++++++++++++++++++++++    ++;;**@@;;**@@++ ++;;**@@;;**@@++ ++;****;;****;++ ++;****;;****;++ ++@@**;;@@**;;++ ++@@**;;@@**;;++ ++;;**;;;;**;;++ ++;;**;;;;**;;++ +++************* *************+++  +++++++++++++++++++++++++    ++==;;,,==;;,,++ ++==;;,,==;;,,++ ++=;;;;==;;;;=++ ++=;;;;==;;;;=++ ++,,;;==,,;;==++ ++,,;;==,,;;==++ ++==;;====;;==++ ++==;;====;;==++ +++;;;;;;;;;;;;; ;;;;;;;;;;;;;+++  +++++++++++++++++++++++++    ++&&==++&&==++++ ++&&==++&&==++++ ++&====&&====&++ ++&====&&====&++ ++++==&&++==&&++ ++++==&&++==&&++ ++&&==&&&&==&&++ ++&&==&&&&==&&++ +++============= =============+++  +++++++++++++++++++++++++                                                                                                  ...............................                                                                          ",
" +===''--==''--=+ +===''--==''--=+ +==''''==''''==+ +==''''==''''==+ +=--''==--''===+ +=--''==--''===+ +==============+ +==============+ ++'''''''''''''' ''''''''''''''++  +++++++++++++++++++++++++    +;;;**@@;;**@@;+ +;;;**@@;;**@@;+ +;;****;;****;;+ +;;****;;****;;+ +;@@**;;@@**;;;+ +;@@**;;@@**;;;+ +;;;;;;;;;;;;;;+ +;;;;;;;;;;;;;;+ ++************** **************++  +++++++++++++++++++++++++    +===;;,,==;;,,=+ +===;;,,==;;,,=+ +==;;;;==;;;;==+ +==;;;;==;;;;==+ +=,,;;==,,;;===+ +=,,;;==,,;;===+ +==============+ +==============+ ++;;;;;;;;;;;;;; ;;;;;;;;;;;;;;++  +++++++++++++++++++++++++    +&&&==++&&==++&+ +&&&==++&&==++&+ +&&====&&====&&+ +&&====&&====&&+ +&++==&&++==&&&+ +&++==&&++==&&&+ +&&&&&&&&&&&&&&+ +&&&&&&&&&&&&&&+ ++============== ==============++  +++++++++++++++++++++++++                                                 ++++ ++++ ++++ ++++ ++++ ++++ ++++ ++++ ++++ ++++.++++.++++.++++.++++.++++.++++.++++ ++++ ++++ ++++ ++++ ++++                                             ",
" +====''====''==+ +====''====''==+ +=='--'=='--'==+ +=='--'=='--'==+ +==''====''====+ +==''====''====+ +==============+ +==============+ ++'''''''''''''' ''''''''''''''++  +++++++++++++++++++++++++    +;;;;**;;;;**;;+ +;;;;**;;;;**;;+ +;;*@@*;;*@@*;;+ +;;*@@*;;*@@*;;+ +;;**;;;;**;;;;+ +;;**;;;;**;;;;+ +;;;;;;;;;;;;;;+ +;;;;;;;;;;;;;;+ ++************** **************++  +++++++++++++++++++++++++    +====;;====;;==+ +====;;====;;==+ +==;,,;==;,,;==+ +==;,,;==;,,;==+ +==;;====;;====+ +==;;====;;====+ +==============+ +==============+ ++;;;;;;;;;;;;;; ;;;;;;;;;;;;;;++  +++++++++++++++++++++++++    +&&&&==&&&&==&&+ +&&&&==&&&&==&&+ +&&=++=&&=++=&&+ +&&=++=&&=++=&&+ +&&==&&&&==&&&&+ +&&==&&&&==&&&&+ +&&&&&&&&&&&&&&+ +&&&&&&&&&&&&&&+ ++============== ==============++  +++++++++++++++++++++++++                                                 ++++ ++++ ++++ ++++ ++++ ++++ ++++ ++++ ++++ ++++.++++.++++.++++.++++.++++.++++.++++ ++++ ++++ ++++ ++++ ++++                                             ",
" +==============+ +==============+ +===--====--===+ +===--====--===+ +==============+ +==============+ +==============+ +==============+ +''''''''''''''' '''''''''''''''+  +++++++++++++++++++++++++    +;;;;;;;;;;;;;;+ +;;;;;;;;;;;;;;+ +;;;@@;;;;@@;;;+ +;;;@@;;;;@@;;;+ +;;;;;;;;;;;;;;+ +;;;;;;;;;;;;;;+ +;;;;;;;;;;;;;;+ +;;;;;;;;;;;;;;+ +*************** ***************+  +++++++++++++++++++++++++    +==============+ +==============+ +===,,====,,===+ +===,,====,,===+ +==============+ +==============+ +==============+ +==============+ +;;;;;;;;;;;;;;; ;;;;;;;;;;;;;;;+  +++++++++++++++++++++++++    +&&&&&&&&&&&&&&+ +&&&&&&&&&&&&&&+ +&&&++&&&&++&&&+ +&&&++&&&&++&&&+ +&&&&&&&&&&&&&&+ +&&&&&&&&&&&&&&+ +&&&&&&&&&&&&&&+ +&&&&&&&&&&&&&&+ +=============== ===============+  +++++++++++++++++++++++++                                                 ++++ ++++ ++++ ++++ ++++ ++++ ++++ ++++ ++++ ++++.++++.++++.++++.++++.++++.++++.++++ ++++ ++++ ++++ ++++ ++++                                             ",
" +==============+ +==============+ +==============+ +==============+ +==============+ +==============+ +==============+ +==============+ +''''''''''''''' '''''''''''''''+  +++++++++++++++++++++++++    +;;;;;;;;;;;;;;+ +;;;;;;;;;;;;;;+ +;;;;;;;;;;;;;;+ +;;;;;;;;;;;;;;+ +;;;;;;;;;;;;;;+ +;;;;;;;;;;;;;;+ +;;;;;;;;;;;;;;+ +;;;;;;;;;;;;;;+ +*************** ***************+  +++++++++++++++++++++++++    +==============+ +==============+ +==============+ +==============+ +==============+ +==============+ +==============+ +==============+ +;;;;;;;;;;;;;;; ;;;;;;;;;;;;;;;+  +++++++++++++++++++++++++    +&&&&&&&&&&&&&&+ +&&&&&&&&&&&&&&+ +&&&&&&&&&&&&&&+ +&&&&&&&&&&&&&&+ +&&&&&&&&&&&&&&+ +&&&&&&&&&&&&&&+ +&&&&&&&&&&&&&&+ +&&&&&&&&&&&&&&+ +=============== ===============+  +++++++++++++++++++++++++                                             ++  ++++ ++++ ++++ ++++ ++++ ++++ ++++ ++++ ++++ ++++.++++.++++.++++.++++.++++.++++.++++ ++++ ++++ ++++ ++++ ++++                                             ",
" +==============+ +==============+ +==============+ +==============+ +==============+ +==============+ +==============+ +==============+ +''''''''''''''' '''''''''''''''+  +++++++++++++++++++++++++    +;;;;;;;;;;;;;;+ +;;;;;;;;;;;;;;+ +;;;;;;;;;;;;;;+ +;;;;;;;;;;;;;;+ +;;;;;;;;;;;;;;+ +;;;;;;;;;;;;;;+ +;;;;;;;;;;;;;;+ +;;;;;;;;;;;;;;+ +*************** ***************+  +++++++++++++++++++++++++    +==============+ +==============+ +==============+ +==============+ +==============+ +==============+ +==============+ +==============+ +;;;;;;;;;;;;;;; ;;;;;;;;;;;;;;;+  +++++++++++++++++++++++++    +&&&&&&&&&&&&&&+ +&&&&&&&&&&&&&&+ +&&&&&&&&&&&&&&+ +&&&&&&&&&&&&&&+ +&&&&&&&&&&&&&&+ +&&&&&&&&&&&&&&+ +&&&&&&&&&&&&&&+ +&&&&&&&&&&&&&&+ +=============== ===============+  +++++++++++++++++++++++++                                          + ++++                                                  ...............................                                                                          ",
" +==============+ +==============+ +==============+ +==============+ +==============+ +==============+ +==============+ +==============+ '''''''''''''''' ''''''''''''''''  +++++++++++++++++++++++++    +;;;;;;;;;;;;;;+ +;;;;;;;;;;;;;;+ +;;;;;;;;;;;;;;+ +;;;;;;;;;;;;;;+ +;;;;;;;;;;;;;;+ +;;;;;;;;;;;;;;+ +;;;;;;;;;;;;;;+ +;;;;;;;;;;;;;;+ **************** ****************  +++++++++++++++++++++++++    +==============+ +==============+ +==============+ +==============+ +==============+ +==============+ +==============+ +==============+ ;;;;;;;;;;;;;;;; ;;;;;;;;;;;;;;;;  +++++++++++++++++++++++++    +&&&&&&&&&&&&&&+ +&&&&&&&&&&&&&&+ +&&&&&&&&&&&&&&+ +&&&&&&&&&&&&&&+ +&&&&&&&&&&&&&&+ +&&&&&&&&&&&&&&+ +&&&&&&&&&&&&&&+ +&&&&&&&&&&&&&&+ ================ ================  +++++++++++++++++++++++++                                         ++ +  + ++++ ++++ ++++ ++++ ++++ ++++ ++++ ++++ ++++ ++++ ++++ ++++ ++++ ++++ ++++ ++++ ++++ ++++ ++++ ++++ ++++ ++++                                             ",
" +==+===++===+==+ +====+====+====+ +==+===++===+==+ +====+====+====+ +==+===++===+==+ +====+====+====+ +==+===++===+==+ +====+====+====+ '''''''''''''''' ''''''''''''''''  +++++++++++++++++++++++++    +;;+;;;++;;;+;;+ +;;;;+;;;;+;;;;+ +;;+;;;++;;;+;;+ +;;;;+;;;;+;;;;+ +;;+;;;++;;;+;;+ +;;;;+;;;;+;;;;+ +;;+;;;++;;;+;;+ +;;;;+;;;;+;;;;+ **************** ****************  +++++++++++++++++++++++++    +==+===++===+==+ +====+====+====+ +==+===++===+==+ +====+====+====+ +==+===++===+==+ +====+====+====+ +==+===++===+==+ +====+====+====+ ;;;;;;;;;;;;;;;; ;;;;;;;;;;;;;;;;  +++++++++++++++++++++++++    +&&+&&&++&&&+&&+ +&&&&+&&&&+&&&&+ +&&+&&&++&&&+&&+ +&&&&+&&&&+&&&&+ +&&+&&&++&&&+&&+ +&&&&+&&&&+&&&&+ +&&+&&&++&&&+&&+ +&&&&+&&&&+&&&&+ ================ ================  +++++++++++++++++++++++++                                         +  +  + ++++ ++++ ++++ ++++ ++++ ++++ ++++ ++++ ++++ ++++ ++++ ++++ ++++ ++++ ++++ ++++ ++++ ++++ ++++ ++++ ++++ ++++                                             ",
" +=+++==++==+++=+ ++==+++==+++==++ +=+++==++==+++=+ ++==+++==+++==++ +=+++==++==+++=+ ++==+++==+++==++ +=+++==++==+++=+ ++==+++==+++==++ '''''''''''''''' ''''''''''''''''  +++++++++++++++++++++++++    +;+++;;++;;+++;+ ++;;+++;;+++;;++ +;+++;;++;;+++;+ ++;;+++;;+++;;++ +;+++;;++;;+++;+ ++;;+++;;+++;;++ +;+++;;++;;+++;+ ++;;+++;;+++;;++ **************** ****************  +++++++++++++++++++++++++    +=+++==++==+++=+ ++==+++==+++==++ +=+++==++==+++=+ ++==+++==+++==++ +=+++==++==+++=+ ++==+++==+++==++ +=+++==++==+++=+ ++==+++==+++==++ ;;;;;;;;;;;;;;;; ;;;;;;;;;;;;;;;;  +++++++++++++++++++++++++    +&+++&&++&&+++&+ ++&&+++&&+++&&++ +&+++&&++&&+++&+ ++&&+++&&+++&&++ +&+++&&++&&+++&+ ++&&+++&&+++&&++ +&+++&&++&&+++&+ ++&&+++&&+++&&++ ================ ================  +++++++++++++++++++++++++                                         +  +  + ++++ ++++ ++++ ++++ ++++ ++++ ++++ ++++ ++++ ++++ ++++ ++++ ++++ ++++ ++++ ++++ ++++ ++++ ++++ ++++ ++++ ++++                                             ",
" ++++++++++++++++ ++++++++++++++++ ++++++++++++++++ ++++++++++++++++ ++++++++++++++++ ++++++++++++++++ ++++++++++++++++ ++++++++++++++++ '''''''''''''''' ''''''''''''''''  +++++++++++++++++++++++++    ++++++++++++++++ ++++++++++++++++ ++++++++++++++++ ++++++++++++++++ ++++++++++++++++ ++++++++++++++++ ++++++++++++++++ ++++++++++++++++ **************** ****************  +++++++++++++++++++++++++    ++++++++++++++++ ++++++++++++++++ ++++++++++++++++ ++++++++++++++++ ++++++++++++++++ ++++++++++++++++ ++++++++++++++++ ++++++++++++++++ ;;;;;;;;;;;;;;;; ;;;;;;;;;;;;;;;;  +++++++++++++++++++++++++    ++++++++++++++++ ++++++++++++++++ ++++++++++++++++ ++++++++++++++++ ++++++++++++++++ ++++++++++++++++ ++++++++++++++++ ++++++++++++++++ ================ ================  +++++++++++++++++++++++++                                         ++++ ++ ++++ ++++ ++++ ++++ ++++ ++++ ++++ ++++ ++++ ++++ ++++ ++++ ++++ ++++ ++++ ++++ ++++ ++++ ++++ ++++ ++++ ++++                                             ",
"                                                                                                                                                                            +++++++++++++++++++++++++                                                                                                                                                                               +++++++++++++++++++++++++                                                                                                                                                                               +++++++++++++++++++++++++                                                                                                                                                                               +++++++++++++++++++++++++                                          ++  +                                                                            ......                                                                          ",
" ++++++++++++++++ ++++++++++++++++ ++++++++++++++++ ++++++++++++++++ ++++++++++++++++ ++++++++++++++++ ++++++++++++++++ ++++++++++++++++ '''''''''''''''' ''''''''''''''''  +++++++++++++++++++++++++    ++++++++++++++++ ++++++++++++++++ ++++++++++++++++ ++++++++++++++++ ++++++++++++++++ ++++++++++++++++ ++++++++++++++++ ++++++++++++++++ **************** ****************  +++++++++++++++++++++++++    ++++++++++++++++ ++++++++++++++++ ++++++++++++++++ ++++++++++++++++ ++++++++++++++++ ++++++++++++++++ ++++++++++++++++ ++++++++++++++++ ;;;;;;;;;;;;;;;; ;;;;;;;;;;;;;;;;  +++++++++++++++++++++++++    ++++++++++++++++ ++++++++++++++++ ++++++++++++++++ ++++++++++++++++ ++++++++++++++++ ++++++++++++++++ ++++++++++++++++ ++++++++++++++++ ================ ================  +++++++++++++++++++++++++                                                 ++++ ++++ ++++ ++++ ++++ ++++ ++++ ++++ ++++ ++++ ++++ ++++ ++++ ++++ ++++.++++.++++ ++++ ++++ ++++ ++++ ++++                                             ",
" ++++++====++++++ ++++++====++++++ ++++++====++++++ ++++++====++++++ ++++++++++++++++ ++++++++++++++++ ++++++++++++++++ ++++++++++++++++ '''''''''''''''' ''''''''''''''''  +++++++++++++++++++++++++    ++++++;;;;++++++ ++++++;;;;++++++ ++++++;;;;++++++ ++++++;;;;++++++ ++++++++++++++++ ++++++++++++++++ ++++++++++++++++ ++++++++++++++++ **************** ****************  +++++++++++++++++++++++++    ++++++====++++++ ++++++====++++++ ++++++====++++++ ++++++====++++++ ++++++++++++++++ ++++++++++++++++ ++++++++++++++++ ++++++++++++++++ ;;;;;;;;;;;;;;;; ;;;;;;;;;;;;;;;;  +++++++++++++++++++++++++    ++++++&&&&++++++ ++++++&&&&++++++ ++++++&&&&++++++ ++++++&&&&++++++ ++++++++++++++++ ++++++++++++++++ ++++++++++++++++ ++++++++++++++++ ================ ================  +++++++++++++++++++++++++                                         +     + ++++ ++++ ++++ ++++ ++++ ++++ ++++ ++++ ++++ ++++ ++++ ++++ ++++ ++++ ++++.++++.++++ ++++ ++++ ++++ ++++ ++++                                             ",
" ++++++====++++++ ++++========++++ ++++========++++ ++++========++++ ++++++++++++++++ ++++++++++++++++ ++++++++++++++++ ++++++++++++++++ '''''''''''''''' ''''''''''''''''  +++++++++++++++++++++++++    ++++++;;;;++++++ ++++;;;;;;;;++++ ++++;;;;;;;;++++ ++++;;;;;;;;++++ ++++++++++++++++ ++++++++++++++++ ++++++++++++++++ ++++++++++++++++ **************** ****************  +++++++++++++++++++++++++    ++++++====++++++ ++++========++++ ++++========++++ ++++========++++ ++++++++++++++++ ++++++++++++++++ ++++++++++++++++ ++++++++++++++++ ;;;;;;;;;;;;;;;; ;;;;;;;;;;;;;;;;  +++++++++++++++++++++++++    ++++++&&&&++++++ ++++&&&&&&&&++++ ++++&&&&&&&&++++ ++++&&&&&&&&++++ ++++++++++++++++ ++++++++++++++++ ++++++++++++++++ ++++++++++++++++ ================ ================  +++++++++++++++++++++++++                                         +  +  + ++++ ++++ ++++ ++++ ++++ ++++ ++++ ++++ ++++ ++++ ++++ ++++ ++++ ++++ ++++.++++.++++ ++++ ++++ ++++ ++++ ++++                                             ",
" +++'++'=='++'+++ +++=''====''=+++ +++==========+++ +++==========+++ ++++++++++++++++ ++++++++++++++++ ++++++++++++++++ ++++++++++++++++ '''''''''''''''' ''''''''''''''''  +++++++++++++++++++++++++    +++*++*;;*++*+++ +++;**;;;;**;+++ +++;;;;;;;;;;+++ +++;;;;;;;;;;+++ ++++++++++++++++ ++++++++++++++++ ++++++++++++++++ ++++++++++++++++ **************** ****************  +++++++++++++++++++++++++    +++;++;==;++;+++ +++=;;====;;=+++ +++==========+++ +++==========+++ ++++++++++++++++ ++++++++++++++++ ++++++++++++++++ ++++++++++++++++ ;;;;;;;;;;;;;;;; ;;;;;;;;;;;;;;;;  +++++++++++++++++++++++++    +++=++=&&=++=+++ +++&==&&&&==&+++ +++&&&&&&&&&&+++ +++&&&&&&&&&&+++ ++++++++++++++++ ++++++++++++++++ ++++++++++++++++ ++++++++++++++++ ================ ================  +++++++++++++++++++++++++                                         +  +  + ++++ ++++ ++++ ++++ ++++ ++++ ++++ ++++ ++++ ++++ ++++ ++++ ++++ ++++ ++++.++++.++++ ++++ ++++ ++++ ++++ ++++                                             ",
" ++=''''==''''=++ ++=''''==''''=++ ++=''====''===++ ++=''====''===++ +++++++++''+''++ +++++++++''+''++ ++++++++++++++++ ++++++++++++++++ +''''''''''''''' '''''''''''''''+  +++++++++++++++++++++++++    ++;****;;****;++ ++;****;;****;++ ++;**;;;;**;;;++ ++;**;;;;**;;;++ +++++++++**+**++ +++++++++**+**++ ++++++++++++++++ ++++++++++++++++ +*************** ***************+  +++++++++++++++++++++++++    ++=;;;;==;;;;=++ ++=;;;;==;;;;=++ ++=;;====;;===++ ++=;;====;;===++ +++++++++;;+;;++ +++++++++;;+;;++ ++++++++++++++++ ++++++++++++++++ +;;;;;;;;;;;;;;; ;;;;;;;;;;;;;;;+  +++++++++++++++++++++++++    ++&====&&====&++ ++&====&&====&++ ++&==&&&&==&&&++ ++&==&&&&==&&&++ +++++++++==+==++ +++++++++==+==++ ++++++++++++++++ ++++++++++++++++ +=============== ===============+  +++++++++++++++++++++++++                                         +  +  +                                                                           ......                   ...........                                            ",
" ++=''''==''''=++ ++=''''==''''=++ ++''''==''''==++ ++''''==''''==++ ++++++++''--'--+ ++++++++''--'--+ ++++++++++++++++ ++++++++++++++++ +''''''''''''''' '''''''''''''''+  +++++++++++++++++++++++++    ++;****;;****;++ ++;****;;****;++ ++****;;****;;++ ++****;;****;;++ ++++++++**@@*@@+ ++++++++**@@*@@+ ++++++++++++++++ ++++++++++++++++ +*************** ***************+  +++++++++++++++++++++++++    ++=;;;;==;;;;=++ ++=;;;;==;;;;=++ ++;;;;==;;;;==++ ++;;;;==;;;;==++ ++++++++;;,,;,,+ ++++++++;;,,;,,+ ++++++++++++++++ ++++++++++++++++ +;;;;;;;;;;;;;;; ;;;;;;;;;;;;;;;+  +++++++++++++++++++++++++    ++&====&&====&++ ++&====&&====&++ ++====&&====&&++ ++====&&====&&++ ++++++++==++=+++ ++++++++==++=+++ ++++++++++++++++ ++++++++++++++++ +=============== ===============+  +++++++++++++++++++++++++                                         +++++++ ++++ ++++ ++++ ++++ ++++ ++++ ++++ ++++ ++++ ++++ ++++ ++++ ++++ ++++ ++++ ++++ ++++ ++++ ++++ ++++.++++.++++.                                            ",
" ++==''====''==++ ++=''++==''++=++ ++--''==--''==++ ++--''==--''==++ ++++++++''--'--+ ++++++++''--'--+ ++++++++++++++++ ++++++++++++++++ +''''''''''''''' '''''''''''''''+  +++++++++++++++++++++++++    ++;;**;;;;**;;++ ++;**++;;**++;++ ++@@**;;@@**;;++ ++@@**;;@@**;;++ ++++++++**@@*@@+ ++++++++**@@*@@+ ++++++++++++++++ ++++++++++++++++ +*************** ***************+  +++++++++++++++++++++++++    ++==;;====;;==++ ++=;;++==;;++=++ ++,,;;==,,;;==++ ++,,;;==,,;;==++ ++++++++;;,,;,,+ ++++++++;;,,;,,+ ++++++++++++++++ ++++++++++++++++ +;;;;;;;;;;;;;;; ;;;;;;;;;;;;;;;+  +++++++++++++++++++++++++    ++&&==&&&&==&&++ ++&==++&&==++&++ ++++==&&++==&&++ ++++==&&++==&&++ ++++++++==++=+++ ++++++++==++=+++ ++++++++++++++++ ++++++++++++++++ +=============== ===============+  +++++++++++++++++++++++++                                         +++++++ ++++ ++++ ++++ ++++ ++++ ++++ ++++ ++++ ++++ ++++ ++++ ++++ ++++ ++++ ++++ ++++ ++++ ++++ ++++ ++++.++++.++++.                                            ",
" +==============+ +==='+===='+===+ +=--''==--''===+ +=--''==--''===+ +++++++==''=''++ +++++++==''=''++ ++++++++++++++++ ++++++++++++++++ ++'''''''''''''' ''''''''''''''++  +++++++++++++++++++++++++    +;;;;;;;;;;;;;;+ +;;;*+;;;;*+;;;+ +;@@**;;@@**;;;+ +;@@**;;@@**;;;+ +++++++;;**;**++ +++++++;;**;**++ ++++++++++++++++ ++++++++++++++++ ++************** **************++  +++++++++++++++++++++++++    +==============+ +===;+====;+===+ +=,,;;==,,;;===+ +=,,;;==,,;;===+ +++++++==;;=;;++ +++++++==;;=;;++ ++++++++++++++++ ++++++++++++++++ ++;;;;;;;;;;;;;; ;;;;;;;;;;;;;;++  +++++++++++++++++++++++++    +&&&&&&&&&&&&&&+ +&&&=+&&&&=+&&&+ +&++==&&++==&&&+ +&++==&&++==&&&+ +++++++&&==&==++ +++++++&&==&==++ ++++++++++++++++ ++++++++++++++++ ++============== ==============++  +++++++++++++++++++++++++                                                 ++++ ++++ ++++ ++++ ++++ ++++ ++++ ++++ ++++ ++++ ++++ ++++ ++++ ++++ ++++ ++++ ++++ ++++ ++++ ++++.++++.++++.                                            ",
" +============-++ +============-++ +==''====''='='+ +==''====''='='+ +++++========+++ +++++++======+++ ++++++++++++++++ ++++++++++++++++ ++'''''''''''''' ''''''''''''''++  '''''''''''''''''''''''''    +;;;;;;;;;;;;@++ +;;;;;;;;;;;;@++ +;;**;;;;**;*;*+ +;;**;;;;**;*;*+ +++++;;;;;;;;+++ +++++++;;;;;;+++ ++++++++++++++++ ++++++++++++++++ ++************** **************++  *************************    +============,++ +============,++ +==;;====;;=;=;+ +==;;====;;=;=;+ +++++========+++ +++++++======+++ ++++++++++++++++ ++++++++++++++++ ++;;;;;;;;;;;;;; ;;;;;;;;;;;;;;++  ;;;;;;;;;;;;;;;;;;;;;;;;;    +&&&&&&&&&&&&+++ +&&&&&&&&&&&&+++ +&&==&&&&==&=&=+ +&&==&&&&==&=&=+ +++++&&&&&&&&+++ +++++++&&&&&&+++ ++++++++++++++++ ++++++++++++++++ ++============== ==============++  =========================                                                 ++++ ++++ ++++ ++++ ++++ ++++ ++++ ++++ ++++ ++++ ++++ ++++ ++++ ++++ ++++ ++++ ++++ ++++ ++++ ++++.++++.++++.                                            ",
" +===========--++ +===========--++ +=========='='=+ +=========='='=+ ++++========++++ ++++++=======+++ ++++++++++++++++ ++++++++++++++++ +++''''''''''''' '''''''''''''+++  '''''''''''''''''''''''''    +;;;;;;;;;;;@@++ +;;;;;;;;;;;@@++ +;;;;;;;;;;*;*;+ +;;;;;;;;;;*;*;+ ++++;;;;;;;;++++ ++++++;;;;;;;+++ ++++++++++++++++ ++++++++++++++++ +++************* *************+++  *************************    +===========,,++ +===========,,++ +==========;=;=+ +==========;=;=+ ++++========++++ ++++++=======+++ ++++++++++++++++ ++++++++++++++++ +++;;;;;;;;;;;;; ;;;;;;;;;;;;;+++  ;;;;;;;;;;;;;;;;;;;;;;;;;    +&&&&&&&&&&&++++ +&&&&&&&&&&&++++ +&&&&&&&&&&=&=&+ +&&&&&&&&&&=&=&+ ++++&&&&&&&&++++ ++++++&&&&&&&+++ ++++++++++++++++ ++++++++++++++++ +++============= =============+++  =========================                                               +                                                                                                    ...........                                            ",
" +==========---++ +==========---++ +========='====+ +========='====+ +++=========++++ +++++========+++ ++++++++++++++++ ++++++++++++++++ ++++'''''''''''' ''''''''''''++++  '''''''''''''''''''''''''    +;;;;;;;;;;@@@++ +;;;;;;;;;;@@@++ +;;;;;;;;;*;;;;+ +;;;;;;;;;*;;;;+ +++;;;;;;;;;++++ +++++;;;;;;;;+++ ++++++++++++++++ ++++++++++++++++ ++++************ ************++++  *************************    +==========,,,++ +==========,,,++ +=========;====+ +=========;====+ +++=========++++ +++++========+++ ++++++++++++++++ ++++++++++++++++ ++++;;;;;;;;;;;; ;;;;;;;;;;;;++++  ;;;;;;;;;;;;;;;;;;;;;;;;;    +&&&&&&&&&&+++++ +&&&&&&&&&&+++++ +&&&&&&&&&=&&&&+ +&&&&&&&&&=&&&&+ +++&&&&&&&&&++++ +++++&&&&&&&&+++ ++++++++++++++++ ++++++++++++++++ ++++============ ============++++  =========================                                               + ++++ ++++ ++++ ++++ ++++ ++++ ++++ ++++ ++++ ++++ ++++ ++++ ++++ ++++ ++++ ++++ ++++ ++++ ++++ ++++.++++.++++.                                            ",
" +===========--++ +===========--++ +=========='===+ +=========='===+ +++========+++++ +++++========+++ +++++++++===++++ ++++++++++++++++ +++++''''''''''' '''''''''''+++++  '''''''''''''''''''''''''    +;;;;;;;;;;;@@++ +;;;;;;;;;;;@@++ +;;;;;;;;;;*;;;+ +;;;;;;;;;;*;;;+ +++;;;;;;;;+++++ +++++;;;;;;;;+++ +++++++++;;;++++ ++++++++++++++++ +++++*********** ***********+++++  *************************    +===========,,++ +===========,,++ +==========;===+ +==========;===+ +++========+++++ +++++========+++ +++++++++===++++ ++++++++++++++++ +++++;;;;;;;;;;; ;;;;;;;;;;;+++++  ;;;;;;;;;;;;;;;;;;;;;;;;;    +&&&&&&&&&&&++++ +&&&&&&&&&&&++++ +&&&&&&&&&&=&&&+ +&&&&&&&&&&=&&&+ +++&&&&&&&&+++++ +++++&&&&&&&&+++ +++++++++&&&++++ ++++++++++++++++ +++++=========== ===========+++++  =========================                                               + ++++ ++++ ++++ ++++ ++++ ++++ ++++ ++++ ++++ ++++ ++++ ++++ ++++ ++++ ++++ ++++ ++++ ++++ ++++ ++++.++++.++++.                                            ",
" +==========--+++ +==========--+++ +========='====+ +========='====+ ++===========+++ +++============+ ++===++======+++ ++==++++++====++ ++++++'''''''''' ''''''''''++++++  '''''''''''''''''''''''''    +;;;;;;;;;;@@+++ +;;;;;;;;;;@@+++ +;;;;;;;;;*;;;;+ +;;;;;;;;;*;;;;+ ++;;;;;;;;;;;+++ +++;;;;;;;;;;;;+ ++;;;++;;;;;;+++ ++;;++++++;;;;++ ++++++********** **********++++++  *************************    +==========,,+++ +==========,,+++ +=========;====+ +=========;====+ ++===========+++ +++============+ ++===++======+++ ++==++++++====++ ++++++;;;;;;;;;; ;;;;;;;;;;++++++  ;;;;;;;;;;;;;;;;;;;;;;;;;    +&&&&&&&&&&+++++ +&&&&&&&&&&+++++ +&&&&&&&&&=&&&&+ +&&&&&&&&&=&&&&+ ++&&&&&&&&&&&+++ +++&&&&&&&&&&&&+ ++&&&++&&&&&&+++ ++&&++++++&&&&++ ++++++========== ==========++++++  =========================                                               + ++++ ++++ ++++ ++++ ++++ ++++ ++++ ++++ ++++ ++++ ++++ ++++ ++++ ++++ ++++ ++++ ++++ ++++ ++++ ++++.++++.++++.                                            ",
" +==+===++=-----+ +==+===++=-----+ +==+===++=='+==+ +====+====+'===+ ++===========+++ +++============+ +=============++ +==============+ +++++++''''''''' '''''''''+++++++  '''''''''''''''''''''''''    +;;+;;;++;@@@@@+ +;;+;;;++;@@@@@+ +;;+;;;++;;*+;;+ +;;;;+;;;;+*;;;+ ++;;;;;;;;;;;+++ +++;;;;;;;;;;;;+ +;;;;;;;;;;;;;++ +;;;;;;;;;;;;;;+ +++++++********* *********+++++++  *************************    +==+===++=,,,,,+ +==+===++=,,,,,+ +==+===++==;+==+ +====+====+;===+ ++===========+++ +++============+ +=============++ +==============+ +++++++;;;;;;;;; ;;;;;;;;;+++++++  ;;;;;;;;;;;;;;;;;;;;;;;;;    +&&+&&&++&++++++ +&&+&&&++&++++++ +&&+&&&++&&=+&&+ +&&&&+&&&&+=&&&+ ++&&&&&&&&&&&+++ +++&&&&&&&&&&&&+ +&&&&&&&&&&&&&++ +&&&&&&&&&&&&&&+ +++++++========= =========+++++++  =========================                                               + ++++ ++++ ++++ ++++ ++++ ++++ ++++ ++++ ++++ ++++ ++++ ++++ ++++ ++++ ++++ ++++ ++++ ++++ ++++ ++++.++++.++++.                                            ",
" +=+++==+++-----+ +=+++==+++-----+ +=+++==++='+++=+ ++==+++==+++==++ ++===+++++===+++ +++===++++++===+ =============+++ ==============++ +++++++++''''''' '''''''+++++++++  '''''''''''''''''''''''''    +;+++;;+++@@@@@+ +;+++;;+++@@@@@+ +;+++;;++;*+++;+ ++;;+++;;+++;;++ ++;;;+++++;;;+++ +++;;;++++++;;;+ ;;;;;;;;;;;;;+++ ;;;;;;;;;;;;;;++ +++++++++******* *******+++++++++  *************************    +=+++==+++,,,,,+ +=+++==+++,,,,,+ +=+++==++=;+++=+ ++==+++==+++==++ ++===+++++===+++ +++===++++++===+ =============+++ ==============++ +++++++++;;;;;;; ;;;;;;;+++++++++  ;;;;;;;;;;;;;;;;;;;;;;;;;    +&+++&&+++++++++ +&+++&&+++++++++ +&+++&&++&=+++&+ ++&&+++&&+++&&++ ++&&&+++++&&&+++ +++&&&++++++&&&+ &&&&&&&&&&&&&+++ &&&&&&&&&&&&&&++ +++++++++======= =======+++++++++  =========================                                         +++++++                                                                                                    ...........                                            ",
" ++++++++++++++++ ++++++++++++++++ ++++++++++++++++ ++++++++++++++++ ++++++++++++++++ ++++++++++++++++ ++++++++++++++++ ++++++++++++++++ ++++++++++++'''' ''''++++++++++++  '''''''''''''''''''''''''    ++++++++++++++++ ++++++++++++++++ ++++++++++++++++ ++++++++++++++++ ++++++++++++++++ ++++++++++++++++ ++++++++++++++++ ++++++++++++++++ ++++++++++++**** ****++++++++++++  *************************    ++++++++++++++++ ++++++++++++++++ ++++++++++++++++ ++++++++++++++++ ++++++++++++++++ ++++++++++++++++ ++++++++++++++++ ++++++++++++++++ ++++++++++++;;;; ;;;;++++++++++++  ;;;;;;;;;;;;;;;;;;;;;;;;;    ++++++++++++++++ ++++++++++++++++ ++++++++++++++++ ++++++++++++++++ ++++++++++++++++ ++++++++++++++++ ++++++++++++++++ ++++++++++++++++ ++++++++++++==== ====++++++++++++  =========================                                         +++++++ ++++ ++++ ++++ ++++ ++++ ++++ ++++ ++++ ++++ ++++ ++++ ++++ ++++ ++++ ++++ ++++ ++++ ++++ ++++ ++++.++++.++++.                                            ",
"                                                                                                                                                                            '''''''''''''''''''''''''                                                                                                                                                                               *************************                                                                                                                                                                               ;;;;;;;;;;;;;;;;;;;;;;;;;                                                                                                                                                                               =========================                                                 ++++ ++++ ++++ ++++ ++++ ++++ ++++ ++++ ++++ ++++ ++++ ++++ ++++ ++++ ++++ ++++ ++++ ++++ ++++ ++++.++++.++++.                                            ",
" ++++++++++++++++ ++++++++++++++++ ++++++++++++++++ ++++++++++++++++ ++++++++++++++++ ++++++++++++++++ ++++++++++++++++ ++++++++++++++++ ++++++++++++'''' ''''++++++++++++  '''''''''''''''''''''''''    ++++++++++++++++ ++++++++++++++++ ++++++++++++++++ ++++++++++++++++ ++++++++++++++++ ++++++++++++++++ ++++++++++++++++ ++++++++++++++++ ++++++++++++**** ****++++++++++++  *************************    ++++++++++++++++ ++++++++++++++++ ++++++++++++++++ ++++++++++++++++ ++++++++++++++++ ++++++++++++++++ ++++++++++++++++ ++++++++++++++++ ++++++++++++;;;; ;;;;++++++++++++  ;;;;;;;;;;;;;;;;;;;;;;;;;    ++++++++++++++++ ++++++++++++++++ ++++++++++++++++ ++++++++++++++++ ++++++++++++++++ ++++++++++++++++ ++++++++++++++++ ++++++++++++++++ ++++++++++++==== ====++++++++++++  =========================                                         +     + ++++ ++++ ++++ ++++ ++++ ++++ ++++ ++++ ++++ ++++ ++++ ++++ ++++ ++++ ++++ ++++ ++++ ++++ ++++ ++++.++++.++++.                                            ",
" ++++++++++++++++ ++++++++++++++++ ++++++++++++++++ ++++++++++++++++ +++++'++++++++++ ++++++++++++++++ ++++++++++++++++ ++++++++++++++++ +++++++++''''''' '''''''+++++++++  '''''''''''''''''''''''''    ++++++++++++++++ ++++++++++++++++ ++++++++++++++++ ++++++++++++++++ +++++*++++++++++ ++++++++++++++++ ++++++++++++++++ ++++++++++++++++ +++++++++******* *******+++++++++  *************************    ++++++++++++++++ ++++++++++++++++ ++++++++++++++++ ++++++++++++++++ +++++;++++++++++ ++++++++++++++++ ++++++++++++++++ ++++++++++++++++ +++++++++;;;;;;; ;;;;;;;+++++++++  ;;;;;;;;;;;;;;;;;;;;;;;;;    ++++++++++++++++ ++++++++++++++++ ++++++++++++++++ ++++++++++++++++ +++++=++++++++++ ++++++++++++++++ ++++++++++++++++ ++++++++++++++++ +++++++++======= =======+++++++++  =========================                                         +     + ++++ ++++ ++++ ++++ ++++ ++++ ++++ ++++ ++++ ++++ ++++ ++++ ++++ ++++ ++++ ++++ ++++ ++++ ++++ ++++.++++.++++.                                            ",
" ++++++++++++--++ +++++++=++++++++ +++++++++--+++++ ++++++++-+++++++ ++++++'''''+++++ ++++++++++++++++ +++++++''+++++++ ++++++---+++++++ +++++++''''''''' '''''''''+++++++  '''''''''''''''''''''''''    ++++++++++++@@++ +++++++;++++++++ +++++++++@@+++++ ++++++++@+++++++ ++++++*****+++++ ++++++++++++++++ +++++++**+++++++ ++++++@@@+++++++ +++++++********* *********+++++++  *************************    ++++++++++++,,++ +++++++=++++++++ +++++++++,,+++++ ++++++++,+++++++ ++++++;;;;;+++++ ++++++++++++++++ +++++++;;+++++++ ++++++,,,+++++++ +++++++;;;;;;;;; ;;;;;;;;;+++++++  ;;;;;;;;;;;;;;;;;;;;;;;;;    ++++++++++++++++ +++++++&++++++++ ++++++++++++++++ ++++++++++++++++ ++++++=====+++++ ++++++++++++++++ +++++++==+++++++ ++++++++++++++++ +++++++========= =========+++++++  =========================                                         +++++++                                                                                                    ...........                                            ",
" ++++++++++----++ ++++---=---+++++ +++++++=-----+++ +++'''+-+'''++++ ++++++++'+++++++ +++++++-++++++++ +++++''++''+++++ ++++--+++--+++++ ++++++'''''''''' ''''''''''++++++  '''''''''''''''''''''''''    ++++++++++@@@@++ ++++@@@;@@@+++++ +++++++;@@@@@+++ +++***+@+***++++ ++++++++*+++++++ +++++++@++++++++ +++++**++**+++++ ++++@@+++@@+++++ ++++++********** **********++++++  *************************    ++++++++++,,,,++ ++++,,,=,,,+++++ +++++++=,,,,,+++ +++;;;+,+;;;++++ ++++++++;+++++++ +++++++,++++++++ +++++;;++;;+++++ ++++,,+++,,+++++ ++++++;;;;;;;;;; ;;;;;;;;;;++++++  ;;;;;;;;;;;;;;;;;;;;;;;;;    ++++++++++++++++ +++++++&++++++++ +++++++&++++++++ +++===+++===++++ ++++++++=+++++++ ++++++++++++++++ +++++==++==+++++ ++++++++++++++++ ++++++========== ==========++++++  =========================                                         +++++++ ++++ ++++ ++++ ++++ ++++ ++++ ++++ ++++ ++++ ++++ ++++ ++++ ++++ ++++ ++++ ++++ ++++ ++++ ++++ ++++.++++.++++.                                            ",
" ++++++++--+-++++ +++''-----''++++ +++++++=+---++++ ++'''''-'''''+++ +++++++-=-++++++ ++'+++---+++'+++ ++++''''''''++++ ++++-------+++++ +++++''''''''''' '''''''''''+++++  '''''''''''''''''''''''''    ++++++++@@+@++++ +++**@@@@@**++++ +++++++;+@@@++++ ++*****@*****+++ +++++++@;@++++++ ++*+++@@@+++*+++ ++++********++++ ++++@@@@@@@+++++ +++++*********** ***********+++++  *************************    ++++++++,,+,++++ +++;;,,,,,;;++++ +++++++=+,,,++++ ++;;;;;,;;;;;+++ +++++++,=,++++++ ++;+++,,,+++;+++ ++++;;;;;;;;++++ ++++,,,,,,,+++++ +++++;;;;;;;;;;; ;;;;;;;;;;;+++++  ;;;;;;;;;;;;;;;;;;;;;;;;;    ++++++++++++++++ +++==+++++==++++ +++++++&++++++++ ++=====+=====+++ ++++++++&+++++++ ++=+++++++++=+++ ++++========++++ ++++++++++++++++ +++++=========== ===========+++++  =========================                                         +     + ++++ ++++ ++++ ++++ ++++ ++++ ++++ ++++ ++++ ++++ ++++ ++++ ++++ ++++ ++++ ++++ ++++ ++++ ++++ ++++.++++.++++.                                            ",
" +++++++-+++-++++ ++'''''-'''='+++ ++++''==='''++++ ++''''''''''''++ +++++---'---++++ ++'++-----++'+++ ++++''+'''''++++ ++++-------+++++ ++++'''''''''''' ''''''''''''++++  '''''''''''''''''''''''''    +++++++@+++@++++ ++*****@***;*+++ ++++**;;;***++++ ++************++ +++++@@@*@@@++++ ++*++@@@@@++*+++ ++++**+*****++++ ++++@@@@@@@+++++ ++++************ ************++++  *************************    +++++++,+++,++++ ++;;;;;,;;;=;+++ ++++;;===;;;++++ ++;;;;;;;;;;;;++ +++++,,,;,,,++++ ++;++,,,,,++;+++ ++++;;+;;;;;++++ ++++,,,,,,,+++++ ++++;;;;;;;;;;;; ;;;;;;;;;;;;++++  ;;;;;;;;;;;;;;;;;;;;;;;;;    ++++++++++++++++ ++=====+===&=+++ ++++==&&&===++++ ++============++ ++++++++=+++++++ ++=+++++++++=+++ ++++==+=====++++ ++++++++++++++++ ++++============ ============++++  =========================                                         +     + ++++ ++++ ++++ ++++ ++++ ++++ ++++ ++++ ++++ ++++ ++++ ++++ ++++ ++++ ++++ ++++ ++++ ++++ ++++ ++++.++++.++++.                                            ",
" +++'''-+++-+++++ ++'='''''='''+++ +++''''='''''+++ ++''''''''''''++ ++++-'='---'-+++ ++'=--=-=--='+++ ++++'+''''''++++ ++++-------+++++ +++''''''''''''' '''''''''''''+++  '''''''''''''''''''''''''    +++***@+++@+++++ ++*;*****;***+++ +++****;*****+++ ++************++ ++++@*;*@@@*@+++ ++*;@@;@;@@;*+++ ++++*+******++++ ++++@@@@@@@+++++ +++************* *************+++  *************************    +++;;;,+++,+++++ ++;=;;;;;=;;;+++ +++;;;;=;;;;;+++ ++;;;;;;;;;;;;++ ++++,;=;,,,;,+++ ++;=,,=,=,,=;+++ ++++;+;;;;;;++++ ++++,,,,,,,+++++ +++;;;;;;;;;;;;; ;;;;;;;;;;;;;+++  ;;;;;;;;;;;;;;;;;;;;;;;;;    +++===++++++++++ ++=&=====&===+++ +++====&=====+++ ++============++ +++++=&=+++=++++ ++=&++&+&++&=+++ ++++=+======++++ ++++++++++++++++ +++============= =============+++  =========================                                                 ++++ ++++ ++++ ++++ ++++ ++++ ++++ ++++ ++++ ++++ ++++ ++++ ++++ ++++ ++++ ++++ ++++ ++++ ++++ ++++.++++.++++.                                            ",
" ++'''-''+-++++++ ++'''='='''''+++ ++''''''''''''++ ++''''''''''''++ ++++--'--='--+++ ++'====-===='+++ +++''+'''''''+++ ++++++=+=+++++++ ++'''''''''''''' ''''''''''''''++  '''''''''''''''''''''''''    ++***@**+@++++++ ++***;*;*****+++ ++************++ ++************++ ++++@@*@@;*@@+++ ++*;;;;@;;;;*+++ +++**+*******+++ ++++++;+;+++++++ ++************** **************++  *************************    ++;;;,;;+,++++++ ++;;;=;=;;;;;+++ ++;;;;;;;;;;;;++ ++;;;;;;;;;;;;++ ++++,,;,,=;,,+++ ++;====,====;+++ +++;;+;;;;;;;+++ ++++++=+=+++++++ ++;;;;;;;;;;;;;; ;;;;;;;;;;;;;;++  ;;;;;;;;;;;;;;;;;;;;;;;;;    ++===+==++++++++ ++===&=&=====+++ ++============++ ++============++ ++++++=++&=+++++ ++=&&&&+&&&&=+++ +++==+=======+++ ++++++&+&+++++++ ++============== ==============++  =========================                                                                                                                                                    ...........                                            ",
" ++'''''+'-''++++ ++''''''''=''+++ ++''''''''''''++ ++'''''''''=''++ +++-='---'-'--++ ++''=======''+++ +++''+'''''''+++ ++++++=+==++++++ ++'''''''''''''' ''''''''''''''++  '''''''''''''''''''''''''    ++*****+*@**++++ ++********;**+++ ++************++ ++*********;**++ +++@;*@@@*@*@@++ ++**;;;;;;;**+++ +++**+*******+++ ++++++;+;;++++++ ++************** **************++  *************************    ++;;;;;+;,;;++++ ++;;;;;;;;=;;+++ ++;;;;;;;;;;;;++ ++;;;;;;;;;=;;++ +++,=;,,,;,;,,++ ++;;=======;;+++ +++;;+;;;;;;;+++ ++++++=+==++++++ ++;;;;;;;;;;;;;; ;;;;;;;;;;;;;;++  ;;;;;;;;;;;;;;;;;;;;;;;;;    ++=====+=+==++++ ++========&==+++ ++============++ ++=========&==++ ++++&=+++=+=++++ ++==&&&&&&&==+++ +++==+=======+++ ++++++&+&&++++++ ++============== ==============++  =========================                                         +       ++++ ++++ ++++ ++++ ++++ ++++ ++++ ++++ ++++ ++++ ++++ ++++ ++++ ++++ ++++ ++++ ++++ ++++ ++++ ++++ ++++ ++++                                             ",
" ++'=''+''-'''+++ +++'=''=''''++++ ++''''''''''''++ ++'''''''''=''++ +++-'--='--='-++ +++''=+=+=''++++ +++''''''''''+++ ++++++=+=+++++++ +''''''''''''''' ''''''''''''++++  '''''''''''''''''''''''''    ++*;**+**@***+++ +++*;**;****++++ ++************++ ++*********;**++ +++@*@@;*@@;*@++ +++**;+;+;**++++ +++**********+++ ++++++;+;+++++++ +*************** ************++++  *************************    ++;=;;+;;,;;;+++ +++;=;;=;;;;++++ ++;;;;;;;;;;;;++ ++;;;;;;;;;=;;++ +++,;,,=;,,=;,++ +++;;=+=+=;;++++ +++;;;;;;;;;;+++ ++++++=+=+++++++ +;;;;;;;;;;;;;;; ;;;;;;;;;;;;++++  ;;;;;;;;;;;;;;;;;;;;;;;;;    ++=&==+==+===+++ +++=&==&====++++ ++============++ ++=========&==++ ++++=++&=++&=+++ +++==&+&+&==++++ +++==========+++ ++++++&+&+++++++ +=============== ============++++  =========================                                         +       ++++ ++++ ++++ ++++ ++++ ++++ ++++ ++++ ++++ ++++ ++++ ++++ ++++ ++++ ++++ ++++ ++++ ++++ ++++ ++++ ++++ ++++                                             ",
" ++''='+''''''+++ +++'''''''''++++ ++''''''''''''++ +++'''''''=''+++ +++-='---'----++ ++++''+=+''+++++ ++''+'''''''''++ ++++++=+++++++++ +''''''''''''''' ''''''''''++++++  '''''''''''''''''''''''''    ++**;*+******+++ +++*********++++ ++************++ +++*******;**+++ +++@;*@@@*@@@@++ ++++**+;+**+++++ ++**+*********++ ++++++;+++++++++ +*************** **********++++++  *************************    ++;;=;+;;;;;;+++ +++;;;;;;;;;++++ ++;;;;;;;;;;;;++ +++;;;;;;;=;;+++ +++,=;,,,;,,,,++ ++++;;+=+;;+++++ ++;;+;;;;;;;;;++ ++++++=+++++++++ +;;;;;;;;;;;;;;; ;;;;;;;;;;++++++  ;;;;;;;;;;;;;;;;;;;;;;;;;    ++==&=+======+++ +++=========++++ ++============++ +++=======&==+++ ++++&=+++=++++++ ++++==+&+==+++++ ++==+=========++ ++++++&+++++++++ +=============== ==========++++++  =========================                                         +++++++ ++++ ++++ ++++ ++++ ++++ ++++ ++++ ++++ ++++ ++++ ++++ ++++ ++++ ++++ ++++ ++++ ++++ ++++ ++++ ++++ ++++ ++++                                             ",
" +++'''+'=''''+++ ++++''=''=++++++ +++''''''''''+++ +++''''''''''+++ ++++--'='='--+++ +++++'+=+'++++++ ++''+'''''''''++ ++++++=+=+++++++ +''''''''''''''' ''''''''++++++++  '''''''''''''''''''''''''    +++***+*;****+++ ++++**;**;++++++ +++**********+++ +++**********+++ ++++@@*;*;*@@+++ +++++*+;+*++++++ ++**+*********++ ++++++;+;+++++++ +*************** ********++++++++  *************************    +++;;;+;=;;;;+++ ++++;;=;;=++++++ +++;;;;;;;;;;+++ +++;;;;;;;;;;+++ ++++,,;=;=;,,+++ +++++;+=+;++++++ ++;;+;;;;;;;;;++ ++++++=+=+++++++ +;;;;;;;;;;;;;;; ;;;;;;;;++++++++  ;;;;;;;;;;;;;;;;;;;;;;;;;    +++===+=&====+++ ++++==&==&++++++ +++==========+++ +++==========+++ ++++++=&=&=+++++ +++++=+&+=++++++ ++==+=========++ ++++++&+&+++++++ +=============== ========++++++++  =========================                                         +++++++ ++++ ++++ ++++ ++++ ++++ ++++ ++++ ++++ ++++ ++++ ++++ ++++ ++++ ++++ ++++ ++++ ++++ ++++ ++++ ++++ ++++ ++++                                             ",
" +++++++''='''+++ +++++'''''++++++ +++''''''''''+++ ++++''''''''++++ ++++---'---'-+++ +++++++=++++++++ ++''''''''''''++ ++++++=+==++++++ '''''''''''''''' '''''+++++++++++  '''''''''''''''''''''''''    +++++++**;***+++ +++++*****++++++ +++**********+++ ++++********++++ ++++@@@*@@@*@+++ +++++++;++++++++ ++************++ ++++++;+;;++++++ **************** *****+++++++++++  *************************    +++++++;;=;;;+++ +++++;;;;;++++++ +++;;;;;;;;;;+++ ++++;;;;;;;;++++ ++++,,,;,,,;,+++ +++++++=++++++++ ++;;;;;;;;;;;;++ ++++++=+==++++++ ;;;;;;;;;;;;;;;; ;;;;;+++++++++++  ;;;;;;;;;;;;;;;;;;;;;;;;;    +++++++==&===+++ +++++=====++++++ +++==========+++ ++++========++++ +++++++=+++=++++ +++++++&++++++++ ++============++ ++++++&+&&++++++ ================ =====+++++++++++  =========================                                         +                                                                                                                                                                 ",
" ++++++++''''++++ +++++++'++++++++ +++++''''''+++++ +++++''+'''+++++ +++++-'---'-++++ +++++++=++++++++ ++'-----==---'++ ++++++=+=+++++++ '''''''''''''''' ''++++++++++++++  '''''''''''''''''''''''''    ++++++++****++++ +++++++*++++++++ +++++******+++++ +++++**+***+++++ +++++@*@@@*@++++ +++++++;++++++++ ++*@@@@@;;@@@*++ ++++++;+;+++++++ **************** **++++++++++++++  *************************    ++++++++;;;;++++ +++++++;++++++++ +++++;;;;;;+++++ +++++;;+;;;+++++ +++++,;,,,;,++++ +++++++=++++++++ ++;,,,,,==,,,;++ ++++++=+=+++++++ ;;;;;;;;;;;;;;;; ;;++++++++++++++  ;;;;;;;;;;;;;;;;;;;;;;;;;    ++++++++====++++ +++++++=++++++++ +++++======+++++ +++++==+===+++++ ++++++=+++=+++++ +++++++&++++++++ ++=+++++&&+++=++ ++++++&+&+++++++ ================ ==++++++++++++++  =========================                                         +       ++++ ++++ ++++ ++++ ++++ ++++ ++++ ++++ ++++ ++++ ++++ ++++ ++++ ++++ ++++ ++++ ++++ ++++ ++++ ++++ ++++ ++++                                             ",
" ++++++++++++++++ ++++++++++++++++ ++++++++++++++++ ++++++++++++++++ +++++++--'++++++ ++++++++++++++++ +++-----==---+++ +++++++=++++++++ '''''''''''''''' ++++++++++++++++  '''''''''''''''''''''''''    ++++++++++++++++ ++++++++++++++++ ++++++++++++++++ ++++++++++++++++ +++++++@@*++++++ ++++++++++++++++ +++@@@@@;;@@@+++ +++++++;++++++++ **************** ++++++++++++++++  *************************    ++++++++++++++++ ++++++++++++++++ ++++++++++++++++ ++++++++++++++++ +++++++,,;++++++ ++++++++++++++++ +++,,,,,==,,,+++ +++++++=++++++++ ;;;;;;;;;;;;;;;; ++++++++++++++++  ;;;;;;;;;;;;;;;;;;;;;;;;;    ++++++++++++++++ ++++++++++++++++ ++++++++++++++++ ++++++++++++++++ +++++++++=++++++ ++++++++++++++++ ++++++++&&++++++ +++++++&++++++++ ================ ++++++++++++++++  =========================                                                 ++++ ++++ ++++ ++++ ++++ ++++ ++++ ++++ ++++ ++++ ++++ ++++ ++++ ++++ ++++ ++++ ++++ ++++ ++++ ++++ ++++ ++++                                             ",
" ++++++++++++++++ ++++++++++++++++ ++++++++++++++++ ++++++++++++++++ ++++++++++++++++ ++++++++++++++++ ++++++++++++++++ ++++++++++++++++ ''''''''''''''++ ++++++++++++++++  '''''''''''''''''''''''''    ++++++++++++++++ ++++++++++++++++ ++++++++++++++++ ++++++++++++++++ ++++++++++++++++ ++++++++++++++++ ++++++++++++++++ ++++++++++++++++ **************++ ++++++++++++++++  *************************    ++++++++++++++++ ++++++++++++++++ ++++++++++++++++ ++++++++++++++++ ++++++++++++++++ ++++++++++++++++ ++++++++++++++++ ++++++++++++++++ ;;;;;;;;;;;;;;++ ++++++++++++++++  ;;;;;;;;;;;;;;;;;;;;;;;;;    ++++++++++++++++ ++++++++++++++++ ++++++++++++++++ ++++++++++++++++ ++++++++++++++++ ++++++++++++++++ ++++++++++++++++ ++++++++++++++++ ==============++ ++++++++++++++++  =========================                                                 ++++ ++++ ++++ ++++ ++++ ++++ ++++ ++++ ++++ ++++ ++++ ++++ ++++ ++++ ++++ ++++ ++++ ++++ ++++ ++++ ++++ ++++                                             ",
"                                                                                                                                                                            -------------------------                                                                                                                                                                               @@@@@@@@@@@@@@@@@@@@@@@@@                                                                                                                                                                               ,,,,,,,,,,,,,,,,,,,,,,,,,                                                                                                                                                                               +++++++++++++++++++++++++                                                 ++++ ++++ ++++ ++++ ++++ ++++ ++++ ++++ ++++ ++++ ++++ ++++ ++++ ++++ ++++ ++++ ++++ ++++ ++++ ++++ ++++ ++++                                             ",
" ++++++++++++++++ ++++++++++++++++ ++++++++++++++++ ++++++++++++++++ ++++++++++++++++ ++++++++++++++++ ++++++++++++++++ ++++++++++++++++ ''''''''''''''++ ++++++++++++++++  -------------------------    ++++++++++++++++ ++++++++++++++++ ++++++++++++++++ ++++++++++++++++ ++++++++++++++++ ++++++++++++++++ ++++++++++++++++ ++++++++++++++++ **************++ ++++++++++++++++  @@@@@@@@@@@@@@@@@@@@@@@@@    ++++++++++++++++ ++++++++++++++++ ++++++++++++++++ ++++++++++++++++ ++++++++++++++++ ++++++++++++++++ ++++++++++++++++ ++++++++++++++++ ;;;;;;;;;;;;;;++ ++++++++++++++++  ,,,,,,,,,,,,,,,,,,,,,,,,,    ++++++++++++++++ ++++++++++++++++ ++++++++++++++++ ++++++++++++++++ ++++++++++++++++ ++++++++++++++++ ++++++++++++++++ ++++++++++++++++ ==============++ ++++++++++++++++  +++++++++++++++++++++++++                                                                                                                                                                                                           ",
" ++++++++++++++++ ++++++++++++++++ ++++++++++++++++ ++++++++++++++++ ++++++++++++++++ ++++++++++++++++ +++++=====++++++ +++++=====++++++ '''''''''''''''' ++++++++++++++++  -------------------------    ++++++++++++++++ ++++++++++++++++ ++++++++++++++++ ++++++++++++++++ ++++++++++++++++ ++++++++++++++++ +++++;;;;;++++++ +++++;;;;;++++++ **************** ++++++++++++++++  @@@@@@@@@@@@@@@@@@@@@@@@@    ++++++++++++++++ ++++++++++++++++ ++++++++++++++++ ++++++++++++++++ ++++++++++++++++ ++++++++++++++++ +++++=====++++++ +++++=====++++++ ;;;;;;;;;;;;;;;; ++++++++++++++++  ,,,,,,,,,,,,,,,,,,,,,,,,,    ++++++++++++++++ ++++++++++++++++ ++++++++++++++++ ++++++++++++++++ ++++++++++++++++ ++++++++++++++++ +++++&&&&&++++++ +++++&&&&&++++++ ================ ++++++++++++++++  +++++++++++++++++++++++++                                                                                                                                                               +++++++                                     ",
" ++++++++++++++++ ++++++++++++++++ ++++++++++++++++ ++++++++++++++++ ++++++++++++++++ ++++++++++++++++ +++=======++++++ +++=========++++ '''''''''''''''' ''++++++++++++++  -------------------------    ++++++++++++++++ ++++++++++++++++ ++++++++++++++++ ++++++++++++++++ ++++++++++++++++ ++++++++++++++++ +++;;;;;;;++++++ +++;;;;;;;;;++++ **************** **++++++++++++++  @@@@@@@@@@@@@@@@@@@@@@@@@    ++++++++++++++++ ++++++++++++++++ ++++++++++++++++ ++++++++++++++++ ++++++++++++++++ ++++++++++++++++ +++=======++++++ +++=========++++ ;;;;;;;;;;;;;;;; ;;++++++++++++++  ,,,,,,,,,,,,,,,,,,,,,,,,,    ++++++++++++++++ ++++++++++++++++ ++++++++++++++++ ++++++++++++++++ ++++++++++++++++ ++++++++++++++++ +++&&&&&&&++++++ +++&&&&&&&&&++++ ================ ==++++++++++++++  +++++++++++++++++++++++++                                                 ++++++++ ++++++++ ++++++++ ++++++++ ++++++++ ++++++++ ++++++++ ++++++++ ++++++++ ++++++++  +++++++++++++++++  +++++++                                     ",
" +==+++++++++==++ ++++++++++++++++ ++++++++++++++++ ++++++++++++++++ ++++++++++++++++ ++++++++++++++++ ++=======+++++++ ++===========+++ '''''''''''''''' '''''+++++++++++  -------------------------    +;;+++++++++;;++ ++++++++++++++++ ++++++++++++++++ ++++++++++++++++ ++++++++++++++++ ++++++++++++++++ ++;;;;;;;+++++++ ++;;;;;;;;;;;+++ **************** *****+++++++++++  @@@@@@@@@@@@@@@@@@@@@@@@@    +==+++++++++==++ ++++++++++++++++ ++++++++++++++++ ++++++++++++++++ ++++++++++++++++ ++++++++++++++++ ++=======+++++++ ++===========+++ ;;;;;;;;;;;;;;;; ;;;;;+++++++++++  ,,,,,,,,,,,,,,,,,,,,,,,,,    +&&+++++++++&&++ ++++++++++++++++ ++++++++++++++++ ++++++++++++++++ ++++++++++++++++ ++++++++++++++++ ++&&&&&&&+++++++ ++&&&&&&&&&&&+++ ================ =====+++++++++++  +++++++++++++++++++++++++                                                 ++++++++ ++++++++ ++++++++ ++++++++ ++++++++ ++++++++ ++++++++ ++++++++ ++++++++ ++++++++  +++++++++++++++++    +   +                                     ",
" +===+++++++===++ +=+++++++++++=++ ++++++++++++++++ ++++++++++++++++ ++++++++++++++++ ++++++++++++++++ ++======++++++++ ++===========+++ +''''''''''''''' ''''''''++++++++  -------------------------    +;;;+++++++;;;++ +;+++++++++++;++ ++++++++++++++++ ++++++++++++++++ ++++++++++++++++ ++++++++++++++++ ++;;;;;;++++++++ ++;;;;;;;;;;;+++ +*************** ********++++++++  @@@@@@@@@@@@@@@@@@@@@@@@@    +===+++++++===++ +=+++++++++++=++ ++++++++++++++++ ++++++++++++++++ ++++++++++++++++ ++++++++++++++++ ++======++++++++ ++===========+++ +;;;;;;;;;;;;;;; ;;;;;;;;++++++++  ,,,,,,,,,,,,,,,,,,,,,,,,,    +&&&+++++++&&&++ +&+++++++++++&++ ++++++++++++++++ ++++++++++++++++ ++++++++++++++++ ++++++++++++++++ ++&&&&&&++++++++ ++&&&&&&&&&&&+++ +=============== ========++++++++  +++++++++++++++++++++++++                                                 ++++++++ ++++++++ ++++++++ ++++++++ ++++++++ ++++++++ ++++++++ ++++++++ ++++++++ ++++++++  +++++++++++++++++    +   +                                     ",
" +====+++++====++ ====+++++++====+ ++++++++++++++++ ++++++++++++++++ ++++++++++++++++ ++++++++++++++++ +======+++++++++ +======+======++ +''''''''''''''' ''''''''''++++++  -------------------------    +;;;;+++++;;;;++ ;;;;+++++++;;;;+ ++++++++++++++++ ++++++++++++++++ ++++++++++++++++ ++++++++++++++++ +;;;;;;+++++++++ +;;;;;;+;;;;;;++ +*************** **********++++++  @@@@@@@@@@@@@@@@@@@@@@@@@    +====+++++====++ ====+++++++====+ ++++++++++++++++ ++++++++++++++++ ++++++++++++++++ ++++++++++++++++ +======+++++++++ +======+======++ +;;;;;;;;;;;;;;; ;;;;;;;;;;++++++  ,,,,,,,,,,,,,,,,,,,,,,,,,    +&&&&+++++&&&&++ &&&&+++++++&&&&+ ++++++++++++++++ ++++++++++++++++ ++++++++++++++++ ++++++++++++++++ +&&&&&&+++++++++ +&&&&&&+&&&&&&++ +=============== ==========++++++  +++++++++++++++++++++++++                                         +     + ++++++++ ++++++++ ++++++++ ++++++++ ++++++++ ++++++++ ++++++++ ++++++++ ++++++++ ++++++++  +++++++++++++++++    +   +                                     ",
" +=====+++=====++ =====+++++=====+ ===+++++++++===+ ++++++++++++++++ ++++++++++++++++ ++++++++++++++++ +=====++++++++++ +=====+++=====++ +''''''''''''''' ''''''''''''++++  -------------------------    +;;;;;+++;;;;;++ ;;;;;+++++;;;;;+ ;;;+++++++++;;;+ ++++++++++++++++ ++++++++++++++++ ++++++++++++++++ +;;;;;++++++++++ +;;;;;+++;;;;;++ +*************** ************++++  @@@@@@@@@@@@@@@@@@@@@@@@@    +=====+++=====++ =====+++++=====+ ===+++++++++===+ ++++++++++++++++ ++++++++++++++++ ++++++++++++++++ +=====++++++++++ +=====+++=====++ +;;;;;;;;;;;;;;; ;;;;;;;;;;;;++++  ,,,,,,,,,,,,,,,,,,,,,,,,,    +&&&&&+++&&&&&++ &&&&&+++++&&&&&+ &&&+++++++++&&&+ ++++++++++++++++ ++++++++++++++++ ++++++++++++++++ +&&&&&++++++++++ +&&&&&+++&&&&&++ +=============== ============++++  +++++++++++++++++++++++++                                         +  +  + ++++++++ ++++++++ ++++++++ ++++++++ ++++++++ ++++++++ ++++++++ ++++++++ ++++++++ ++++++++  +++++++++++++++++    +++++                                     ",
" +======+======++ =======+=======+ ======+++======+ ====+++++++====+ ++++++++++++++++ ++++++++++++++++ +====+++++++++++ +====+++++====++ ++'''''''''''''' ''''''''''''''++  -------------------------    +;;;;;;+;;;;;;++ ;;;;;;;+;;;;;;;+ ;;;;;;+++;;;;;;+ ;;;;+++++++;;;;+ ++++++++++++++++ ++++++++++++++++ +;;;;+++++++++++ +;;;;+++++;;;;++ ++************** **************++  @@@@@@@@@@@@@@@@@@@@@@@@@    +======+======++ =======+=======+ ======+++======+ ====+++++++====+ ++++++++++++++++ ++++++++++++++++ +====+++++++++++ +====+++++====++ ++;;;;;;;;;;;;;; ;;;;;;;;;;;;;;++  ,,,,,,,,,,,,,,,,,,,,,,,,,    +&&&&&&+&&&&&&++ &&&&&&&+&&&&&&&+ &&&&&&+++&&&&&&+ &&&&+++++++&&&&+ ++++++++++++++++ ++++++++++++++++ +&&&&+++++++++++ +&&&&+++++&&&&++ ++============== ==============++  +++++++++++++++++++++++++                                         +  +  + ++++++++ ++++++++ ++++++++ ++++++++ ++++++++ ++++++++ ++++++++ ++++++++ ++++++++ ++++++++  +++++++++++++++++     +++                                      ",
" ++===========+++ +=============++ ===============+ ===============+ ++++=======+++++ ++++++===+++++++ +=====++++++++++ +===+++++++===++ ++'''''''''''''' ''''''''''''''++  -------------------------    ++;;;;;;;;;;;+++ +;;;;;;;;;;;;;++ ;;;;;;;;;;;;;;;+ ;;;;;;;;;;;;;;;+ ++++;;;;;;;+++++ ++++++;;;+++++++ +;;;;;++++++++++ +;;;+++++++;;;++ ++************** **************++  @@@@@@@@@@@@@@@@@@@@@@@@@    ++===========+++ +=============++ ===============+ ===============+ ++++=======+++++ ++++++===+++++++ +=====++++++++++ +===+++++++===++ ++;;;;;;;;;;;;;; ;;;;;;;;;;;;;;++  ,,,,,,,,,,,,,,,,,,,,,,,,,    ++&&&&&&&&&&&+++ +&&&&&&&&&&&&&++ &&&&&&&&&&&&&&&+ &&&&&&&&&&&&&&&+ ++++&&&&&&&+++++ ++++++&&&+++++++ +&&&&&++++++++++ +&&&+++++++&&&++ ++============== ==============++  +++++++++++++++++++++++++                                         +  +  + ++++++++ ++++++++ ++++++++ ++++++++ ++++++++ ++++++++ ++++++++ ++++++++ ++++++++ ++++++++  +++++++++++++++++                                              ",
" ++===========+++ +=============++ +=============++ ===============+ ===============+ ++++=======+++++ +======+++++++++ +==+++++++++==++ +++''''''''''''' '''''''''''''+++  -------------------------    ++;;;;;;;;;;;+++ +;;;;;;;;;;;;;++ +;;;;;;;;;;;;;++ ;;;;;;;;;;;;;;;+ ;;;;;;;;;;;;;;;+ ++++;;;;;;;+++++ +;;;;;;+++++++++ +;;+++++++++;;++ +++************* *************+++  @@@@@@@@@@@@@@@@@@@@@@@@@    ++===========+++ +=============++ +=============++ ===============+ ===============+ ++++=======+++++ +======+++++++++ +==+++++++++==++ +++;;;;;;;;;;;;; ;;;;;;;;;;;;;+++  ,,,,,,,,,,,,,,,,,,,,,,,,,    ++&&&&&&&&&&&+++ +&&&&&&&&&&&&&++ +&&&&&&&&&&&&&++ &&&&&&&&&&&&&&&+ &&&&&&&&&&&&&&&+ ++++&&&&&&&+++++ +&&&&&&+++++++++ +&&+++++++++&&++ +++============= =============+++  +++++++++++++++++++++++++                                         +++++++ ++++++++ ++++++++ ++++++++ ++++++++ ++++++++ ++++++++ ++++++++ ++++++++ ++++++++ ++++++++  +++++++++++++++++  +++++                                       ",
" +++=========++++ ++===========+++ ++===========+++ +=============++ ===============+ +=============++ ++======++++++++ ++++++++++++++++ ++++'''''''''''' ''''''''''''++++  -------------------------    +++;;;;;;;;;++++ ++;;;;;;;;;;;+++ ++;;;;;;;;;;;+++ +;;;;;;;;;;;;;++ ;;;;;;;;;;;;;;;+ +;;;;;;;;;;;;;++ ++;;;;;;++++++++ ++++++++++++++++ ++++************ ************++++  @@@@@@@@@@@@@@@@@@@@@@@@@    +++=========++++ ++===========+++ ++===========+++ +=============++ ===============+ +=============++ ++======++++++++ ++++++++++++++++ ++++;;;;;;;;;;;; ;;;;;;;;;;;;++++  ,,,,,,,,,,,,,,,,,,,,,,,,,    +++&&&&&&&&&++++ ++&&&&&&&&&&&+++ ++&&&&&&&&&&&+++ +&&&&&&&&&&&&&++ &&&&&&&&&&&&&&&+ +&&&&&&&&&&&&&++ ++&&&&&&++++++++ ++++++++++++++++ ++++============ ============++++  +++++++++++++++++++++++++                                         +++++++                                                                                            +++++++++++++++++  ++++++                                      ",
" +++++=====++++++ ++++===+===+++++ ++++===+===+++++ +++====+====++++ +=============++ ===============+ ++=======+++++++ ++++++++++++++++ +++++''''''''''' '''''''''''+++++  -------------------------    +++++;;;;;++++++ ++++;;;+;;;+++++ ++++;;;+;;;+++++ +++;;;;+;;;;++++ +;;;;;;;;;;;;;++ ;;;;;;;;;;;;;;;+ ++;;;;;;;+++++++ ++++++++++++++++ +++++*********** ***********+++++  @@@@@@@@@@@@@@@@@@@@@@@@@    +++++=====++++++ ++++===+===+++++ ++++===+===+++++ +++====+====++++ +=============++ ===============+ ++=======+++++++ ++++++++++++++++ +++++;;;;;;;;;;; ;;;;;;;;;;;+++++  ,,,,,,,,,,,,,,,,,,,,,,,,,    +++++&&&&&++++++ ++++&&&+&&&+++++ ++++&&&+&&&+++++ +++&&&&+&&&&++++ +&&&&&&&&&&&&&++ &&&&&&&&&&&&&&&+ ++&&&&&&&+++++++ ++++++++++++++++ +++++=========== ===========+++++  +++++++++++++++++++++++++                                                 ++++++++ ++++++++ ++++++++ ++++++++ ++++++++ ++++++++ ++++++++ ++++++++ ++++++++ ++++++++  +++++++++++++++++    +  ++                                     ",
" ++++++++++++++++ ++++++++++++++++ ++++++++++++++++ ++++++++++++++++ +++====+====++++ +======+======++ +++=======++++++ ++++++++++++++++ ++++++'''''''''' ''''''''''++++++  -------------------------    ++++++++++++++++ ++++++++++++++++ ++++++++++++++++ ++++++++++++++++ +++;;;;+;;;;++++ +;;;;;;+;;;;;;++ +++;;;;;;;++++++ ++++++++++++++++ ++++++********** **********++++++  @@@@@@@@@@@@@@@@@@@@@@@@@    ++++++++++++++++ ++++++++++++++++ ++++++++++++++++ ++++++++++++++++ +++====+====++++ +======+======++ +++=======++++++ ++++++++++++++++ ++++++;;;;;;;;;; ;;;;;;;;;;++++++  ,,,,,,,,,,,,,,,,,,,,,,,,,    ++++++++++++++++ ++++++++++++++++ ++++++++++++++++ ++++++++++++++++ +++&&&&+&&&&++++ +&&&&&&+&&&&&&++ +++&&&&&&&++++++ ++++++++++++++++ ++++++========== ==========++++++  +++++++++++++++++++++++++                                                 ++++++++ ++++++++ ++++++++ ++++++++ ++++++++ ++++++++ ++++++++ ++++++++ ++++++++ ++++++++  +++++++++++++++++    +   +                                     ",
" ++++++++++++++++ ++++++++++++++++ ++++++++++++++++ ++++++++++++++++ ++++++++++++++++ +++===+++===++++ +++++=====++++++ ++++++++++++++++ +++++++''''''''' '''''''''+++++++  -------------------------    ++++++++++++++++ ++++++++++++++++ ++++++++++++++++ ++++++++++++++++ ++++++++++++++++ +++;;;+++;;;++++ +++++;;;;;++++++ ++++++++++++++++ +++++++********* *********+++++++  @@@@@@@@@@@@@@@@@@@@@@@@@    ++++++++++++++++ ++++++++++++++++ ++++++++++++++++ ++++++++++++++++ ++++++++++++++++ +++===+++===++++ +++++=====++++++ ++++++++++++++++ +++++++;;;;;;;;; ;;;;;;;;;+++++++  ,,,,,,,,,,,,,,,,,,,,,,,,,    ++++++++++++++++ ++++++++++++++++ ++++++++++++++++ ++++++++++++++++ ++++++++++++++++ +++&&&+++&&&++++ +++++&&&&&++++++ ++++++++++++++++ +++++++========= =========+++++++  +++++++++++++++++++++++++                                         +       ++++++++ ++++++++ ++++++++ ++++++++ ++++++++ ++++++++ ++++++++ ++++++++ ++++++++ ++++++++  +++++++++++++++++    +  ++                                     ",
" ++++++++++++++++ ++++++++++++++++ ++++++++++++++++ ++++++++++++++++ ++++++++++++++++ ++++++++++++++++ ++++++++++++++++ ++++++++++++++++ +++++++++''''''' '''''''+++++++++  -------------------------    ++++++++++++++++ ++++++++++++++++ ++++++++++++++++ ++++++++++++++++ ++++++++++++++++ ++++++++++++++++ ++++++++++++++++ ++++++++++++++++ +++++++++******* *******+++++++++  @@@@@@@@@@@@@@@@@@@@@@@@@    ++++++++++++++++ ++++++++++++++++ ++++++++++++++++ ++++++++++++++++ ++++++++++++++++ ++++++++++++++++ ++++++++++++++++ ++++++++++++++++ +++++++++;;;;;;; ;;;;;;;+++++++++  ,,,,,,,,,,,,,,,,,,,,,,,,,    ++++++++++++++++ ++++++++++++++++ ++++++++++++++++ ++++++++++++++++ ++++++++++++++++ ++++++++++++++++ ++++++++++++++++ ++++++++++++++++ +++++++++======= =======+++++++++  +++++++++++++++++++++++++                                         +       ++++++++ ++++++++ ++++++++ ++++++++ ++++++++ ++++++++ ++++++++ ++++++++ ++++++++ ++++++++  +++++++++++++++++  ++++++                                      ",
" ++++++++++++++++ ++++++++++++++++ ++++++++++++++++ ++++++++++++++++ ++++++++++++++++ ++++++++++++++++ ++++++++++++++++ ++++++++++++++++ ++++++++++++'''' ''''++++++++++++  -------------------------    ++++++++++++++++ ++++++++++++++++ ++++++++++++++++ ++++++++++++++++ ++++++++++++++++ ++++++++++++++++ ++++++++++++++++ ++++++++++++++++ ++++++++++++**** ****++++++++++++  @@@@@@@@@@@@@@@@@@@@@@@@@    ++++++++++++++++ ++++++++++++++++ ++++++++++++++++ ++++++++++++++++ ++++++++++++++++ ++++++++++++++++ ++++++++++++++++ ++++++++++++++++ ++++++++++++;;;; ;;;;++++++++++++  ,,,,,,,,,,,,,,,,,,,,,,,,,    ++++++++++++++++ ++++++++++++++++ ++++++++++++++++ ++++++++++++++++ ++++++++++++++++ ++++++++++++++++ ++++++++++++++++ ++++++++++++++++ ++++++++++++==== ====++++++++++++  +++++++++++++++++++++++++                                         +++++++ ++++++++ ++++++++ ++++++++ ++++++++ ++++++++ ++++++++ ++++++++ ++++++++ ++++++++ ++++++++  +++++++++++++++++  +++++                                       ",
"                                                                                                                                                                            -------------------------                                                                                                                                                                               @@@@@@@@@@@@@@@@@@@@@@@@@                                                                                                                                                                               ,,,,,,,,,,,,,,,,,,,,,,,,,                                                                                                                                                                               +++++++++++++++++++++++++                                         +++++++ ++++++++ ++++++++ ++++++++ ++++++++ ++++++++ ++++++++ ++++++++ ++++++++ ++++++++ ++++++++  +++++++++++++++++                                              ",
" ++++++++++++++++ ++++++++++++++++ ++++++++++++++++ ++++++++++++++++ ++++++++++++++++ ++++++++++++++++ ++++++++++++++++ ++++++++++++++++ ++++++++++++'''' ''''++++++++++++  -------------------------    ++++++++++++++++ ++++++++++++++++ ++++++++++++++++ ++++++++++++++++ ++++++++++++++++ ++++++++++++++++ ++++++++++++++++ ++++++++++++++++ ++++++++++++**** ****++++++++++++  @@@@@@@@@@@@@@@@@@@@@@@@@    ++++++++++++++++ ++++++++++++++++ ++++++++++++++++ ++++++++++++++++ ++++++++++++++++ ++++++++++++++++ ++++++++++++++++ ++++++++++++++++ ++++++++++++;;;; ;;;;++++++++++++  ,,,,,,,,,,,,,,,,,,,,,,,,,    ++++++++++++++++ ++++++++++++++++ ++++++++++++++++ ++++++++++++++++ ++++++++++++++++ ++++++++++++++++ ++++++++++++++++ ++++++++++++++++ ++++++++++++==== ====++++++++++++  +++++++++++++++++++++++++                                         +       ++++++++ ++++++++ ++++++++ ++++++++ ++++++++ ++++++++ ++++++++ ++++++++ ++++++++ ++++++++  +++++++++++++++++  +++++++                                     ",
" ++++++++++++++++ ++++++++++++++++ ++++++++++++++++ ++++++++++++++++ ++++++++++++++++ ++++++++++++++++ +++++=====++++++ +++++=====++++++ +++++++++''''''' '''''''+++++++++  -------------------------    ++++++++++++++++ ++++++++++++++++ ++++++++++++++++ ++++++++++++++++ ++++++++++++++++ ++++++++++++++++ +++++;;;;;++++++ +++++;;;;;++++++ +++++++++******* *******+++++++++  @@@@@@@@@@@@@@@@@@@@@@@@@    ++++++++++++++++ ++++++++++++++++ ++++++++++++++++ ++++++++++++++++ ++++++++++++++++ ++++++++++++++++ +++++=====++++++ +++++=====++++++ +++++++++;;;;;;; ;;;;;;;+++++++++  ,,,,,,,,,,,,,,,,,,,,,,,,,    ++++++++++++++++ ++++++++++++++++ ++++++++++++++++ ++++++++++++++++ ++++++++++++++++ ++++++++++++++++ +++++&&&&&++++++ +++++&&&&&++++++ +++++++++======= =======+++++++++  +++++++++++++++++++++++++                                         +       ++++++++ ++++++++ ++++++++ ++++++++ ++++++++ ++++++++ ++++++++ ++++++++ ++++++++ ++++++++  +++++++++++++++++  +++++++                                     ",
" ++++++++++++++++ ++++++++++++++++ ++++++++++++++++ ++++++++++++++++ ++++++++++++++++ ++++++++++++++++ +++=========++++ +++=========++++ +++++++''''''''' ''''''''++++++++  -------------------------    ++++++++++++++++ ++++++++++++++++ ++++++++++++++++ ++++++++++++++++ ++++++++++++++++ ++++++++++++++++ +++;;;;;;;;;++++ +++;;;;;;;;;++++ +++++++********* ********++++++++  @@@@@@@@@@@@@@@@@@@@@@@@@    ++++++++++++++++ ++++++++++++++++ ++++++++++++++++ ++++++++++++++++ ++++++++++++++++ ++++++++++++++++ +++=========++++ +++=========++++ +++++++;;;;;;;;; ;;;;;;;;++++++++  ,,,,,,,,,,,,,,,,,,,,,,,,,    ++++++++++++++++ ++++++++++++++++ ++++++++++++++++ ++++++++++++++++ ++++++++++++++++ ++++++++++++++++ +++&&&&&&&&&++++ +++&&&&&&&&&++++ +++++++========= ========++++++++  +++++++++++++++++++++++++                                                                                                                                            +++++++++++++++++  +                                           ",
" ++++++++++++++++ ++++++++++++++++ ++++++++++++++++ ++++++++++++++++ ++++++++++++++++ ++++++++++++++++ ++===========+++ ++===========+++ ++++++'''''''''' ''''''''++++++++  -------------------------    ++++++++++++++++ ++++++++++++++++ ++++++++++++++++ ++++++++++++++++ ++++++++++++++++ ++++++++++++++++ ++;;;;;;;;;;;+++ ++;;;;;;;;;;;+++ ++++++********** ********++++++++  @@@@@@@@@@@@@@@@@@@@@@@@@    ++++++++++++++++ ++++++++++++++++ ++++++++++++++++ ++++++++++++++++ ++++++++++++++++ ++++++++++++++++ ++===========+++ ++===========+++ ++++++;;;;;;;;;; ;;;;;;;;++++++++  ,,,,,,,,,,,,,,,,,,,,,,,,,    ++++++++++++++++ ++++++++++++++++ ++++++++++++++++ ++++++++++++++++ ++++++++++++++++ ++++++++++++++++ ++&&&&&&&&&&&+++ ++&&&&&&&&&&&+++ ++++++========== ========++++++++  +++++++++++++++++++++++++                                                 ++++++++ ++++++++ ++++++++ ++++++++ ++++++++ ++++++++ ++++++++ ++++++++ ++++++++ ++++++++  +++++++++++++++++  +                                           ",
" ++++++++++++++++ ++++++++++++++++ ++++++++++++++++ ++++++++++++++++ ++++++++++++++++ ++++++++++++++++ ++===========+++ ++===========+++ +++++''''''''''' '''''''+++++++++  -------------------------    ++++++++++++++++ ++++++++++++++++ ++++++++++++++++ ++++++++++++++++ ++++++++++++++++ ++++++++++++++++ ++;;;;;;;;;;;+++ ++;;;;;;;;;;;+++ +++++*********** *******+++++++++  @@@@@@@@@@@@@@@@@@@@@@@@@    ++++++++++++++++ ++++++++++++++++ ++++++++++++++++ ++++++++++++++++ ++++++++++++++++ ++++++++++++++++ ++===========+++ ++===========+++ +++++;;;;;;;;;;; ;;;;;;;+++++++++  ,,,,,,,,,,,,,,,,,,,,,,,,,    ++++++++++++++++ ++++++++++++++++ ++++++++++++++++ ++++++++++++++++ ++++++++++++++++ ++++++++++++++++ ++&&&&&&&&&&&+++ ++&&&&&&&&&&&+++ +++++=========== =======+++++++++  +++++++++++++++++++++++++                                         +     + ++++++++ ++++++++ ++++++++ ++++++++ ++++++++ ++++++++ ++++++++ ++++++++ ++++++++ ++++++++  +++++++++++++++++  +                                           ",
" ++++++++++++++++ ++++++++++++++++ ++++++++++++++++ ++++++++++++++++ ++++++++++++++++ ++++++++++++++++ +==========+++++ +=============++ ++++'''''''''''' ''''''++++++++++  -------------------------    ++++++++++++++++ ++++++++++++++++ ++++++++++++++++ ++++++++++++++++ ++++++++++++++++ ++++++++++++++++ +;;;;;;;;;;+++++ +;;;;;;;;;;;;;++ ++++************ ******++++++++++  @@@@@@@@@@@@@@@@@@@@@@@@@    ++++++++++++++++ ++++++++++++++++ ++++++++++++++++ ++++++++++++++++ ++++++++++++++++ ++++++++++++++++ +==========+++++ +=============++ ++++;;;;;;;;;;;; ;;;;;;++++++++++  ,,,,,,,,,,,,,,,,,,,,,,,,,    ++++++++++++++++ ++++++++++++++++ ++++++++++++++++ ++++++++++++++++ ++++++++++++++++ ++++++++++++++++ +&&&&&&&&&&+++++ +&&&&&&&&&&&&&++ ++++============ ======++++++++++  +++++++++++++++++++++++++                                         +     + ++++++++ ++++++++ ++++++++ ++++++++ ++++++++ ++++++++ ++++++++ ++++++++ ++++++++ ++++++++  +++++++++++++++++  +                                           ",
" ++++++++++++++++ ++++++++++++++++ ++++++++++++++++ ++++++++++++++++ +++++=+++=++++++ ++++++++++++++++ +=======++++++++ +======+======++ +++''''''''''''' '''''+++++++++++  -------------------------    ++++++++++++++++ ++++++++++++++++ ++++++++++++++++ ++++++++++++++++ +++++;+++;++++++ ++++++++++++++++ +;;;;;;;++++++++ +;;;;;;+;;;;;;++ +++************* *****+++++++++++  @@@@@@@@@@@@@@@@@@@@@@@@@    ++++++++++++++++ ++++++++++++++++ ++++++++++++++++ ++++++++++++++++ +++++=+++=++++++ ++++++++++++++++ +=======++++++++ +======+======++ +++;;;;;;;;;;;;; ;;;;;+++++++++++  ,,,,,,,,,,,,,,,,,,,,,,,,,    ++++++++++++++++ ++++++++++++++++ ++++++++++++++++ ++++++++++++++++ +++++&+++&++++++ ++++++++++++++++ +&&&&&&&++++++++ +&&&&&&+&&&&&&++ +++============= =====+++++++++++  +++++++++++++++++++++++++                                         +++++++ ++++++++ ++++++++ ++++++++ ++++++++ ++++++++ ++++++++ ++++++++ ++++++++ ++++++++ ++++++++  +++++++++++++++++  +                                           ",
" ++++++++++++++++ ++++++++++++++++ ++++++++++++++++ ++++++++++++++++ +++=++=+=+++++++ ++++++++++++++++ +====+++++++++++ +======+======++ ++'''''''''''''' ''''++++++++++++  =========================    ++++++++++++++++ ++++++++++++++++ ++++++++++++++++ ++++++++++++++++ +++;++;+;+++++++ ++++++++++++++++ +;;;;+++++++++++ +;;;;;;+;;;;;;++ ++************** ****++++++++++++  ;;;;;;;;;;;;;;;;;;;;;;;;;    ++++++++++++++++ ++++++++++++++++ ++++++++++++++++ ++++++++++++++++ +++=++=+=+++++++ ++++++++++++++++ +====+++++++++++ +======+======++ ++;;;;;;;;;;;;;; ;;;;++++++++++++  =========================    ++++++++++++++++ ++++++++++++++++ ++++++++++++++++ ++++++++++++++++ +++&++&+&+++++++ ++++++++++++++++ +&&&&+++++++++++ +&&&&&&+&&&&&&++ ++============== ====++++++++++++  &&&&&&&&&&&&&&&&&&&&&&&&&                                         +++++++ ++++++++ ++++++++ ++++++++ ++++++++ ++++++++ ++++++++ ++++++++ ++++++++ ++++++++ ++++++++  +++++++++++++++++                                              ",
" +++++++=++++++++ +++++++=++++++++ +++++++=++++++++ +++++++=++++++++ ++++=++++++=++++ ++++++++++++++++ +=======++++++++ +=====+++=====++ ++'''''''''''''' '''+++++++++++++  =========================    +++++++;++++++++ +++++++;++++++++ +++++++;++++++++ +++++++;++++++++ ++++;++++++;++++ ++++++++++++++++ +;;;;;;;++++++++ +;;;;;+++;;;;;++ ++************** ***+++++++++++++  ;;;;;;;;;;;;;;;;;;;;;;;;;    +++++++=++++++++ +++++++=++++++++ +++++++=++++++++ +++++++=++++++++ ++++=++++++=++++ ++++++++++++++++ +=======++++++++ +=====+++=====++ ++;;;;;;;;;;;;;; ;;;+++++++++++++  =========================    +++++++&++++++++ +++++++&++++++++ +++++++&++++++++ +++++++&++++++++ ++++&++++++&++++ ++++++++++++++++ +&&&&&&&++++++++ +&&&&&+++&&&&&++ ++============== ===+++++++++++++  &&&&&&&&&&&&&&&&&&&&&&&&&                                         +     + ++++++++ ++++++++ ++++++++ ++++++++ ++++++++ ++++++++ ++++++++ ++++++++ ++++++++ ++++++++  +++++++++++++++++                                              ",
" ++++++===+++++++ ++++++===+++++++ +++++++=++++++++ +++++++=++++++++ ++++++++++=+++++ ++++++++++++++++ +==========+++++ +=====+++=====++ +''''''''''''''' ''++++++++++++++  =========================    ++++++;;;+++++++ ++++++;;;+++++++ +++++++;++++++++ +++++++;++++++++ ++++++++++;+++++ ++++++++++++++++ +;;;;;;;;;;+++++ +;;;;;+++;;;;;++ +*************** **++++++++++++++  ;;;;;;;;;;;;;;;;;;;;;;;;;    ++++++===+++++++ ++++++===+++++++ +++++++=++++++++ +++++++=++++++++ ++++++++++=+++++ ++++++++++++++++ +==========+++++ +=====+++=====++ +;;;;;;;;;;;;;;; ;;++++++++++++++  =========================    ++++++&&&+++++++ ++++++&&&+++++++ +++++++&++++++++ +++++++&++++++++ ++++++++++&+++++ ++++++++++++++++ +&&&&&&&&&&+++++ +&&&&&+++&&&&&++ +=============== ==++++++++++++++  &&&&&&&&&&&&&&&&&&&&&&&&&                                         +     + ++++++++ ++++++++ ++++++++ ++++++++ ++++++++ ++++++++ ++++++++ ++++++++ ++++++++ ++++++++  +++++++++++++++++  +++++++                                     ",
" ++++=======+++++ +++++=====++++++ ++++++===+++++++ +++++++=++++++++ ++==++++++++++++ ++++++++++++++++ ++===========+++ ++====+++====+++ +''''''''''''''' '+++++++++++++++  =========================    ++++;;;;;;;+++++ +++++;;;;;++++++ ++++++;;;+++++++ +++++++;++++++++ ++;;++++++++++++ ++++++++++++++++ ++;;;;;;;;;;;+++ ++;;;;+++;;;;+++ +*************** *+++++++++++++++  ;;;;;;;;;;;;;;;;;;;;;;;;;    ++++=======+++++ +++++=====++++++ ++++++===+++++++ +++++++=++++++++ ++==++++++++++++ ++++++++++++++++ ++===========+++ ++====+++====+++ +;;;;;;;;;;;;;;; ;+++++++++++++++  =========================    ++++&&&&&&&+++++ +++++&&&&&++++++ ++++++&&&+++++++ +++++++&++++++++ ++&&++++++++++++ ++++++++++++++++ ++&&&&&&&&&&&+++ ++&&&&+++&&&&+++ +=============== =+++++++++++++++  &&&&&&&&&&&&&&&&&&&&&&&&&                                                 ++++++++ ++++++++ ++++++++ ++++++++ ++++++++ ++++++++ ++++++++ ++++++++ ++++++++ ++++++++  +++++++++++++++++  +++++++                                     ",
" +++=========++++ +++++=====++++++ ++++++===+++++++ +++++++=++++++++ +++++++++++==+++ ++++++++++++++++ ++===========+++ ++===+++++===+++ +''''''''''''''' ++++++++++++++++  =========================    +++;;;;;;;;;++++ +++++;;;;;++++++ ++++++;;;+++++++ +++++++;++++++++ +++++++++++;;+++ ++++++++++++++++ ++;;;;;;;;;;;+++ ++;;;+++++;;;+++ +*************** ++++++++++++++++  ;;;;;;;;;;;;;;;;;;;;;;;;;    +++=========++++ +++++=====++++++ ++++++===+++++++ +++++++=++++++++ +++++++++++==+++ ++++++++++++++++ ++===========+++ ++===+++++===+++ +;;;;;;;;;;;;;;; ++++++++++++++++  =========================    +++&&&&&&&&&++++ +++++&&&&&++++++ ++++++&&&+++++++ +++++++&++++++++ +++++++++++&&+++ ++++++++++++++++ ++&&&&&&&&&&&+++ ++&&&+++++&&&+++ +=============== ++++++++++++++++  &&&&&&&&&&&&&&&&&&&&&&&&&                                                                                                                                            +++++++++++++++++  +  +  +                                     ",
" +=============++ ++++=======+++++ ++++++===+++++++ +++++++=++++++++ ++++=+++++++++++ ++++++++++++++++ +++=========++++ +++==+++++==++++ '''''''''''''''+ ++++++++++++++++  =========================    +;;;;;;;;;;;;;++ ++++;;;;;;;+++++ ++++++;;;+++++++ +++++++;++++++++ ++++;+++++++++++ ++++++++++++++++ +++;;;;;;;;;++++ +++;;+++++;;++++ ***************+ ++++++++++++++++  ;;;;;;;;;;;;;;;;;;;;;;;;;    +=============++ ++++=======+++++ ++++++===+++++++ +++++++=++++++++ ++++=+++++++++++ ++++++++++++++++ +++=========++++ +++==+++++==++++ ;;;;;;;;;;;;;;;+ ++++++++++++++++  =========================    +&&&&&&&&&&&&&++ ++++&&&&&&&+++++ ++++++&&&+++++++ +++++++&++++++++ ++++&+++++++++++ ++++++++++++++++ +++&&&&&&&&&++++ +++&&+++++&&++++ ===============+ ++++++++++++++++  &&&&&&&&&&&&&&&&&&&&&&&&&                                          +++  + ++++++++ ++++++++ ++++++++ ++++++++ ++++++++ ++++++++ ++++++++ ++++++++ ++++++++ ++++++++  +++++++++++++++++  +  +  +                                     ",
" +======+======++ +++=========++++ +++++=====++++++ +++++++=++++++++ +++=++++++=+++++ ++++++++++++++++ +++++=====++++++ ++++++++++++++++ ''''''''''''''++ ++++++++++++++++  =========================    +;;;;;;+;;;;;;++ +++;;;;;;;;;++++ +++++;;;;;++++++ +++++++;++++++++ +++;++++++;+++++ ++++++++++++++++ +++++;;;;;++++++ ++++++++++++++++ **************++ ++++++++++++++++  ;;;;;;;;;;;;;;;;;;;;;;;;;    +======+======++ +++=========++++ +++++=====++++++ +++++++=++++++++ +++=++++++=+++++ ++++++++++++++++ +++++=====++++++ ++++++++++++++++ ;;;;;;;;;;;;;;++ ++++++++++++++++  =========================    +&&&&&&+&&&&&&++ +++&&&&&&&&&++++ +++++&&&&&++++++ +++++++&++++++++ +++&++++++&+++++ ++++++++++++++++ +++++&&&&&++++++ ++++++++++++++++ ==============++ ++++++++++++++++  &&&&&&&&&&&&&&&&&&&&&&&&&                                         ++++ ++ ++++++++ ++++++++ ++++++++ ++++++++ ++++++++ ++++++++ ++++++++ ++++++++ ++++++++ ++++++++  +++++++++++++++++  +  +  +                                     ",
" ++====+++====+++ ++++===+===+++++ ++++++=+=+++++++ ++++++++++++++++ ++++++=+=++=++++ ++++++++++++++++ ++++++++++++++++ ++++++++++++++++ '''''''''''''+++ ++++++++++++++++  =========================    ++;;;;+++;;;;+++ ++++;;;+;;;+++++ ++++++;+;+++++++ ++++++++++++++++ ++++++;+;++;++++ ++++++++++++++++ ++++++++++++++++ ++++++++++++++++ *************+++ ++++++++++++++++  ;;;;;;;;;;;;;;;;;;;;;;;;;    ++====+++====+++ ++++===+===+++++ ++++++=+=+++++++ ++++++++++++++++ ++++++=+=++=++++ ++++++++++++++++ ++++++++++++++++ ++++++++++++++++ ;;;;;;;;;;;;;+++ ++++++++++++++++  =========================    ++&&&&+++&&&&+++ ++++&&&+&&&+++++ ++++++&+&+++++++ ++++++++++++++++ ++++++&+&++&++++ ++++++++++++++++ ++++++++++++++++ ++++++++++++++++ =============+++ ++++++++++++++++  &&&&&&&&&&&&&&&&&&&&&&&&&                                         +  ++++ ++++++++ ++++++++ ++++++++ ++++++++ ++++++++ ++++++++ ++++++++ ++++++++ ++++++++ ++++++++  +++++++++++++++++  +     +                                     ",
" ++++++++++++++++ ++++++++++++++++ ++++++++++++++++ ++++++++++++++++ +++++=+++=++++++ ++++++++++++++++ ++++++++++++++++ ++++++++++++++++ ''''''''''''++++ ++++++++++++++++  =========================    ++++++++++++++++ ++++++++++++++++ ++++++++++++++++ ++++++++++++++++ +++++;+++;++++++ ++++++++++++++++ ++++++++++++++++ ++++++++++++++++ ************++++ ++++++++++++++++  ;;;;;;;;;;;;;;;;;;;;;;;;;    ++++++++++++++++ ++++++++++++++++ ++++++++++++++++ ++++++++++++++++ +++++=+++=++++++ ++++++++++++++++ ++++++++++++++++ ++++++++++++++++ ;;;;;;;;;;;;++++ ++++++++++++++++  =========================    ++++++++++++++++ ++++++++++++++++ ++++++++++++++++ ++++++++++++++++ +++++&+++&++++++ ++++++++++++++++ ++++++++++++++++ ++++++++++++++++ ============++++ ++++++++++++++++  &&&&&&&&&&&&&&&&&&&&&&&&&                                         +   ++  ++++++++ ++++++++ ++++++++ ++++++++ ++++++++ ++++++++ ++++++++ ++++++++ ++++++++ ++++++++  +++++++++++++++++                                              ",
"                                                                                                                       ..................                                   =========================                                                                                                                          ..................                                   ;;;;;;;;;;;;;;;;;;;;;;;;;                                                                                                                          ..................                                   =========================                                                                                                                          ..................                                   &&&&&&&&&&&&&&&&&&&&&&&&&                                         +   +   ++++++++ ++++++++ ++++++++ ++++++++ ++++++++ ++++++++ ++++++++ ++++++++ ++++++++ ++++++++  +++++++++++++++++                                              ",
" ++++++++++++++++ ++++++++++++++++ ++++++++++++++++ ++++++++++++++++ ++++++++++++++++ ++++++++++++++++ ++++++++++++++++.+'+++++++++'++++.''''''''''''++++ ++++++++++++++++  =========================    ++++++++++++++++ ++++++++++++++++ ++++++++++++++++ ++++++++++++++++ ++++++++++++++++ ++++++++++++++++ ++++++++++++++++.+*+++++++++*++++.************++++ ++++++++++++++++  ;;;;;;;;;;;;;;;;;;;;;;;;;    ++++++++++++++++ ++++++++++++++++ ++++++++++++++++ ++++++++++++++++ ++++++++++++++++ ++++++++++++++++ ++++++++++++++++.+;+++++++++;++++.;;;;;;;;;;;;++++ ++++++++++++++++  =========================    ++++++++++++++++ ++++++++++++++++ ++++++++++++++++ ++++++++++++++++ ++++++++++++++++ ++++++++++++++++ ++++++++++++++++.+=+++++++++=++++.============++++ ++++++++++++++++  &&&&&&&&&&&&&&&&&&&&&&&&&                                         +++++++ ++++++++ ++++++++ ++++++++ ++++++++ ++++++++ ++++++++ ++++++++ ++++++++ ++++++++ ++++++++  +++++++++++++++++        +                                     ",
" ++++++----++++++ ++++++----++++++ ++++++++++++++++ ++++++++++++++++ ++++++++++++++++ ++++++++++++++++ +++++=====++++++.++'+++++++'+++++.'''''''''''''+++ ++++++++++++++++  =========================    ++++++@@@@++++++ ++++++@@@@++++++ ++++++++++++++++ ++++++++++++++++ ++++++++++++++++ ++++++++++++++++ +++++;;;;;++++++.++*+++++++*+++++.*************+++ ++++++++++++++++  ;;;;;;;;;;;;;;;;;;;;;;;;;    ++++++,,,,++++++ ++++++,,,,++++++ ++++++++++++++++ ++++++++++++++++ ++++++++++++++++ ++++++++++++++++ +++++=====++++++.++;+++++++;+++++.;;;;;;;;;;;;;+++ ++++++++++++++++  =========================    ++++++++++++++++ ++++++++++++++++ ++++++++++++++++ ++++++++++++++++ ++++++++++++++++ ++++++++++++++++ +++++&&&&&++++++.++=+++++++=+++++.=============+++ ++++++++++++++++  &&&&&&&&&&&&&&&&&&&&&&&&&                                         +++++++ ++++++++ ++++++++ ++++++++ ++++++++ ++++++++ ++++++++ ++++++++ ++++++++ ++++++++ ++++++++  +++++++++++++++++        +                                     ",
" ++++--------++++ ++++--------++++ ++++++++++++++++ ++++++++++++++++ ++++++++++++++++ ++++++++++++++++ +++=========++++.+++'+++++'++++++.''''''''''''''++ ++++++++++++++++  =========================    ++++@@@@@@@@++++ ++++@@@@@@@@++++ ++++++++++++++++ ++++++++++++++++ ++++++++++++++++ ++++++++++++++++ +++;;;;;;;;;++++.+++*+++++*++++++.**************++ ++++++++++++++++  ;;;;;;;;;;;;;;;;;;;;;;;;;    ++++,,,,,,,,++++ ++++,,,,,,,,++++ ++++++++++++++++ ++++++++++++++++ ++++++++++++++++ ++++++++++++++++ +++=========++++.+++;+++++;++++++.;;;;;;;;;;;;;;++ ++++++++++++++++  =========================    ++++++++++++++++ ++++++++++++++++ ++++++++++++++++ ++++++++++++++++ ++++++++++++++++ ++++++++++++++++ +++&&&&&&&&&++++.+++=+++++=++++++.==============++ ++++++++++++++++  &&&&&&&&&&&&&&&&&&&&&&&&&                                                 ++++++++ ++++++++ ++++++++ ++++++++ ++++++++ ++++++++ ++++++++ ++++++++ ++++++++ ++++++++  +++++++++++++++++  +++++++                                     ",
" +++----------+++ +++----------+++ ++++++++++++++++ ++++++++++++++++ ++++++++++++++++ ++++++++++++++++ ++===========+++.+++''''++'''+++'.'''''''''''''''+ ++++++++++++++++  =========================    +++@@@@@@@@@@+++ +++@@@@@@@@@@+++ ++++++++++++++++ ++++++++++++++++ ++++++++++++++++ ++++++++++++++++ ++;;;;;;;;;;;+++.+++****++***+++*.***************+ ++++++++++++++++  ;;;;;;;;;;;;;;;;;;;;;;;;;    +++,,,,,,,,,,+++ +++,,,,,,,,,,+++ ++++++++++++++++ ++++++++++++++++ ++++++++++++++++ ++++++++++++++++ ++===========+++.+++;;;;++;;;+++;.;;;;;;;;;;;;;;;+ ++++++++++++++++  =========================    ++++++++++++++++ ++++++++++++++++ ++++++++++++++++ ++++++++++++++++ ++++++++++++++++ ++++++++++++++++ ++&&&&&&&&&&&+++.+++====++===+++=.===============+ ++++++++++++++++  &&&&&&&&&&&&&&&&&&&&&&&&&                                          +++                                                                                               +++++++++++++++++  +++++++                                     ",
" ++------------++ ++------------++ +'''+++''+++''++ +++'+++''+++''++ +'''+++''+++''++ '++'''++''+++''+ ++===========+++.++++'-'+'=-='+'+.+''''''''''''''' ++++++++++++++++  =========================    ++@@@@@@@@@@@@++ ++@@@@@@@@@@@@++ +***+++**+++**++ +++*+++**+++**++ +***+++**+++**++ *++***++**+++**+ ++;;;;;;;;;;;+++.++++*@*+*;@;*+*+.+*************** ++++++++++++++++  ;;;;;;;;;;;;;;;;;;;;;;;;;    ++,,,,,,,,,,,,++ ++,,,,,,,,,,,,++ +;;;+++;;+++;;++ +++;+++;;+++;;++ +;;;+++;;+++;;++ ;++;;;++;;+++;;+ ++===========+++.++++;,;+;=,=;+;+.+;;;;;;;;;;;;;;; ++++++++++++++++  =========================    ++++++++++++++++ ++++++++++++++++ +===+++==+++==++ +++=+++==+++==++ +===+++==+++==++ =++===++==+++==+ ++&&&&&&&&&&&+++.++++=+=+=&+&=+=+.+=============== ++++++++++++++++  &&&&&&&&&&&&&&&&&&&&&&&&&                                         +++++   ++++++++ ++++++++ ++++++++ ++++++++ ++++++++ ++++++++ ++++++++ ++++++++ ++++++++ ++++++++  +++++++++++++++++        +                                     ",
" ++------------++ ++------------++ '+++'+'++'+'++'+ ++''++'++'+'++'+ '+++'+'++'+'++'+ '+'++++'++'+'++' +=============++.+++'=+='--=--'++.+''''''''''''''' '+++++++++++++++  =========================    ++@@@@@@@@@@@@++ ++@@@@@@@@@@@@++ *+++*+*++*+*++*+ ++**++*++*+*++*+ *+++*+*++*+*++*+ *+*++++*++*+*++* +;;;;;;;;;;;;;++.+++*;+;*@@;@@*++.+*************** *+++++++++++++++  ;;;;;;;;;;;;;;;;;;;;;;;;;    ++,,,,,,,,,,,,++ ++,,,,,,,,,,,,++ ;+++;+;++;+;++;+ ++;;++;++;+;++;+ ;+++;+;++;+;++;+ ;+;++++;++;+;++; +=============++.+++;=+=;,,=,,;++.+;;;;;;;;;;;;;;; ;+++++++++++++++  =========================    ++++++++++++++++ ++++++++++++++++ =+++=+=++=+=++=+ ++==++=++=+=++=+ =+++=+=++=+=++=+ =+=++++=++=+=++= +&&&&&&&&&&&&&++.+++=&+&=++&++=++.+=============== =+++++++++++++++  &&&&&&&&&&&&&&&&&&&&&&&&&                                         +   +   ++++++++ ++++++++ ++++++++ ++++++++ ++++++++ ++++++++ ++++++++ ++++++++ ++++++++ ++++++++  +++++++++++++++++        +                                     ",
" ++---==--==---++ ++---==--==---++ '+++'+'++'+'++'+ +'+'++'++'+'++'+ '+++'+'++'+'++'+ '+'++++'++'+'++' +=============++.+++'-=+===-=-'++.+''''''''''''''' ''++++++++++++++  =========================    ++@@@;;@@;;@@@++ ++@@@;;@@;;@@@++ *+++*+*++*+*++*+ +*+*++*++*+*++*+ *+++*+*++*+*++*+ *+*++++*++*+*++* +;;;;;;;;;;;;;++.+++*@;+;;;@;@*++.+*************** **++++++++++++++  ;;;;;;;;;;;;;;;;;;;;;;;;;    ++,,,==,,==,,,++ ++,,,==,,==,,,++ ;+++;+;++;+;++;+ +;+;++;++;+;++;+ ;+++;+;++;+;++;+ ;+;++++;++;+;++; +=============++.+++;,=+===,=,;++.+;;;;;;;;;;;;;;; ;;++++++++++++++  =========================    +++++&&++&&+++++ +++++&&++&&+++++ =+++=+=++=+=++=+ +=+=++=++=+=++=+ =+++=+=++=+=++=+ =+=++++=++=+=++= +&&&&&&&&&&&&&++.+++=+&+&&&+&+=++.+=============== ==++++++++++++++  &&&&&&&&&&&&&&&&&&&&&&&&&                                         +   +   ++++++++ ++++++++ ++++++++ ++++++++ ++++++++ ++++++++ ++++++++ ++++++++ ++++++++ ++++++++  +++++++++++++++++                                              ",
" +----==--==----+ +----==--==----+ +++'++'++'+'++'+ '++'++'++'+'++'+ +'''++'++'+'++'+ '+''''+'++'+'++' +=============++.+++'--=+=+=--'++.++'''''''''''''' '''+++++++++++++  =========================    +@@@@;;@@;;@@@@+ +@@@@;;@@;;@@@@+ +++*++*++*+*++*+ *++*++*++*+*++*+ +***++*++*+*++*+ *+****+*++*+*++* +;;;;;;;;;;;;;++.+++*@@;+;+;@@*++.++************** ***+++++++++++++  ;;;;;;;;;;;;;;;;;;;;;;;;;    +,,,,==,,==,,,,+ +,,,,==,,==,,,,+ +++;++;++;+;++;+ ;++;++;++;+;++;+ +;;;++;++;+;++;+ ;+;;;;+;++;+;++; +=============++.+++;,,=+=+=,,;++.++;;;;;;;;;;;;;; ;;;+++++++++++++  =========================    +++++&&++&&+++++ +++++&&++&&+++++ +++=++=++=+=++=+ =++=++=++=+=++=+ +===++=++=+=++=+ =+====+=++=+=++= +&&&&&&&&&&&&&++.+++=++&+&+&++=++.++============== ===+++++++++++++  &&&&&&&&&&&&&&&&&&&&&&&&&                                         +   +   ++++++++ ++++++++ ++++++++ ++++++++ ++++++++ ++++++++ ++++++++ ++++++++ ++++++++ ++++++++  +++++++++++++++++                                              ",
" +--------------+ +--------------+ ++'+++'++'+'++'+ '''''+'++'+'++'+ '+++'+'++'+'++'+ '+'++'+'++'+'++' +=============++.++'-==-+++=-'+++.++'''''''''''''' ''''++++++++++++  =========================    +@@@@@@@@@@@@@@+ +@@@@@@@@@@@@@@+ ++*+++*++*+*++*+ *****+*++*+*++*+ *+++*+*++*+*++*+ *+*++*+*++*+*++* +;;;;;;;;;;;;;++.++*@;;@+++;@*+++.++************** ****++++++++++++  ;;;;;;;;;;;;;;;;;;;;;;;;;    +,,,,,,,,,,,,,,+ +,,,,,,,,,,,,,,+ ++;+++;++;+;++;+ ;;;;;+;++;+;++;+ ;+++;+;++;+;++;+ ;+;++;+;++;+;++; +=============++.++;,==,+++=,;+++.++;;;;;;;;;;;;;; ;;;;++++++++++++  =========================    ++++++++++++++++ ++++++++++++++++ ++=+++=++=+=++=+ =====+=++=+=++=+ =+++=+=++=+=++=+ =+=++=+=++=+=++= +&&&&&&&&&&&&&++.++=+&&++++&+=+++.++============== ====++++++++++++  &&&&&&&&&&&&&&&&&&&&&&&&&                                         +++++++ ++++++++ ++++++++ ++++++++ ++++++++ ++++++++ ++++++++ ++++++++ ++++++++ ++++++++ ++++++++  +++++++++++++++++        +                                     ",
" +--------------+ +--------------+ +'++++'++'+'++'+ +++'++'++'+'++'+ '+++'+'++'+'++'+ '+'++'+'++'+'++' +=============++.++'-===-+=-'++++.+++''''''''''''' '''''+++++++++++  =========================    +@@@@@@@@@@@@@@+ +@@@@@@@@@@@@@@+ +*++++*++*+*++*+ +++*++*++*+*++*+ *+++*+*++*+*++*+ *+*++*+*++*+*++* +;;;;;;;;;;;;;++.++*@;;;@+;@*++++.+++************* *****+++++++++++  ;;;;;;;;;;;;;;;;;;;;;;;;;    +,,,,,,,,,,,,,,+ +,,,,,,,,,,,,,,+ +;++++;++;+;++;+ +++;++;++;+;++;+ ;+++;+;++;+;++;+ ;+;++;+;++;+;++; +=============++.++;,===,+=,;++++.+++;;;;;;;;;;;;; ;;;;;+++++++++++  =========================    ++++++++++++++++ ++++++++++++++++ +=++++=++=+=++=+ +++=++=++=+=++=+ =+++=+=++=+=++=+ =+=++=+=++=+=++= +&&&&&&&&&&&&&++.++=+&&&++&+=++++.+++============= =====+++++++++++  &&&&&&&&&&&&&&&&&&&&&&&&&                                         +++++++ ++++++++ ++++++++ ++++++++ ++++++++ ++++++++ ++++++++ ++++++++ ++++++++ ++++++++ ++++++++  +++++++++++++++++        +                                     ",
" +--==--==--==--+ +--==--==--==--+ '''''++''+++''++ +++'+++''+++''++ +'''+++''+++''++ '++''+++''+++''+ ++===========+++.++'=-+=====-'+++.++++'''''''''''' ''''''++++++++++  =========================    +@@;;@@;;@@;;@@+ +@@;;@@;;@@;;@@+ *****++**+++**++ +++*+++**+++**++ +***+++**+++**++ *++**+++**+++**+ ++;;;;;;;;;;;+++.++*;@+;;;;;@*+++.++++************ ******++++++++++  ;;;;;;;;;;;;;;;;;;;;;;;;;    +,,==,,==,,==,,+ +,,==,,==,,==,,+ ;;;;;++;;+++;;++ +++;+++;;+++;;++ +;;;+++;;+++;;++ ;++;;+++;;+++;;+ ++===========+++.++;=,+=====,;+++.++++;;;;;;;;;;;; ;;;;;;++++++++++  =========================    +++&&++&&++&&+++ +++&&++&&++&&+++ =====++==+++==++ +++=+++==+++==++ +===+++==+++==++ =++==+++==+++==+ ++&&&&&&&&&&&+++.++=&++&&&&&+=+++.++++============ ======++++++++++  &&&&&&&&&&&&&&&&&&&&&&&&&                                                 ++++++++ ++++++++ ++++++++ ++++++++ ++++++++ ++++++++ ++++++++ ++++++++ ++++++++ ++++++++  +++++++++++++++++  +++++++                                     ",
" +-=--==--==--=-+ +-=--==--==--=-+ ++++++++++++++++ ++++++++++++++++ ++++++++++++++++ ++++++++++++++++ ++===========+++.+++'-++--=+='+++.+++++''''''''''' '''''''+++++++++  =========================    +@;@@;;@@;;@@;@+ +@;@@;;@@;;@@;@+ ++++++++++++++++ ++++++++++++++++ ++++++++++++++++ ++++++++++++++++ ++;;;;;;;;;;;+++.+++*@++@@;+;*+++.+++++*********** *******+++++++++  ;;;;;;;;;;;;;;;;;;;;;;;;;    +,=,,==,,==,,=,+ +,=,,==,,==,,=,+ ++++++++++++++++ ++++++++++++++++ ++++++++++++++++ ++++++++++++++++ ++===========+++.+++;,++,,=+=;+++.+++++;;;;;;;;;;; ;;;;;;;+++++++++  =========================    ++&++&&++&&++&++ ++&++&&++&&++&++ ++++++++++++++++ ++++++++++++++++ ++++++++++++++++ ++++++++++++++++ ++&&&&&&&&&&&+++.+++=+++++&+&=+++.+++++=========== =======+++++++++  &&&&&&&&&&&&&&&&&&&&&&&&&                                             ++  ++++++++ ++++++++ ++++++++ ++++++++ ++++++++ ++++++++ ++++++++ ++++++++ ++++++++ ++++++++  +++++++++++++++++  +++++++                                     ",
" +--------------+ +--------------+ ++++++++++++++++ ++++++++++++++++ ++++++++++++++++ ++++++++++++++++ +++=========++++.+++''--''--''+++.++++++'''''''''' ''''''''++++++++  =========================    +@@@@@@@@@@@@@@+ +@@@@@@@@@@@@@@+ ++++++++++++++++ ++++++++++++++++ ++++++++++++++++ ++++++++++++++++ +++;;;;;;;;;++++.+++**@@**@@**+++.++++++********** ********++++++++  ;;;;;;;;;;;;;;;;;;;;;;;;;    +,,,,,,,,,,,,,,+ +,,,,,,,,,,,,,,+ ++++++++++++++++ ++++++++++++++++ ++++++++++++++++ ++++++++++++++++ +++=========++++.+++;;,,;;,,;;+++.++++++;;;;;;;;;; ;;;;;;;;++++++++  =========================    ++++++++++++++++ ++++++++++++++++ ++++++++++++++++ ++++++++++++++++ ++++++++++++++++ ++++++++++++++++ +++&&&&&&&&&++++.+++==++==++==+++.++++++========== ========++++++++  &&&&&&&&&&&&&&&&&&&&&&&&&                                          + ++++                                                               ..........                   +++++++++++++++++        +                                     ",
" +--+---++---+--+ +----+----+----+ ++++++++++++++++ ++++++++++++++++ ++++++++++++++++ ++++++++++++++++ +++++=====++++++.++''+''++''+''++.+++++++''''''''' ''''''''++++++++  =========================    +@@+@@@++@@@+@@+ +@@@@+@@@@+@@@@+ ++++++++++++++++ ++++++++++++++++ ++++++++++++++++ ++++++++++++++++ +++++;;;;;++++++.++**+**++**+**++.+++++++********* ********++++++++  ;;;;;;;;;;;;;;;;;;;;;;;;;    +,,+,,,++,,,+,,+ +,,,,+,,,,+,,,,+ ++++++++++++++++ ++++++++++++++++ ++++++++++++++++ ++++++++++++++++ +++++=====++++++.++;;+;;++;;+;;++.+++++++;;;;;;;;; ;;;;;;;;++++++++  =========================    ++++++++++++++++ ++++++++++++++++ ++++++++++++++++ ++++++++++++++++ ++++++++++++++++ ++++++++++++++++ +++++&&&&&++++++.++==+==++==+==++.+++++++========= ========++++++++  &&&&&&&&&&&&&&&&&&&&&&&&&                                         ++ +  + ++++++++ ++++++++ ++++++++ ++++++++ ++++++++ ++++++++ ++++++++.++++++++.++++++++ ++++++++  +++++++++++++++++        +                                     ",
" +-+++--++--+++-+ ++--+++--+++--++ ++++++++++++++++ ++++++++++++++++ ++++++++++++++++ ++++++++++++++++ ++++++++++++++++.+'++++++++++++'+.+++++++++''''''' '''''''+++++++++  =========================    +@+++@@++@@+++@+ ++@@+++@@+++@@++ ++++++++++++++++ ++++++++++++++++ ++++++++++++++++ ++++++++++++++++ ++++++++++++++++.+*++++++++++++*+.+++++++++******* *******+++++++++  ;;;;;;;;;;;;;;;;;;;;;;;;;    +,+++,,++,,+++,+ ++,,+++,,+++,,++ ++++++++++++++++ ++++++++++++++++ ++++++++++++++++ ++++++++++++++++ ++++++++++++++++.+;++++++++++++;+.+++++++++;;;;;;; ;;;;;;;+++++++++  =========================    ++++++++++++++++ ++++++++++++++++ ++++++++++++++++ ++++++++++++++++ ++++++++++++++++ ++++++++++++++++ ++++++++++++++++.+=++++++++++++=+.+++++++++======= =======+++++++++  &&&&&&&&&&&&&&&&&&&&&&&&&                                         +  +  + ++++++++ ++++++++ ++++++++ ++++++++ ++++++++ ++++++++ ++++++++.++++++++.++++++++ ++++++++  +++++++++++++++++                                              ",
" ++++++++++++++++ ++++++++++++++++ ++++++++++++++++ ++++++++++++++++ ++++++++++++++++ ++++++++++++++++ ++++++++++++++++.'++++++++++++++'.++++++++++++'''' ''''++++++++++++                               ++++++++++++++++ ++++++++++++++++ ++++++++++++++++ ++++++++++++++++ ++++++++++++++++ ++++++++++++++++ ++++++++++++++++.*++++++++++++++*.++++++++++++**** ****++++++++++++                               ++++++++++++++++ ++++++++++++++++ ++++++++++++++++ ++++++++++++++++ ++++++++++++++++ ++++++++++++++++ ++++++++++++++++.;++++++++++++++;.++++++++++++;;;; ;;;;++++++++++++                               ++++++++++++++++ ++++++++++++++++ ++++++++++++++++ ++++++++++++++++ ++++++++++++++++ ++++++++++++++++ ++++++++++++++++.=++++++++++++++=.++++++++++++==== ====++++++++++++                                                                    +  +  + ++++++++ ++++++++ ++++++++ ++++++++ ++++++++ ++++++++ ++++++++.++++++++.++++++++ ++++++++  +++++++++++++++++                                              ",
"                                                                                                                       ..................                                                                                                                                                                                      ..................                                                                                                                                                                                      ..................                                                                                                                                                                                      ..................                                                                                                     ++++ ++ ++++++++ ++++++++ ++++++++ ++++++++ ++++++++ ++++++++ ++++++++.++++++++.++++++++ ++++++++  +++++++++++++++++  +++++++                                     ",
"                                                                                                                                                                                                                                                                                                                                                                                                                                                                                                                                                                                                                                                                                                                                                                                                                                                                       ++  +  ++++++++ ++++++++ ++++++++ ++++++++ ++++++++ ++++++++ ++++++++.++++++++.++++++++ ++++++++  +++++++++++++++++  +++++++                                     ",
"                                                                                                                                                                                                                                                                                                                                                                                                                                                                                                                                                                                                                                                                                                                                                                                                                                                                              ++++++++ ++++++++ ++++++++ ++++++++ ++++++++ ++++++++ ++++++++.++++++++.++++++++ ++++++++  +++++++++++++++++  +  +  +                                     ",
"                                                                                                                                                                                                                                                                                                                                                                                                                                                                                                                                                                                                                                                                                                                                                                                                                                                                              ++++++++ ++++++++ ++++++++ ++++++++ ++++++++ ++++++++ ++++++++.++++++++.++++++++ ++++++++  +++++++++++++++++  +  +  +                                     ",
"                                                                                                                                                                                                                                                                                                                                                                                                                                                                                                                                                                                                                                                                                                                                                                                                                                                                              ++++++++ ++++++++ ++++++++ ++++++++ ++++++++ ++++++++ ++++++++.++++++++.++++++++ ++++++++                     +  +  +                                     ",
"                                                                                                                                                                                                                                                                                                                                                                                                                                                                                                                                                                                                                                                                                                                                                                                                                                                                                                                                            ..........                                      +     +                                     ",
"                                                                                                                                                                                                                                                                                                                                                                                                                                                                                                                                                                                                                                                                                                                                                                                                                                                                                                                                                                                                                                        ",
"                                                                                                                                                                                                                                                                                                                                                                                                                                                                                                                                                                                                                                                                                                                                                                                                                                                                                                                                                                                                                                        "};
